(G-CODE GENERATED BY FLATCAM vUnstable - www.flatcam.org - Version Date: 2021/2/7)

(Name: electronic_flasher_relay-B_Cu.gbr_iso_combined_cnc)
(Type: G-code from Geometry)
(Units: MM)

(Created on Thursday, 21 July 2022 at 09:45)

(This preprocessor is the default preprocessor used by FlatCAM.)
(It is made to work with MACH3 compatible motion controllers.)

(TOOL DIAMETER: 0.4536 mm)
(Feedrate_XY: 120.0 mm/min)
(Feedrate_Z: 60.0 mm/min)
(Feedrate rapids 1500.0 mm/min)

(Z_Cut: -0.1 mm)
(DepthPerCut: 0.025 mm <=>4 passes)
(Z_Move: 2.0 mm)
(Z Start: None mm)
(Z End: 15.0 mm)
(X,Y End: 0.0000, 0.0000 mm)
(Steps per circle: 16)
(Preprocessor Geometry: default)

(X range:  -42.9271 ...   -1.2817  mm)
(Y range:  -24.7183 ...   -1.2817  mm)

(Spindle Speed: 300.0 RPM)
G21
G90
G94

G01 F120.00
G00 Z2.0000

M03 S300.0
G01 F120.00
G00 X-2.9444 Y-4.7733
G01 F60.00
G01 Z-0.0250
G01 F120.00
G01 X-2.8679 Y-4.7805
G01 X-2.8010 Y-4.7972
G01 X-2.7252 Y-4.8295
G01 X-2.6563 Y-4.8746
G01 X-2.6052 Y-4.9209
G01 X-2.5536 Y-4.9851
G01 X-2.4937 Y-5.1116
G01 X-2.4733 Y-5.2444
G01 X-2.4732 Y-6.3732
G01 X-2.4188 Y-6.3732
G01 X-2.4188 Y-5.2112
G01 X-2.4258 Y-5.1431
G01 X-2.4653 Y-5.0240
G01 X-2.5303 Y-4.9185
G01 X-2.6178 Y-4.8309
G01 X-2.7231 Y-4.7657
G01 X-2.8421 Y-4.7260
G01 X-2.9114 Y-4.7188
G01 X-4.0732 Y-4.7188
G01 X-4.0732 Y-4.7732
G01 X-2.9444 Y-4.7733
G00 X-2.9444 Y-4.7733
G01 F60.00
G01 Z-0.0500
G01 F120.00
G01 X-2.8679 Y-4.7805
G01 X-2.8010 Y-4.7972
G01 X-2.7252 Y-4.8295
G01 X-2.6563 Y-4.8746
G01 X-2.6052 Y-4.9209
G01 X-2.5536 Y-4.9851
G01 X-2.4937 Y-5.1116
G01 X-2.4733 Y-5.2444
G01 X-2.4732 Y-6.3732
G01 X-2.4188 Y-6.3732
G01 X-2.4188 Y-5.2112
G01 X-2.4258 Y-5.1431
G01 X-2.4653 Y-5.0240
G01 X-2.5303 Y-4.9185
G01 X-2.6178 Y-4.8309
G01 X-2.7231 Y-4.7657
G01 X-2.8421 Y-4.7260
G01 X-2.9114 Y-4.7188
G01 X-4.0732 Y-4.7188
G01 X-4.0732 Y-4.7732
G01 X-2.9444 Y-4.7733
G00 X-2.9444 Y-4.7733
G01 F60.00
G01 Z-0.0750
G01 F120.00
G01 X-2.8679 Y-4.7805
G01 X-2.8010 Y-4.7972
G01 X-2.7252 Y-4.8295
G01 X-2.6563 Y-4.8746
G01 X-2.6052 Y-4.9209
G01 X-2.5536 Y-4.9851
G01 X-2.4937 Y-5.1116
G01 X-2.4733 Y-5.2444
G01 X-2.4732 Y-6.3732
G01 X-2.4188 Y-6.3732
G01 X-2.4188 Y-5.2112
G01 X-2.4258 Y-5.1431
G01 X-2.4653 Y-5.0240
G01 X-2.5303 Y-4.9185
G01 X-2.6178 Y-4.8309
G01 X-2.7231 Y-4.7657
G01 X-2.8421 Y-4.7260
G01 X-2.9114 Y-4.7188
G01 X-4.0732 Y-4.7188
G01 X-4.0732 Y-4.7732
G01 X-2.9444 Y-4.7733
G00 X-2.9444 Y-4.7733
G01 F60.00
G01 Z-0.1000
G01 F120.00
G01 X-2.8679 Y-4.7805
G01 X-2.8010 Y-4.7972
G01 X-2.7252 Y-4.8295
G01 X-2.6563 Y-4.8746
G01 X-2.6052 Y-4.9209
G01 X-2.5536 Y-4.9851
G01 X-2.4937 Y-5.1116
G01 X-2.4733 Y-5.2444
G01 X-2.4732 Y-6.3732
G01 X-2.4188 Y-6.3732
G01 X-2.4188 Y-5.2112
G01 X-2.4258 Y-5.1431
G01 X-2.4653 Y-5.0240
G01 X-2.5303 Y-4.9185
G01 X-2.6178 Y-4.8309
G01 X-2.7231 Y-4.7657
G01 X-2.8421 Y-4.7260
G01 X-2.9114 Y-4.7188
G01 X-4.0732 Y-4.7188
G01 X-4.0732 Y-4.7732
G01 X-2.9444 Y-4.7733
G00 Z2.0000
G00 X-6.9267 Y-5.2444
G01 F60.00
G01 Z-0.0250
G01 F120.00
G01 X-6.9195 Y-5.1679
G01 X-6.9028 Y-5.1010
G01 X-6.8705 Y-5.0252
G01 X-6.8254 Y-4.9563
G01 X-6.7791 Y-4.9052
G01 X-6.7149 Y-4.8536
G01 X-6.5884 Y-4.7937
G01 X-6.4556 Y-4.7733
G01 X-5.3268 Y-4.7732
G01 X-5.3268 Y-4.7188
G01 X-6.4888 Y-4.7188
G01 X-6.5569 Y-4.7258
G01 X-6.6760 Y-4.7653
G01 X-6.7815 Y-4.8303
G01 X-6.8691 Y-4.9178
G01 X-6.9343 Y-5.0231
G01 X-6.9740 Y-5.1421
G01 X-6.9812 Y-5.2114
G01 X-6.9812 Y-6.3732
G01 X-6.9268 Y-6.3732
G01 X-6.9267 Y-5.2444
G00 X-6.9267 Y-5.2444
G01 F60.00
G01 Z-0.0500
G01 F120.00
G01 X-6.9195 Y-5.1679
G01 X-6.9028 Y-5.1010
G01 X-6.8705 Y-5.0252
G01 X-6.8254 Y-4.9563
G01 X-6.7791 Y-4.9052
G01 X-6.7149 Y-4.8536
G01 X-6.5884 Y-4.7937
G01 X-6.4556 Y-4.7733
G01 X-5.3268 Y-4.7732
G01 X-5.3268 Y-4.7188
G01 X-6.4888 Y-4.7188
G01 X-6.5569 Y-4.7258
G01 X-6.6760 Y-4.7653
G01 X-6.7815 Y-4.8303
G01 X-6.8691 Y-4.9178
G01 X-6.9343 Y-5.0231
G01 X-6.9740 Y-5.1421
G01 X-6.9812 Y-5.2114
G01 X-6.9812 Y-6.3732
G01 X-6.9268 Y-6.3732
G01 X-6.9267 Y-5.2444
G00 X-6.9267 Y-5.2444
G01 F60.00
G01 Z-0.0750
G01 F120.00
G01 X-6.9195 Y-5.1679
G01 X-6.9028 Y-5.1010
G01 X-6.8705 Y-5.0252
G01 X-6.8254 Y-4.9563
G01 X-6.7791 Y-4.9052
G01 X-6.7149 Y-4.8536
G01 X-6.5884 Y-4.7937
G01 X-6.4556 Y-4.7733
G01 X-5.3268 Y-4.7732
G01 X-5.3268 Y-4.7188
G01 X-6.4888 Y-4.7188
G01 X-6.5569 Y-4.7258
G01 X-6.6760 Y-4.7653
G01 X-6.7815 Y-4.8303
G01 X-6.8691 Y-4.9178
G01 X-6.9343 Y-5.0231
G01 X-6.9740 Y-5.1421
G01 X-6.9812 Y-5.2114
G01 X-6.9812 Y-6.3732
G01 X-6.9268 Y-6.3732
G01 X-6.9267 Y-5.2444
G00 X-6.9267 Y-5.2444
G01 F60.00
G01 Z-0.1000
G01 F120.00
G01 X-6.9195 Y-5.1679
G01 X-6.9028 Y-5.1010
G01 X-6.8705 Y-5.0252
G01 X-6.8254 Y-4.9563
G01 X-6.7791 Y-4.9052
G01 X-6.7149 Y-4.8536
G01 X-6.5884 Y-4.7937
G01 X-6.4556 Y-4.7733
G01 X-5.3268 Y-4.7732
G01 X-5.3268 Y-4.7188
G01 X-6.4888 Y-4.7188
G01 X-6.5569 Y-4.7258
G01 X-6.6760 Y-4.7653
G01 X-6.7815 Y-4.8303
G01 X-6.8691 Y-4.9178
G01 X-6.9343 Y-5.0231
G01 X-6.9740 Y-5.1421
G01 X-6.9812 Y-5.2114
G01 X-6.9812 Y-6.3732
G01 X-6.9268 Y-6.3732
G01 X-6.9267 Y-5.2444
G00 Z2.0000
G00 X-8.6636 Y-5.3692
G01 F60.00
G01 Z-0.0250
G01 F120.00
G01 X-8.5991 Y-5.3209
G01 X-8.5508 Y-5.2564
G01 X-8.5211 Y-5.1773
G01 X-8.5188 Y-4.6468
G01 X-8.5732 Y-4.6468
G01 X-8.5735 Y-5.1311
G01 X-8.5950 Y-5.2170
G01 X-8.6320 Y-5.2723
G01 X-8.6834 Y-5.3145
G01 X-8.7667 Y-5.3443
G01 X-9.2732 Y-5.3468
G01 X-9.2732 Y-5.4012
G01 X-8.7642 Y-5.4012
G01 X-8.6636 Y-5.3692
G00 X-8.6636 Y-5.3692
G01 F60.00
G01 Z-0.0500
G01 F120.00
G01 X-8.5991 Y-5.3209
G01 X-8.5508 Y-5.2564
G01 X-8.5211 Y-5.1773
G01 X-8.5188 Y-4.6468
G01 X-8.5732 Y-4.6468
G01 X-8.5735 Y-5.1311
G01 X-8.5950 Y-5.2170
G01 X-8.6320 Y-5.2723
G01 X-8.6834 Y-5.3145
G01 X-8.7667 Y-5.3443
G01 X-9.2732 Y-5.3468
G01 X-9.2732 Y-5.4012
G01 X-8.7642 Y-5.4012
G01 X-8.6636 Y-5.3692
G00 X-8.6636 Y-5.3692
G01 F60.00
G01 Z-0.0750
G01 F120.00
G01 X-8.5991 Y-5.3209
G01 X-8.5508 Y-5.2564
G01 X-8.5211 Y-5.1773
G01 X-8.5188 Y-4.6468
G01 X-8.5732 Y-4.6468
G01 X-8.5735 Y-5.1311
G01 X-8.5950 Y-5.2170
G01 X-8.6320 Y-5.2723
G01 X-8.6834 Y-5.3145
G01 X-8.7667 Y-5.3443
G01 X-9.2732 Y-5.3468
G01 X-9.2732 Y-5.4012
G01 X-8.7642 Y-5.4012
G01 X-8.6636 Y-5.3692
G00 X-8.6636 Y-5.3692
G01 F60.00
G01 Z-0.1000
G01 F120.00
G01 X-8.5991 Y-5.3209
G01 X-8.5508 Y-5.2564
G01 X-8.5211 Y-5.1773
G01 X-8.5188 Y-4.6468
G01 X-8.5732 Y-4.6468
G01 X-8.5735 Y-5.1311
G01 X-8.5950 Y-5.2170
G01 X-8.6320 Y-5.2723
G01 X-8.6834 Y-5.3145
G01 X-8.7667 Y-5.3443
G01 X-9.2732 Y-5.3468
G01 X-9.2732 Y-5.4012
G01 X-8.7642 Y-5.4012
G01 X-8.6636 Y-5.3692
G00 Z2.0000
G00 X-11.2492 Y-5.2564
G01 F60.00
G01 Z-0.0250
G01 F120.00
G01 X-11.2009 Y-5.3209
G01 X-11.1364 Y-5.3692
G01 X-11.0573 Y-5.3989
G01 X-10.5268 Y-5.4012
G01 X-10.5268 Y-5.3468
G01 X-11.0111 Y-5.3465
G01 X-11.0970 Y-5.3250
G01 X-11.1523 Y-5.2880
G01 X-11.2050 Y-5.2170
G01 X-11.2243 Y-5.1533
G01 X-11.2268 Y-4.6468
G01 X-11.2812 Y-4.6468
G01 X-11.2812 Y-5.1558
G01 X-11.2492 Y-5.2564
G00 X-11.2492 Y-5.2564
G01 F60.00
G01 Z-0.0500
G01 F120.00
G01 X-11.2009 Y-5.3209
G01 X-11.1364 Y-5.3692
G01 X-11.0573 Y-5.3989
G01 X-10.5268 Y-5.4012
G01 X-10.5268 Y-5.3468
G01 X-11.0111 Y-5.3465
G01 X-11.0970 Y-5.3250
G01 X-11.1523 Y-5.2880
G01 X-11.2050 Y-5.2170
G01 X-11.2243 Y-5.1533
G01 X-11.2268 Y-4.6468
G01 X-11.2812 Y-4.6468
G01 X-11.2812 Y-5.1558
G01 X-11.2492 Y-5.2564
G00 X-11.2492 Y-5.2564
G01 F60.00
G01 Z-0.0750
G01 F120.00
G01 X-11.2009 Y-5.3209
G01 X-11.1364 Y-5.3692
G01 X-11.0573 Y-5.3989
G01 X-10.5268 Y-5.4012
G01 X-10.5268 Y-5.3468
G01 X-11.0111 Y-5.3465
G01 X-11.0970 Y-5.3250
G01 X-11.1523 Y-5.2880
G01 X-11.2050 Y-5.2170
G01 X-11.2243 Y-5.1533
G01 X-11.2268 Y-4.6468
G01 X-11.2812 Y-4.6468
G01 X-11.2812 Y-5.1558
G01 X-11.2492 Y-5.2564
G00 X-11.2492 Y-5.2564
G01 F60.00
G01 Z-0.1000
G01 F120.00
G01 X-11.2009 Y-5.3209
G01 X-11.1364 Y-5.3692
G01 X-11.0573 Y-5.3989
G01 X-10.5268 Y-5.4012
G01 X-10.5268 Y-5.3468
G01 X-11.0111 Y-5.3465
G01 X-11.0970 Y-5.3250
G01 X-11.1523 Y-5.2880
G01 X-11.2050 Y-5.2170
G01 X-11.2243 Y-5.1533
G01 X-11.2268 Y-4.6468
G01 X-11.2812 Y-4.6468
G01 X-11.2812 Y-5.1558
G01 X-11.2492 Y-5.2564
G00 Z2.0000
G00 X-11.2265 Y-2.9089
G01 F60.00
G01 Z-0.0250
G01 F120.00
G01 X-11.2135 Y-2.8436
G01 X-11.1822 Y-2.7849
G01 X-11.1351 Y-2.7378
G01 X-11.0764 Y-2.7065
G01 X-11.0000 Y-2.6932
G01 X-10.5268 Y-2.6932
G01 X-10.5268 Y-2.6388
G01 X-11.0573 Y-2.6411
G01 X-11.1364 Y-2.6708
G01 X-11.2009 Y-2.7191
G01 X-11.2492 Y-2.7836
G01 X-11.2789 Y-2.8627
G01 X-11.2812 Y-3.3932
G01 X-11.2268 Y-3.3932
G01 X-11.2265 Y-2.9089
G00 X-11.2265 Y-2.9089
G01 F60.00
G01 Z-0.0500
G01 F120.00
G01 X-11.2135 Y-2.8436
G01 X-11.1822 Y-2.7849
G01 X-11.1351 Y-2.7378
G01 X-11.0764 Y-2.7065
G01 X-11.0000 Y-2.6932
G01 X-10.5268 Y-2.6932
G01 X-10.5268 Y-2.6388
G01 X-11.0573 Y-2.6411
G01 X-11.1364 Y-2.6708
G01 X-11.2009 Y-2.7191
G01 X-11.2492 Y-2.7836
G01 X-11.2789 Y-2.8627
G01 X-11.2812 Y-3.3932
G01 X-11.2268 Y-3.3932
G01 X-11.2265 Y-2.9089
G00 X-11.2265 Y-2.9089
G01 F60.00
G01 Z-0.0750
G01 F120.00
G01 X-11.2135 Y-2.8436
G01 X-11.1822 Y-2.7849
G01 X-11.1351 Y-2.7378
G01 X-11.0764 Y-2.7065
G01 X-11.0000 Y-2.6932
G01 X-10.5268 Y-2.6932
G01 X-10.5268 Y-2.6388
G01 X-11.0573 Y-2.6411
G01 X-11.1364 Y-2.6708
G01 X-11.2009 Y-2.7191
G01 X-11.2492 Y-2.7836
G01 X-11.2789 Y-2.8627
G01 X-11.2812 Y-3.3932
G01 X-11.2268 Y-3.3932
G01 X-11.2265 Y-2.9089
G00 X-11.2265 Y-2.9089
G01 F60.00
G01 Z-0.1000
G01 F120.00
G01 X-11.2135 Y-2.8436
G01 X-11.1822 Y-2.7849
G01 X-11.1351 Y-2.7378
G01 X-11.0764 Y-2.7065
G01 X-11.0000 Y-2.6932
G01 X-10.5268 Y-2.6932
G01 X-10.5268 Y-2.6388
G01 X-11.0573 Y-2.6411
G01 X-11.1364 Y-2.6708
G01 X-11.2009 Y-2.7191
G01 X-11.2492 Y-2.7836
G01 X-11.2789 Y-2.8627
G01 X-11.2812 Y-3.3932
G01 X-11.2268 Y-3.3932
G01 X-11.2265 Y-2.9089
G00 Z2.0000
G00 X-8.7889 Y-2.6935
G01 F60.00
G01 Z-0.0250
G01 F120.00
G01 X-8.7236 Y-2.7065
G01 X-8.6649 Y-2.7378
G01 X-8.6178 Y-2.7849
G01 X-8.5865 Y-2.8436
G01 X-8.5732 Y-2.9200
G01 X-8.5732 Y-3.3932
G01 X-8.5188 Y-3.3932
G01 X-8.5211 Y-2.8627
G01 X-8.5508 Y-2.7836
G01 X-8.5991 Y-2.7191
G01 X-8.6636 Y-2.6708
G01 X-8.7427 Y-2.6411
G01 X-9.2732 Y-2.6388
G01 X-9.2732 Y-2.6932
G01 X-8.7889 Y-2.6935
G00 X-8.7889 Y-2.6935
G01 F60.00
G01 Z-0.0500
G01 F120.00
G01 X-8.7236 Y-2.7065
G01 X-8.6649 Y-2.7378
G01 X-8.6178 Y-2.7849
G01 X-8.5865 Y-2.8436
G01 X-8.5732 Y-2.9200
G01 X-8.5732 Y-3.3932
G01 X-8.5188 Y-3.3932
G01 X-8.5211 Y-2.8627
G01 X-8.5508 Y-2.7836
G01 X-8.5991 Y-2.7191
G01 X-8.6636 Y-2.6708
G01 X-8.7427 Y-2.6411
G01 X-9.2732 Y-2.6388
G01 X-9.2732 Y-2.6932
G01 X-8.7889 Y-2.6935
G00 X-8.7889 Y-2.6935
G01 F60.00
G01 Z-0.0750
G01 F120.00
G01 X-8.7236 Y-2.7065
G01 X-8.6649 Y-2.7378
G01 X-8.6178 Y-2.7849
G01 X-8.5865 Y-2.8436
G01 X-8.5732 Y-2.9200
G01 X-8.5732 Y-3.3932
G01 X-8.5188 Y-3.3932
G01 X-8.5211 Y-2.8627
G01 X-8.5508 Y-2.7836
G01 X-8.5991 Y-2.7191
G01 X-8.6636 Y-2.6708
G01 X-8.7427 Y-2.6411
G01 X-9.2732 Y-2.6388
G01 X-9.2732 Y-2.6932
G01 X-8.7889 Y-2.6935
G00 X-8.7889 Y-2.6935
G01 F60.00
G01 Z-0.1000
G01 F120.00
G01 X-8.7236 Y-2.7065
G01 X-8.6649 Y-2.7378
G01 X-8.6178 Y-2.7849
G01 X-8.5865 Y-2.8436
G01 X-8.5732 Y-2.9200
G01 X-8.5732 Y-3.3932
G01 X-8.5188 Y-3.3932
G01 X-8.5211 Y-2.8627
G01 X-8.5508 Y-2.7836
G01 X-8.5991 Y-2.7191
G01 X-8.6636 Y-2.6708
G01 X-8.7427 Y-2.6411
G01 X-9.2732 Y-2.6388
G01 X-9.2732 Y-2.6932
G01 X-8.7889 Y-2.6935
G00 Z2.0000
G00 X-10.8401 Y-8.3735
G01 F60.00
G01 Z-0.0250
G01 F120.00
G01 X-11.3282 Y-8.3732
G01 X-11.4215 Y-8.3176
G01 X-11.5202 Y-8.2706
G01 X-11.6437 Y-8.2255
G01 X-11.7715 Y-8.1944
G01 X-11.8797 Y-8.1786
G01 X-11.9889 Y-8.1730
G01 X-15.9450 Y-8.1727
G01 X-16.0653 Y-8.1786
G01 X-16.1844 Y-8.1963
G01 X-16.2905 Y-8.2226
G01 X-16.4147 Y-8.2661
G01 X-16.5332 Y-8.3231
G01 X-16.6269 Y-8.3795
G01 X-16.7148 Y-8.4444
G01 X-16.8128 Y-8.5322
G01 X-16.9006 Y-8.6302
G01 X-16.9655 Y-8.7181
G01 X-17.0219 Y-8.8118
G01 X-17.0789 Y-8.9303
G01 X-17.1195 Y-9.0437
G01 X-17.1487 Y-9.1606
G01 X-17.1664 Y-9.2797
G01 X-17.1720 Y-9.3889
G01 X-17.1650 Y-9.5313
G01 X-17.1487 Y-9.6394
G01 X-17.1195 Y-9.7563
G01 X-17.0789 Y-9.8697
G01 X-17.0324 Y-9.9686
G01 X-16.9591 Y-10.0910
G01 X-16.8937 Y-10.1786
G01 X-16.8128 Y-10.2678
G01 X-16.7236 Y-10.3487
G01 X-16.6269 Y-10.4205
G01 X-16.5235 Y-10.4824
G01 X-16.4043 Y-10.5379
G01 X-16.3013 Y-10.5745
G01 X-16.1953 Y-10.6013
G01 X-16.0653 Y-10.6214
G01 X-15.9450 Y-10.6273
G01 X-14.4268 Y-10.6273
G01 X-14.4267 Y-16.5309
G01 X-14.4204 Y-16.5790
G01 X-14.3906 Y-16.6779
G01 X-14.3708 Y-16.7162
G01 X-14.3365 Y-16.7578
G01 X-14.2279 Y-16.8429
G01 X-14.1801 Y-16.8605
G01 X-14.0861 Y-16.8780
G01 X-11.8478 Y-16.8782
G01 X-11.7965 Y-16.8710
G01 X-11.6915 Y-16.8370
G01 X-11.5778 Y-16.7631
G01 X-11.4142 Y-16.6868
G01 X-11.2398 Y-16.6401
G01 X-11.0600 Y-16.6244
G01 X-10.8802 Y-16.6401
G01 X-10.7058 Y-16.6868
G01 X-10.5422 Y-16.7631
G01 X-10.3943 Y-16.8667
G01 X-10.2667 Y-16.9943
G01 X-10.1631 Y-17.1422
G01 X-10.0868 Y-17.3058
G01 X-10.0401 Y-17.4802
G01 X-10.0301 Y-17.5471
G01 X-9.9719 Y-17.6812
G01 X-9.9278 Y-17.7283
G01 X-9.8354 Y-17.7929
G01 X-9.7873 Y-17.8118
G01 X-9.7058 Y-17.8260
G01 X-1.6345 Y-17.8268
G01 X-1.5810 Y-17.8204
G01 X-1.4821 Y-17.7906
G01 X-1.4438 Y-17.7708
G01 X-1.4022 Y-17.7365
G01 X-1.3413 Y-17.6661
G01 X-1.3123 Y-17.6176
G01 X-1.2817 Y-17.4740
G01 X-1.2818 Y-11.0206
G01 X-1.2881 Y-10.9725
G01 X-1.3179 Y-10.8736
G01 X-1.3438 Y-10.8263
G01 X-1.3720 Y-10.7937
G01 X-1.4806 Y-10.7086
G01 X-1.5284 Y-10.6910
G01 X-1.6284 Y-10.6733
G01 X-8.4061 Y-10.6732
G01 X-10.6066 Y-8.4728
G01 X-10.6451 Y-8.4432
G01 X-10.7367 Y-8.3941
G01 X-10.8401 Y-8.3735
G00 X-10.8401 Y-8.3735
G01 F60.00
G01 Z-0.0500
G01 F120.00
G01 X-11.3282 Y-8.3732
G01 X-11.4215 Y-8.3176
G01 X-11.5202 Y-8.2706
G01 X-11.6437 Y-8.2255
G01 X-11.7715 Y-8.1944
G01 X-11.8797 Y-8.1786
G01 X-11.9889 Y-8.1730
G01 X-15.9450 Y-8.1727
G01 X-16.0653 Y-8.1786
G01 X-16.1844 Y-8.1963
G01 X-16.2905 Y-8.2226
G01 X-16.4147 Y-8.2661
G01 X-16.5332 Y-8.3231
G01 X-16.6269 Y-8.3795
G01 X-16.7148 Y-8.4444
G01 X-16.8128 Y-8.5322
G01 X-16.9006 Y-8.6302
G01 X-16.9655 Y-8.7181
G01 X-17.0219 Y-8.8118
G01 X-17.0789 Y-8.9303
G01 X-17.1195 Y-9.0437
G01 X-17.1487 Y-9.1606
G01 X-17.1664 Y-9.2797
G01 X-17.1720 Y-9.3889
G01 X-17.1650 Y-9.5313
G01 X-17.1487 Y-9.6394
G01 X-17.1195 Y-9.7563
G01 X-17.0789 Y-9.8697
G01 X-17.0324 Y-9.9686
G01 X-16.9591 Y-10.0910
G01 X-16.8937 Y-10.1786
G01 X-16.8128 Y-10.2678
G01 X-16.7236 Y-10.3487
G01 X-16.6269 Y-10.4205
G01 X-16.5235 Y-10.4824
G01 X-16.4043 Y-10.5379
G01 X-16.3013 Y-10.5745
G01 X-16.1953 Y-10.6013
G01 X-16.0653 Y-10.6214
G01 X-15.9450 Y-10.6273
G01 X-14.4268 Y-10.6273
G01 X-14.4267 Y-16.5309
G01 X-14.4204 Y-16.5790
G01 X-14.3906 Y-16.6779
G01 X-14.3708 Y-16.7162
G01 X-14.3365 Y-16.7578
G01 X-14.2279 Y-16.8429
G01 X-14.1801 Y-16.8605
G01 X-14.0861 Y-16.8780
G01 X-11.8478 Y-16.8782
G01 X-11.7965 Y-16.8710
G01 X-11.6915 Y-16.8370
G01 X-11.5778 Y-16.7631
G01 X-11.4142 Y-16.6868
G01 X-11.2398 Y-16.6401
G01 X-11.0600 Y-16.6244
G01 X-10.8802 Y-16.6401
G01 X-10.7058 Y-16.6868
G01 X-10.5422 Y-16.7631
G01 X-10.3943 Y-16.8667
G01 X-10.2667 Y-16.9943
G01 X-10.1631 Y-17.1422
G01 X-10.0868 Y-17.3058
G01 X-10.0401 Y-17.4802
G01 X-10.0301 Y-17.5471
G01 X-9.9719 Y-17.6812
G01 X-9.9278 Y-17.7283
G01 X-9.8354 Y-17.7929
G01 X-9.7873 Y-17.8118
G01 X-9.7058 Y-17.8260
G01 X-1.6345 Y-17.8268
G01 X-1.5810 Y-17.8204
G01 X-1.4821 Y-17.7906
G01 X-1.4438 Y-17.7708
G01 X-1.4022 Y-17.7365
G01 X-1.3413 Y-17.6661
G01 X-1.3123 Y-17.6176
G01 X-1.2817 Y-17.4740
G01 X-1.2818 Y-11.0206
G01 X-1.2881 Y-10.9725
G01 X-1.3179 Y-10.8736
G01 X-1.3438 Y-10.8263
G01 X-1.3720 Y-10.7937
G01 X-1.4806 Y-10.7086
G01 X-1.5284 Y-10.6910
G01 X-1.6284 Y-10.6733
G01 X-8.4061 Y-10.6732
G01 X-10.6066 Y-8.4728
G01 X-10.6451 Y-8.4432
G01 X-10.7367 Y-8.3941
G01 X-10.8401 Y-8.3735
G00 X-10.8401 Y-8.3735
G01 F60.00
G01 Z-0.0750
G01 F120.00
G01 X-11.3282 Y-8.3732
G01 X-11.4215 Y-8.3176
G01 X-11.5202 Y-8.2706
G01 X-11.6437 Y-8.2255
G01 X-11.7715 Y-8.1944
G01 X-11.8797 Y-8.1786
G01 X-11.9889 Y-8.1730
G01 X-15.9450 Y-8.1727
G01 X-16.0653 Y-8.1786
G01 X-16.1844 Y-8.1963
G01 X-16.2905 Y-8.2226
G01 X-16.4147 Y-8.2661
G01 X-16.5332 Y-8.3231
G01 X-16.6269 Y-8.3795
G01 X-16.7148 Y-8.4444
G01 X-16.8128 Y-8.5322
G01 X-16.9006 Y-8.6302
G01 X-16.9655 Y-8.7181
G01 X-17.0219 Y-8.8118
G01 X-17.0789 Y-8.9303
G01 X-17.1195 Y-9.0437
G01 X-17.1487 Y-9.1606
G01 X-17.1664 Y-9.2797
G01 X-17.1720 Y-9.3889
G01 X-17.1650 Y-9.5313
G01 X-17.1487 Y-9.6394
G01 X-17.1195 Y-9.7563
G01 X-17.0789 Y-9.8697
G01 X-17.0324 Y-9.9686
G01 X-16.9591 Y-10.0910
G01 X-16.8937 Y-10.1786
G01 X-16.8128 Y-10.2678
G01 X-16.7236 Y-10.3487
G01 X-16.6269 Y-10.4205
G01 X-16.5235 Y-10.4824
G01 X-16.4043 Y-10.5379
G01 X-16.3013 Y-10.5745
G01 X-16.1953 Y-10.6013
G01 X-16.0653 Y-10.6214
G01 X-15.9450 Y-10.6273
G01 X-14.4268 Y-10.6273
G01 X-14.4267 Y-16.5309
G01 X-14.4204 Y-16.5790
G01 X-14.3906 Y-16.6779
G01 X-14.3708 Y-16.7162
G01 X-14.3365 Y-16.7578
G01 X-14.2279 Y-16.8429
G01 X-14.1801 Y-16.8605
G01 X-14.0861 Y-16.8780
G01 X-11.8478 Y-16.8782
G01 X-11.7965 Y-16.8710
G01 X-11.6915 Y-16.8370
G01 X-11.5778 Y-16.7631
G01 X-11.4142 Y-16.6868
G01 X-11.2398 Y-16.6401
G01 X-11.0600 Y-16.6244
G01 X-10.8802 Y-16.6401
G01 X-10.7058 Y-16.6868
G01 X-10.5422 Y-16.7631
G01 X-10.3943 Y-16.8667
G01 X-10.2667 Y-16.9943
G01 X-10.1631 Y-17.1422
G01 X-10.0868 Y-17.3058
G01 X-10.0401 Y-17.4802
G01 X-10.0301 Y-17.5471
G01 X-9.9719 Y-17.6812
G01 X-9.9278 Y-17.7283
G01 X-9.8354 Y-17.7929
G01 X-9.7873 Y-17.8118
G01 X-9.7058 Y-17.8260
G01 X-1.6345 Y-17.8268
G01 X-1.5810 Y-17.8204
G01 X-1.4821 Y-17.7906
G01 X-1.4438 Y-17.7708
G01 X-1.4022 Y-17.7365
G01 X-1.3413 Y-17.6661
G01 X-1.3123 Y-17.6176
G01 X-1.2817 Y-17.4740
G01 X-1.2818 Y-11.0206
G01 X-1.2881 Y-10.9725
G01 X-1.3179 Y-10.8736
G01 X-1.3438 Y-10.8263
G01 X-1.3720 Y-10.7937
G01 X-1.4806 Y-10.7086
G01 X-1.5284 Y-10.6910
G01 X-1.6284 Y-10.6733
G01 X-8.4061 Y-10.6732
G01 X-10.6066 Y-8.4728
G01 X-10.6451 Y-8.4432
G01 X-10.7367 Y-8.3941
G01 X-10.8401 Y-8.3735
G00 X-10.8401 Y-8.3735
G01 F60.00
G01 Z-0.1000
G01 F120.00
G01 X-11.3282 Y-8.3732
G01 X-11.4215 Y-8.3176
G01 X-11.5202 Y-8.2706
G01 X-11.6437 Y-8.2255
G01 X-11.7715 Y-8.1944
G01 X-11.8797 Y-8.1786
G01 X-11.9889 Y-8.1730
G01 X-15.9450 Y-8.1727
G01 X-16.0653 Y-8.1786
G01 X-16.1844 Y-8.1963
G01 X-16.2905 Y-8.2226
G01 X-16.4147 Y-8.2661
G01 X-16.5332 Y-8.3231
G01 X-16.6269 Y-8.3795
G01 X-16.7148 Y-8.4444
G01 X-16.8128 Y-8.5322
G01 X-16.9006 Y-8.6302
G01 X-16.9655 Y-8.7181
G01 X-17.0219 Y-8.8118
G01 X-17.0789 Y-8.9303
G01 X-17.1195 Y-9.0437
G01 X-17.1487 Y-9.1606
G01 X-17.1664 Y-9.2797
G01 X-17.1720 Y-9.3889
G01 X-17.1650 Y-9.5313
G01 X-17.1487 Y-9.6394
G01 X-17.1195 Y-9.7563
G01 X-17.0789 Y-9.8697
G01 X-17.0324 Y-9.9686
G01 X-16.9591 Y-10.0910
G01 X-16.8937 Y-10.1786
G01 X-16.8128 Y-10.2678
G01 X-16.7236 Y-10.3487
G01 X-16.6269 Y-10.4205
G01 X-16.5235 Y-10.4824
G01 X-16.4043 Y-10.5379
G01 X-16.3013 Y-10.5745
G01 X-16.1953 Y-10.6013
G01 X-16.0653 Y-10.6214
G01 X-15.9450 Y-10.6273
G01 X-14.4268 Y-10.6273
G01 X-14.4267 Y-16.5309
G01 X-14.4204 Y-16.5790
G01 X-14.3906 Y-16.6779
G01 X-14.3708 Y-16.7162
G01 X-14.3365 Y-16.7578
G01 X-14.2279 Y-16.8429
G01 X-14.1801 Y-16.8605
G01 X-14.0861 Y-16.8780
G01 X-11.8478 Y-16.8782
G01 X-11.7965 Y-16.8710
G01 X-11.6915 Y-16.8370
G01 X-11.5778 Y-16.7631
G01 X-11.4142 Y-16.6868
G01 X-11.2398 Y-16.6401
G01 X-11.0600 Y-16.6244
G01 X-10.8802 Y-16.6401
G01 X-10.7058 Y-16.6868
G01 X-10.5422 Y-16.7631
G01 X-10.3943 Y-16.8667
G01 X-10.2667 Y-16.9943
G01 X-10.1631 Y-17.1422
G01 X-10.0868 Y-17.3058
G01 X-10.0401 Y-17.4802
G01 X-10.0301 Y-17.5471
G01 X-9.9719 Y-17.6812
G01 X-9.9278 Y-17.7283
G01 X-9.8354 Y-17.7929
G01 X-9.7873 Y-17.8118
G01 X-9.7058 Y-17.8260
G01 X-1.6345 Y-17.8268
G01 X-1.5810 Y-17.8204
G01 X-1.4821 Y-17.7906
G01 X-1.4438 Y-17.7708
G01 X-1.4022 Y-17.7365
G01 X-1.3413 Y-17.6661
G01 X-1.3123 Y-17.6176
G01 X-1.2817 Y-17.4740
G01 X-1.2818 Y-11.0206
G01 X-1.2881 Y-10.9725
G01 X-1.3179 Y-10.8736
G01 X-1.3438 Y-10.8263
G01 X-1.3720 Y-10.7937
G01 X-1.4806 Y-10.7086
G01 X-1.5284 Y-10.6910
G01 X-1.6284 Y-10.6733
G01 X-8.4061 Y-10.6732
G01 X-10.6066 Y-8.4728
G01 X-10.6451 Y-8.4432
G01 X-10.7367 Y-8.3941
G01 X-10.8401 Y-8.3735
G00 Z2.0000
G00 X-6.9347 Y-8.9760
G01 F60.00
G01 Z-0.0250
G01 F120.00
G01 X-6.8697 Y-9.0815
G01 X-6.7822 Y-9.1691
G01 X-6.6769 Y-9.2343
G01 X-6.5579 Y-9.2740
G01 X-6.4886 Y-9.2812
G01 X-5.3268 Y-9.2812
G01 X-5.3268 Y-9.2268
G01 X-6.5078 Y-9.2231
G01 X-6.5884 Y-9.2063
G01 X-6.6648 Y-9.1755
G01 X-6.7240 Y-9.1400
G01 X-6.7871 Y-9.0871
G01 X-6.8400 Y-9.0240
G01 X-6.8755 Y-8.9648
G01 X-6.9063 Y-8.8884
G01 X-6.9231 Y-8.8078
G01 X-6.9268 Y-7.6268
G01 X-6.9812 Y-7.6268
G01 X-6.9812 Y-8.7888
G01 X-6.9742 Y-8.8569
G01 X-6.9347 Y-8.9760
G00 X-6.9347 Y-8.9760
G01 F60.00
G01 Z-0.0500
G01 F120.00
G01 X-6.8697 Y-9.0815
G01 X-6.7822 Y-9.1691
G01 X-6.6769 Y-9.2343
G01 X-6.5579 Y-9.2740
G01 X-6.4886 Y-9.2812
G01 X-5.3268 Y-9.2812
G01 X-5.3268 Y-9.2268
G01 X-6.5078 Y-9.2231
G01 X-6.5884 Y-9.2063
G01 X-6.6648 Y-9.1755
G01 X-6.7240 Y-9.1400
G01 X-6.7871 Y-9.0871
G01 X-6.8400 Y-9.0240
G01 X-6.8755 Y-8.9648
G01 X-6.9063 Y-8.8884
G01 X-6.9231 Y-8.8078
G01 X-6.9268 Y-7.6268
G01 X-6.9812 Y-7.6268
G01 X-6.9812 Y-8.7888
G01 X-6.9742 Y-8.8569
G01 X-6.9347 Y-8.9760
G00 X-6.9347 Y-8.9760
G01 F60.00
G01 Z-0.0750
G01 F120.00
G01 X-6.8697 Y-9.0815
G01 X-6.7822 Y-9.1691
G01 X-6.6769 Y-9.2343
G01 X-6.5579 Y-9.2740
G01 X-6.4886 Y-9.2812
G01 X-5.3268 Y-9.2812
G01 X-5.3268 Y-9.2268
G01 X-6.5078 Y-9.2231
G01 X-6.5884 Y-9.2063
G01 X-6.6648 Y-9.1755
G01 X-6.7240 Y-9.1400
G01 X-6.7871 Y-9.0871
G01 X-6.8400 Y-9.0240
G01 X-6.8755 Y-8.9648
G01 X-6.9063 Y-8.8884
G01 X-6.9231 Y-8.8078
G01 X-6.9268 Y-7.6268
G01 X-6.9812 Y-7.6268
G01 X-6.9812 Y-8.7888
G01 X-6.9742 Y-8.8569
G01 X-6.9347 Y-8.9760
G00 X-6.9347 Y-8.9760
G01 F60.00
G01 Z-0.1000
G01 F120.00
G01 X-6.8697 Y-9.0815
G01 X-6.7822 Y-9.1691
G01 X-6.6769 Y-9.2343
G01 X-6.5579 Y-9.2740
G01 X-6.4886 Y-9.2812
G01 X-5.3268 Y-9.2812
G01 X-5.3268 Y-9.2268
G01 X-6.5078 Y-9.2231
G01 X-6.5884 Y-9.2063
G01 X-6.6648 Y-9.1755
G01 X-6.7240 Y-9.1400
G01 X-6.7871 Y-9.0871
G01 X-6.8400 Y-9.0240
G01 X-6.8755 Y-8.9648
G01 X-6.9063 Y-8.8884
G01 X-6.9231 Y-8.8078
G01 X-6.9268 Y-7.6268
G01 X-6.9812 Y-7.6268
G01 X-6.9812 Y-8.7888
G01 X-6.9742 Y-8.8569
G01 X-6.9347 Y-8.9760
G00 Z2.0000
G00 X-5.7497 Y-12.2361
G01 F60.00
G01 Z-0.0250
G01 F120.00
G01 X-5.5418 Y-12.1387
G01 X-5.3464 Y-12.0691
G01 X-5.1453 Y-12.0184
G01 X-4.9183 Y-11.9839
G01 X-4.7000 Y-11.9732
G01 X-4.4707 Y-11.9853
G01 X-4.2656 Y-12.0160
G01 X-4.0643 Y-12.0661
G01 X-3.8478 Y-12.1427
G01 X-3.6328 Y-12.2463
G01 X-3.5922 Y-12.2058
G01 X-3.7268 Y-12.1318
G01 X-3.9937 Y-12.0262
G01 X-4.2717 Y-11.9548
G01 X-4.5565 Y-11.9188
G01 X-4.8435 Y-11.9188
G01 X-5.1283 Y-11.9548
G01 X-5.4063 Y-12.0262
G01 X-5.6732 Y-12.1318
G01 X-5.8078 Y-12.2058
G01 X-5.7672 Y-12.2463
G01 X-5.7497 Y-12.2361
G00 X-5.7497 Y-12.2361
G01 F60.00
G01 Z-0.0500
G01 F120.00
G01 X-5.5418 Y-12.1387
G01 X-5.3464 Y-12.0691
G01 X-5.1453 Y-12.0184
G01 X-4.9183 Y-11.9839
G01 X-4.7000 Y-11.9732
G01 X-4.4707 Y-11.9853
G01 X-4.2656 Y-12.0160
G01 X-4.0643 Y-12.0661
G01 X-3.8478 Y-12.1427
G01 X-3.6328 Y-12.2463
G01 X-3.5922 Y-12.2058
G01 X-3.7268 Y-12.1318
G01 X-3.9937 Y-12.0262
G01 X-4.2717 Y-11.9548
G01 X-4.5565 Y-11.9188
G01 X-4.8435 Y-11.9188
G01 X-5.1283 Y-11.9548
G01 X-5.4063 Y-12.0262
G01 X-5.6732 Y-12.1318
G01 X-5.8078 Y-12.2058
G01 X-5.7672 Y-12.2463
G01 X-5.7497 Y-12.2361
G00 X-5.7497 Y-12.2361
G01 F60.00
G01 Z-0.0750
G01 F120.00
G01 X-5.5418 Y-12.1387
G01 X-5.3464 Y-12.0691
G01 X-5.1453 Y-12.0184
G01 X-4.9183 Y-11.9839
G01 X-4.7000 Y-11.9732
G01 X-4.4707 Y-11.9853
G01 X-4.2656 Y-12.0160
G01 X-4.0643 Y-12.0661
G01 X-3.8478 Y-12.1427
G01 X-3.6328 Y-12.2463
G01 X-3.5922 Y-12.2058
G01 X-3.7268 Y-12.1318
G01 X-3.9937 Y-12.0262
G01 X-4.2717 Y-11.9548
G01 X-4.5565 Y-11.9188
G01 X-4.8435 Y-11.9188
G01 X-5.1283 Y-11.9548
G01 X-5.4063 Y-12.0262
G01 X-5.6732 Y-12.1318
G01 X-5.8078 Y-12.2058
G01 X-5.7672 Y-12.2463
G01 X-5.7497 Y-12.2361
G00 X-5.7497 Y-12.2361
G01 F60.00
G01 Z-0.1000
G01 F120.00
G01 X-5.5418 Y-12.1387
G01 X-5.3464 Y-12.0691
G01 X-5.1453 Y-12.0184
G01 X-4.9183 Y-11.9839
G01 X-4.7000 Y-11.9732
G01 X-4.4707 Y-11.9853
G01 X-4.2656 Y-12.0160
G01 X-4.0643 Y-12.0661
G01 X-3.8478 Y-12.1427
G01 X-3.6328 Y-12.2463
G01 X-3.5922 Y-12.2058
G01 X-3.7268 Y-12.1318
G01 X-3.9937 Y-12.0262
G01 X-4.2717 Y-11.9548
G01 X-4.5565 Y-11.9188
G01 X-4.8435 Y-11.9188
G01 X-5.1283 Y-11.9548
G01 X-5.4063 Y-12.0262
G01 X-5.6732 Y-12.1318
G01 X-5.8078 Y-12.2058
G01 X-5.7672 Y-12.2463
G01 X-5.7497 Y-12.2361
G00 Z2.0000
G00 X-6.9139 Y-14.7684
G01 F60.00
G01 Z-0.0250
G01 F120.00
G01 X-6.8252 Y-15.0414
G01 X-6.6970 Y-15.3106
G01 X-6.6537 Y-15.2672
G01 X-6.7573 Y-15.0522
G01 X-6.8339 Y-14.8357
G01 X-6.8840 Y-14.6344
G01 X-6.9147 Y-14.4293
G01 X-6.9268 Y-14.2000
G01 X-6.9147 Y-13.9707
G01 X-6.8840 Y-13.7656
G01 X-6.8339 Y-13.5643
G01 X-6.7573 Y-13.3478
G01 X-6.6537 Y-13.1328
G01 X-6.6970 Y-13.0894
G01 X-6.8252 Y-13.3586
G01 X-6.9139 Y-13.6316
G01 X-6.9677 Y-13.9135
G01 X-6.9857 Y-14.2000
G01 X-6.9677 Y-14.4865
G01 X-6.9139 Y-14.7684
G00 X-6.9139 Y-14.7684
G01 F60.00
G01 Z-0.0500
G01 F120.00
G01 X-6.8252 Y-15.0414
G01 X-6.6970 Y-15.3106
G01 X-6.6537 Y-15.2672
G01 X-6.7573 Y-15.0522
G01 X-6.8339 Y-14.8357
G01 X-6.8840 Y-14.6344
G01 X-6.9147 Y-14.4293
G01 X-6.9268 Y-14.2000
G01 X-6.9147 Y-13.9707
G01 X-6.8840 Y-13.7656
G01 X-6.8339 Y-13.5643
G01 X-6.7573 Y-13.3478
G01 X-6.6537 Y-13.1328
G01 X-6.6970 Y-13.0894
G01 X-6.8252 Y-13.3586
G01 X-6.9139 Y-13.6316
G01 X-6.9677 Y-13.9135
G01 X-6.9857 Y-14.2000
G01 X-6.9677 Y-14.4865
G01 X-6.9139 Y-14.7684
G00 X-6.9139 Y-14.7684
G01 F60.00
G01 Z-0.0750
G01 F120.00
G01 X-6.8252 Y-15.0414
G01 X-6.6970 Y-15.3106
G01 X-6.6537 Y-15.2672
G01 X-6.7573 Y-15.0522
G01 X-6.8339 Y-14.8357
G01 X-6.8840 Y-14.6344
G01 X-6.9147 Y-14.4293
G01 X-6.9268 Y-14.2000
G01 X-6.9147 Y-13.9707
G01 X-6.8840 Y-13.7656
G01 X-6.8339 Y-13.5643
G01 X-6.7573 Y-13.3478
G01 X-6.6537 Y-13.1328
G01 X-6.6970 Y-13.0894
G01 X-6.8252 Y-13.3586
G01 X-6.9139 Y-13.6316
G01 X-6.9677 Y-13.9135
G01 X-6.9857 Y-14.2000
G01 X-6.9677 Y-14.4865
G01 X-6.9139 Y-14.7684
G00 X-6.9139 Y-14.7684
G01 F60.00
G01 Z-0.1000
G01 F120.00
G01 X-6.8252 Y-15.0414
G01 X-6.6970 Y-15.3106
G01 X-6.6537 Y-15.2672
G01 X-6.7573 Y-15.0522
G01 X-6.8339 Y-14.8357
G01 X-6.8840 Y-14.6344
G01 X-6.9147 Y-14.4293
G01 X-6.9268 Y-14.2000
G01 X-6.9147 Y-13.9707
G01 X-6.8840 Y-13.7656
G01 X-6.8339 Y-13.5643
G01 X-6.7573 Y-13.3478
G01 X-6.6537 Y-13.1328
G01 X-6.6970 Y-13.0894
G01 X-6.8252 Y-13.3586
G01 X-6.9139 Y-13.6316
G01 X-6.9677 Y-13.9135
G01 X-6.9857 Y-14.2000
G01 X-6.9677 Y-14.4865
G01 X-6.9139 Y-14.7684
G00 Z2.0000
G00 X-8.9203 Y-15.1597
G01 F60.00
G01 Z-0.0250
G01 F120.00
G01 X-8.7791 Y-14.9944
G01 X-8.6646 Y-14.8068
G01 X-8.7306 Y-14.8068
G01 X-8.7968 Y-14.9171
G01 X-8.8675 Y-15.0129
G01 X-8.9618 Y-15.1182
G01 X-9.0671 Y-15.2125
G01 X-9.1629 Y-15.2832
G01 X-9.2732 Y-15.3494
G01 X-9.2732 Y-15.4154
G01 X-9.0856 Y-15.3009
G01 X-8.9203 Y-15.1597
G00 X-8.9203 Y-15.1597
G01 F60.00
G01 Z-0.0500
G01 F120.00
G01 X-8.7791 Y-14.9944
G01 X-8.6646 Y-14.8068
G01 X-8.7306 Y-14.8068
G01 X-8.7968 Y-14.9171
G01 X-8.8675 Y-15.0129
G01 X-8.9618 Y-15.1182
G01 X-9.0671 Y-15.2125
G01 X-9.1629 Y-15.2832
G01 X-9.2732 Y-15.3494
G01 X-9.2732 Y-15.4154
G01 X-9.0856 Y-15.3009
G01 X-8.9203 Y-15.1597
G00 X-8.9203 Y-15.1597
G01 F60.00
G01 Z-0.0750
G01 F120.00
G01 X-8.7791 Y-14.9944
G01 X-8.6646 Y-14.8068
G01 X-8.7306 Y-14.8068
G01 X-8.7968 Y-14.9171
G01 X-8.8675 Y-15.0129
G01 X-8.9618 Y-15.1182
G01 X-9.0671 Y-15.2125
G01 X-9.1629 Y-15.2832
G01 X-9.2732 Y-15.3494
G01 X-9.2732 Y-15.4154
G01 X-9.0856 Y-15.3009
G01 X-8.9203 Y-15.1597
G00 X-8.9203 Y-15.1597
G01 F60.00
G01 Z-0.1000
G01 F120.00
G01 X-8.7791 Y-14.9944
G01 X-8.6646 Y-14.8068
G01 X-8.7306 Y-14.8068
G01 X-8.7968 Y-14.9171
G01 X-8.8675 Y-15.0129
G01 X-8.9618 Y-15.1182
G01 X-9.0671 Y-15.2125
G01 X-9.1629 Y-15.2832
G01 X-9.2732 Y-15.3494
G01 X-9.2732 Y-15.4154
G01 X-9.0856 Y-15.3009
G01 X-8.9203 Y-15.1597
G00 Z2.0000
G00 X-10.7144 Y-15.3009
G01 F60.00
G01 Z-0.0250
G01 F120.00
G01 X-10.5268 Y-15.4154
G01 X-10.5268 Y-15.3494
G01 X-10.6371 Y-15.2832
G01 X-10.7329 Y-15.2125
G01 X-10.8382 Y-15.1182
G01 X-10.9325 Y-15.0129
G01 X-11.0032 Y-14.9171
G01 X-11.0694 Y-14.8068
G01 X-11.1354 Y-14.8068
G01 X-11.0209 Y-14.9944
G01 X-10.8797 Y-15.1597
G01 X-10.7144 Y-15.3009
G00 X-10.7144 Y-15.3009
G01 F60.00
G01 Z-0.0500
G01 F120.00
G01 X-10.5268 Y-15.4154
G01 X-10.5268 Y-15.3494
G01 X-10.6371 Y-15.2832
G01 X-10.7329 Y-15.2125
G01 X-10.8382 Y-15.1182
G01 X-10.9325 Y-15.0129
G01 X-11.0032 Y-14.9171
G01 X-11.0694 Y-14.8068
G01 X-11.1354 Y-14.8068
G01 X-11.0209 Y-14.9944
G01 X-10.8797 Y-15.1597
G01 X-10.7144 Y-15.3009
G00 X-10.7144 Y-15.3009
G01 F60.00
G01 Z-0.0750
G01 F120.00
G01 X-10.5268 Y-15.4154
G01 X-10.5268 Y-15.3494
G01 X-10.6371 Y-15.2832
G01 X-10.7329 Y-15.2125
G01 X-10.8382 Y-15.1182
G01 X-10.9325 Y-15.0129
G01 X-11.0032 Y-14.9171
G01 X-11.0694 Y-14.8068
G01 X-11.1354 Y-14.8068
G01 X-11.0209 Y-14.9944
G01 X-10.8797 Y-15.1597
G01 X-10.7144 Y-15.3009
G00 X-10.7144 Y-15.3009
G01 F60.00
G01 Z-0.1000
G01 F120.00
G01 X-10.5268 Y-15.4154
G01 X-10.5268 Y-15.3494
G01 X-10.6371 Y-15.2832
G01 X-10.7329 Y-15.2125
G01 X-10.8382 Y-15.1182
G01 X-10.9325 Y-15.0129
G01 X-11.0032 Y-14.9171
G01 X-11.0694 Y-14.8068
G01 X-11.1354 Y-14.8068
G01 X-11.0209 Y-14.9944
G01 X-10.8797 Y-15.1597
G01 X-10.7144 Y-15.3009
G00 Z2.0000
G00 X-11.0091 Y-13.4523
G01 F60.00
G01 Z-0.0250
G01 F120.00
G01 X-10.9256 Y-13.3383
G01 X-10.8301 Y-13.2341
G01 X-10.7417 Y-13.1544
G01 X-10.6462 Y-13.0832
G01 X-10.5268 Y-13.0106
G01 X-10.5268 Y-12.9446
G01 X-10.7144 Y-13.0591
G01 X-10.8797 Y-13.2003
G01 X-11.0209 Y-13.3656
G01 X-11.1354 Y-13.5532
G01 X-11.0694 Y-13.5532
G01 X-11.0091 Y-13.4523
G00 X-11.0091 Y-13.4523
G01 F60.00
G01 Z-0.0500
G01 F120.00
G01 X-10.9256 Y-13.3383
G01 X-10.8301 Y-13.2341
G01 X-10.7417 Y-13.1544
G01 X-10.6462 Y-13.0832
G01 X-10.5268 Y-13.0106
G01 X-10.5268 Y-12.9446
G01 X-10.7144 Y-13.0591
G01 X-10.8797 Y-13.2003
G01 X-11.0209 Y-13.3656
G01 X-11.1354 Y-13.5532
G01 X-11.0694 Y-13.5532
G01 X-11.0091 Y-13.4523
G00 X-11.0091 Y-13.4523
G01 F60.00
G01 Z-0.0750
G01 F120.00
G01 X-10.9256 Y-13.3383
G01 X-10.8301 Y-13.2341
G01 X-10.7417 Y-13.1544
G01 X-10.6462 Y-13.0832
G01 X-10.5268 Y-13.0106
G01 X-10.5268 Y-12.9446
G01 X-10.7144 Y-13.0591
G01 X-10.8797 Y-13.2003
G01 X-11.0209 Y-13.3656
G01 X-11.1354 Y-13.5532
G01 X-11.0694 Y-13.5532
G01 X-11.0091 Y-13.4523
G00 X-11.0091 Y-13.4523
G01 F60.00
G01 Z-0.1000
G01 F120.00
G01 X-10.9256 Y-13.3383
G01 X-10.8301 Y-13.2341
G01 X-10.7417 Y-13.1544
G01 X-10.6462 Y-13.0832
G01 X-10.5268 Y-13.0106
G01 X-10.5268 Y-12.9446
G01 X-10.7144 Y-13.0591
G01 X-10.8797 Y-13.2003
G01 X-11.0209 Y-13.3656
G01 X-11.1354 Y-13.5532
G01 X-11.0694 Y-13.5532
G01 X-11.0091 Y-13.4523
G00 Z2.0000
G00 X-9.1723 Y-13.0709
G01 F60.00
G01 Z-0.0250
G01 F120.00
G01 X-9.0583 Y-13.1544
G01 X-8.9541 Y-13.2499
G01 X-8.8744 Y-13.3383
G01 X-8.8032 Y-13.4338
G01 X-8.7306 Y-13.5532
G01 X-8.6646 Y-13.5532
G01 X-8.7791 Y-13.3656
G01 X-8.9203 Y-13.2003
G01 X-9.0856 Y-13.0591
G01 X-9.2732 Y-12.9446
G01 X-9.2732 Y-13.0106
G01 X-9.1723 Y-13.0709
G00 X-9.1723 Y-13.0709
G01 F60.00
G01 Z-0.0500
G01 F120.00
G01 X-9.0583 Y-13.1544
G01 X-8.9541 Y-13.2499
G01 X-8.8744 Y-13.3383
G01 X-8.8032 Y-13.4338
G01 X-8.7306 Y-13.5532
G01 X-8.6646 Y-13.5532
G01 X-8.7791 Y-13.3656
G01 X-8.9203 Y-13.2003
G01 X-9.0856 Y-13.0591
G01 X-9.2732 Y-12.9446
G01 X-9.2732 Y-13.0106
G01 X-9.1723 Y-13.0709
G00 X-9.1723 Y-13.0709
G01 F60.00
G01 Z-0.0750
G01 F120.00
G01 X-9.0583 Y-13.1544
G01 X-8.9541 Y-13.2499
G01 X-8.8744 Y-13.3383
G01 X-8.8032 Y-13.4338
G01 X-8.7306 Y-13.5532
G01 X-8.6646 Y-13.5532
G01 X-8.7791 Y-13.3656
G01 X-8.9203 Y-13.2003
G01 X-9.0856 Y-13.0591
G01 X-9.2732 Y-12.9446
G01 X-9.2732 Y-13.0106
G01 X-9.1723 Y-13.0709
G00 X-9.1723 Y-13.0709
G01 F60.00
G01 Z-0.1000
G01 F120.00
G01 X-9.0583 Y-13.1544
G01 X-8.9541 Y-13.2499
G01 X-8.8744 Y-13.3383
G01 X-8.8032 Y-13.4338
G01 X-8.7306 Y-13.5532
G01 X-8.6646 Y-13.5532
G01 X-8.7791 Y-13.3656
G01 X-8.9203 Y-13.2003
G01 X-9.0856 Y-13.0591
G01 X-9.2732 Y-12.9446
G01 X-9.2732 Y-13.0106
G01 X-9.1723 Y-13.0709
G00 Z2.0000
G00 X-5.1283 Y-16.4452
G01 F60.00
G01 Z-0.0250
G01 F120.00
G01 X-4.8435 Y-16.4812
G01 X-4.5565 Y-16.4812
G01 X-4.2717 Y-16.4452
G01 X-3.9937 Y-16.3738
G01 X-3.7268 Y-16.2682
G01 X-3.5922 Y-16.1942
G01 X-3.6328 Y-16.1537
G01 X-3.8478 Y-16.2573
G01 X-4.0643 Y-16.3339
G01 X-4.2656 Y-16.3840
G01 X-4.4707 Y-16.4147
G01 X-4.7000 Y-16.4268
G01 X-4.9293 Y-16.4147
G01 X-5.1344 Y-16.3840
G01 X-5.3357 Y-16.3339
G01 X-5.5522 Y-16.2573
G01 X-5.7672 Y-16.1537
G01 X-5.8078 Y-16.1942
G01 X-5.6732 Y-16.2682
G01 X-5.4063 Y-16.3738
G01 X-5.1283 Y-16.4452
G00 X-5.1283 Y-16.4452
G01 F60.00
G01 Z-0.0500
G01 F120.00
G01 X-4.8435 Y-16.4812
G01 X-4.5565 Y-16.4812
G01 X-4.2717 Y-16.4452
G01 X-3.9937 Y-16.3738
G01 X-3.7268 Y-16.2682
G01 X-3.5922 Y-16.1942
G01 X-3.6328 Y-16.1537
G01 X-3.8478 Y-16.2573
G01 X-4.0643 Y-16.3339
G01 X-4.2656 Y-16.3840
G01 X-4.4707 Y-16.4147
G01 X-4.7000 Y-16.4268
G01 X-4.9293 Y-16.4147
G01 X-5.1344 Y-16.3840
G01 X-5.3357 Y-16.3339
G01 X-5.5522 Y-16.2573
G01 X-5.7672 Y-16.1537
G01 X-5.8078 Y-16.1942
G01 X-5.6732 Y-16.2682
G01 X-5.4063 Y-16.3738
G01 X-5.1283 Y-16.4452
G00 X-5.1283 Y-16.4452
G01 F60.00
G01 Z-0.0750
G01 F120.00
G01 X-4.8435 Y-16.4812
G01 X-4.5565 Y-16.4812
G01 X-4.2717 Y-16.4452
G01 X-3.9937 Y-16.3738
G01 X-3.7268 Y-16.2682
G01 X-3.5922 Y-16.1942
G01 X-3.6328 Y-16.1537
G01 X-3.8478 Y-16.2573
G01 X-4.0643 Y-16.3339
G01 X-4.2656 Y-16.3840
G01 X-4.4707 Y-16.4147
G01 X-4.7000 Y-16.4268
G01 X-4.9293 Y-16.4147
G01 X-5.1344 Y-16.3840
G01 X-5.3357 Y-16.3339
G01 X-5.5522 Y-16.2573
G01 X-5.7672 Y-16.1537
G01 X-5.8078 Y-16.1942
G01 X-5.6732 Y-16.2682
G01 X-5.4063 Y-16.3738
G01 X-5.1283 Y-16.4452
G00 X-5.1283 Y-16.4452
G01 F60.00
G01 Z-0.1000
G01 F120.00
G01 X-4.8435 Y-16.4812
G01 X-4.5565 Y-16.4812
G01 X-4.2717 Y-16.4452
G01 X-3.9937 Y-16.3738
G01 X-3.7268 Y-16.2682
G01 X-3.5922 Y-16.1942
G01 X-3.6328 Y-16.1537
G01 X-3.8478 Y-16.2573
G01 X-4.0643 Y-16.3339
G01 X-4.2656 Y-16.3840
G01 X-4.4707 Y-16.4147
G01 X-4.7000 Y-16.4268
G01 X-4.9293 Y-16.4147
G01 X-5.1344 Y-16.3840
G01 X-5.3357 Y-16.3339
G01 X-5.5522 Y-16.2573
G01 X-5.7672 Y-16.1537
G01 X-5.8078 Y-16.1942
G01 X-5.6732 Y-16.2682
G01 X-5.4063 Y-16.3738
G01 X-5.1283 Y-16.4452
G00 Z2.0000
G00 X-5.7398 Y-19.4311
G01 F60.00
G01 Z-0.0250
G01 F120.00
G01 X-5.5522 Y-19.3427
G01 X-5.3570 Y-19.2726
G01 X-5.1453 Y-19.2184
G01 X-4.9183 Y-19.1839
G01 X-4.7000 Y-19.1732
G01 X-4.4707 Y-19.1853
G01 X-4.2656 Y-19.2160
G01 X-4.0643 Y-19.2661
G01 X-3.8478 Y-19.3427
G01 X-3.6328 Y-19.4463
G01 X-3.5922 Y-19.4058
G01 X-3.7268 Y-19.3318
G01 X-3.9937 Y-19.2262
G01 X-4.2717 Y-19.1548
G01 X-4.5565 Y-19.1188
G01 X-4.8435 Y-19.1188
G01 X-5.1283 Y-19.1548
G01 X-5.4063 Y-19.2262
G01 X-5.6732 Y-19.3318
G01 X-5.8078 Y-19.4058
G01 X-5.7672 Y-19.4463
G01 X-5.7398 Y-19.4311
G00 X-5.7398 Y-19.4311
G01 F60.00
G01 Z-0.0500
G01 F120.00
G01 X-5.5522 Y-19.3427
G01 X-5.3570 Y-19.2726
G01 X-5.1453 Y-19.2184
G01 X-4.9183 Y-19.1839
G01 X-4.7000 Y-19.1732
G01 X-4.4707 Y-19.1853
G01 X-4.2656 Y-19.2160
G01 X-4.0643 Y-19.2661
G01 X-3.8478 Y-19.3427
G01 X-3.6328 Y-19.4463
G01 X-3.5922 Y-19.4058
G01 X-3.7268 Y-19.3318
G01 X-3.9937 Y-19.2262
G01 X-4.2717 Y-19.1548
G01 X-4.5565 Y-19.1188
G01 X-4.8435 Y-19.1188
G01 X-5.1283 Y-19.1548
G01 X-5.4063 Y-19.2262
G01 X-5.6732 Y-19.3318
G01 X-5.8078 Y-19.4058
G01 X-5.7672 Y-19.4463
G01 X-5.7398 Y-19.4311
G00 X-5.7398 Y-19.4311
G01 F60.00
G01 Z-0.0750
G01 F120.00
G01 X-5.5522 Y-19.3427
G01 X-5.3570 Y-19.2726
G01 X-5.1453 Y-19.2184
G01 X-4.9183 Y-19.1839
G01 X-4.7000 Y-19.1732
G01 X-4.4707 Y-19.1853
G01 X-4.2656 Y-19.2160
G01 X-4.0643 Y-19.2661
G01 X-3.8478 Y-19.3427
G01 X-3.6328 Y-19.4463
G01 X-3.5922 Y-19.4058
G01 X-3.7268 Y-19.3318
G01 X-3.9937 Y-19.2262
G01 X-4.2717 Y-19.1548
G01 X-4.5565 Y-19.1188
G01 X-4.8435 Y-19.1188
G01 X-5.1283 Y-19.1548
G01 X-5.4063 Y-19.2262
G01 X-5.6732 Y-19.3318
G01 X-5.8078 Y-19.4058
G01 X-5.7672 Y-19.4463
G01 X-5.7398 Y-19.4311
G00 X-5.7398 Y-19.4311
G01 F60.00
G01 Z-0.1000
G01 F120.00
G01 X-5.5522 Y-19.3427
G01 X-5.3570 Y-19.2726
G01 X-5.1453 Y-19.2184
G01 X-4.9183 Y-19.1839
G01 X-4.7000 Y-19.1732
G01 X-4.4707 Y-19.1853
G01 X-4.2656 Y-19.2160
G01 X-4.0643 Y-19.2661
G01 X-3.8478 Y-19.3427
G01 X-3.6328 Y-19.4463
G01 X-3.5922 Y-19.4058
G01 X-3.7268 Y-19.3318
G01 X-3.9937 Y-19.2262
G01 X-4.2717 Y-19.1548
G01 X-4.5565 Y-19.1188
G01 X-4.8435 Y-19.1188
G01 X-5.1283 Y-19.1548
G01 X-5.4063 Y-19.2262
G01 X-5.6732 Y-19.3318
G01 X-5.8078 Y-19.4058
G01 X-5.7672 Y-19.4463
G01 X-5.7398 Y-19.4311
G00 Z2.0000
G00 X-6.7030 Y-22.5011
G01 F60.00
G01 Z-0.0250
G01 F120.00
G01 X-6.6970 Y-22.5106
G01 X-6.6537 Y-22.4672
G01 X-6.7573 Y-22.2522
G01 X-6.8339 Y-22.0357
G01 X-6.8840 Y-21.8344
G01 X-6.9147 Y-21.6293
G01 X-6.9268 Y-21.4000
G01 X-6.9147 Y-21.1707
G01 X-6.8840 Y-20.9656
G01 X-6.8339 Y-20.7643
G01 X-6.7573 Y-20.5478
G01 X-6.6537 Y-20.3328
G01 X-6.6970 Y-20.2894
G01 X-6.8252 Y-20.5586
G01 X-6.9139 Y-20.8316
G01 X-6.9677 Y-21.1135
G01 X-6.9857 Y-21.4000
G01 X-6.9677 Y-21.6865
G01 X-6.9139 Y-21.9684
G01 X-6.8252 Y-22.2414
G01 X-6.7030 Y-22.5011
G00 X-6.7030 Y-22.5011
G01 F60.00
G01 Z-0.0500
G01 F120.00
G01 X-6.6970 Y-22.5106
G01 X-6.6537 Y-22.4672
G01 X-6.7573 Y-22.2522
G01 X-6.8339 Y-22.0357
G01 X-6.8840 Y-21.8344
G01 X-6.9147 Y-21.6293
G01 X-6.9268 Y-21.4000
G01 X-6.9147 Y-21.1707
G01 X-6.8840 Y-20.9656
G01 X-6.8339 Y-20.7643
G01 X-6.7573 Y-20.5478
G01 X-6.6537 Y-20.3328
G01 X-6.6970 Y-20.2894
G01 X-6.8252 Y-20.5586
G01 X-6.9139 Y-20.8316
G01 X-6.9677 Y-21.1135
G01 X-6.9857 Y-21.4000
G01 X-6.9677 Y-21.6865
G01 X-6.9139 Y-21.9684
G01 X-6.8252 Y-22.2414
G01 X-6.7030 Y-22.5011
G00 X-6.7030 Y-22.5011
G01 F60.00
G01 Z-0.0750
G01 F120.00
G01 X-6.6970 Y-22.5106
G01 X-6.6537 Y-22.4672
G01 X-6.7573 Y-22.2522
G01 X-6.8339 Y-22.0357
G01 X-6.8840 Y-21.8344
G01 X-6.9147 Y-21.6293
G01 X-6.9268 Y-21.4000
G01 X-6.9147 Y-21.1707
G01 X-6.8840 Y-20.9656
G01 X-6.8339 Y-20.7643
G01 X-6.7573 Y-20.5478
G01 X-6.6537 Y-20.3328
G01 X-6.6970 Y-20.2894
G01 X-6.8252 Y-20.5586
G01 X-6.9139 Y-20.8316
G01 X-6.9677 Y-21.1135
G01 X-6.9857 Y-21.4000
G01 X-6.9677 Y-21.6865
G01 X-6.9139 Y-21.9684
G01 X-6.8252 Y-22.2414
G01 X-6.7030 Y-22.5011
G00 X-6.7030 Y-22.5011
G01 F60.00
G01 Z-0.1000
G01 F120.00
G01 X-6.6970 Y-22.5106
G01 X-6.6537 Y-22.4672
G01 X-6.7573 Y-22.2522
G01 X-6.8339 Y-22.0357
G01 X-6.8840 Y-21.8344
G01 X-6.9147 Y-21.6293
G01 X-6.9268 Y-21.4000
G01 X-6.9147 Y-21.1707
G01 X-6.8840 Y-20.9656
G01 X-6.8339 Y-20.7643
G01 X-6.7573 Y-20.5478
G01 X-6.6537 Y-20.3328
G01 X-6.6970 Y-20.2894
G01 X-6.8252 Y-20.5586
G01 X-6.9139 Y-20.8316
G01 X-6.9677 Y-21.1135
G01 X-6.9857 Y-21.4000
G01 X-6.9677 Y-21.6865
G01 X-6.9139 Y-21.9684
G01 X-6.8252 Y-22.2414
G01 X-6.7030 Y-22.5011
G00 Z2.0000
G00 X-4.8435 Y-23.6812
G01 F60.00
G01 Z-0.0250
G01 F120.00
G01 X-4.5565 Y-23.6812
G01 X-4.2717 Y-23.6452
G01 X-3.9937 Y-23.5738
G01 X-3.7268 Y-23.4682
G01 X-3.5922 Y-23.3942
G01 X-3.6328 Y-23.3537
G01 X-3.8478 Y-23.4573
G01 X-4.0643 Y-23.5339
G01 X-4.2656 Y-23.5840
G01 X-4.4707 Y-23.6147
G01 X-4.7000 Y-23.6268
G01 X-4.9293 Y-23.6147
G01 X-5.1344 Y-23.5840
G01 X-5.3357 Y-23.5339
G01 X-5.5522 Y-23.4573
G01 X-5.7672 Y-23.3537
G01 X-5.8078 Y-23.3942
G01 X-5.6732 Y-23.4682
G01 X-5.4063 Y-23.5738
G01 X-5.1283 Y-23.6452
G01 X-4.8435 Y-23.6812
G00 X-4.8435 Y-23.6812
G01 F60.00
G01 Z-0.0500
G01 F120.00
G01 X-4.5565 Y-23.6812
G01 X-4.2717 Y-23.6452
G01 X-3.9937 Y-23.5738
G01 X-3.7268 Y-23.4682
G01 X-3.5922 Y-23.3942
G01 X-3.6328 Y-23.3537
G01 X-3.8478 Y-23.4573
G01 X-4.0643 Y-23.5339
G01 X-4.2656 Y-23.5840
G01 X-4.4707 Y-23.6147
G01 X-4.7000 Y-23.6268
G01 X-4.9293 Y-23.6147
G01 X-5.1344 Y-23.5840
G01 X-5.3357 Y-23.5339
G01 X-5.5522 Y-23.4573
G01 X-5.7672 Y-23.3537
G01 X-5.8078 Y-23.3942
G01 X-5.6732 Y-23.4682
G01 X-5.4063 Y-23.5738
G01 X-5.1283 Y-23.6452
G01 X-4.8435 Y-23.6812
G00 X-4.8435 Y-23.6812
G01 F60.00
G01 Z-0.0750
G01 F120.00
G01 X-4.5565 Y-23.6812
G01 X-4.2717 Y-23.6452
G01 X-3.9937 Y-23.5738
G01 X-3.7268 Y-23.4682
G01 X-3.5922 Y-23.3942
G01 X-3.6328 Y-23.3537
G01 X-3.8478 Y-23.4573
G01 X-4.0643 Y-23.5339
G01 X-4.2656 Y-23.5840
G01 X-4.4707 Y-23.6147
G01 X-4.7000 Y-23.6268
G01 X-4.9293 Y-23.6147
G01 X-5.1344 Y-23.5840
G01 X-5.3357 Y-23.5339
G01 X-5.5522 Y-23.4573
G01 X-5.7672 Y-23.3537
G01 X-5.8078 Y-23.3942
G01 X-5.6732 Y-23.4682
G01 X-5.4063 Y-23.5738
G01 X-5.1283 Y-23.6452
G01 X-4.8435 Y-23.6812
G00 X-4.8435 Y-23.6812
G01 F60.00
G01 Z-0.1000
G01 F120.00
G01 X-4.5565 Y-23.6812
G01 X-4.2717 Y-23.6452
G01 X-3.9937 Y-23.5738
G01 X-3.7268 Y-23.4682
G01 X-3.5922 Y-23.3942
G01 X-3.6328 Y-23.3537
G01 X-3.8478 Y-23.4573
G01 X-4.0643 Y-23.5339
G01 X-4.2656 Y-23.5840
G01 X-4.4707 Y-23.6147
G01 X-4.7000 Y-23.6268
G01 X-4.9293 Y-23.6147
G01 X-5.1344 Y-23.5840
G01 X-5.3357 Y-23.5339
G01 X-5.5522 Y-23.4573
G01 X-5.7672 Y-23.3537
G01 X-5.8078 Y-23.3942
G01 X-5.6732 Y-23.4682
G01 X-5.4063 Y-23.5738
G01 X-5.1283 Y-23.6452
G01 X-4.8435 Y-23.6812
G00 Z2.0000
G00 X-2.4323 Y-21.6865
G01 F60.00
G01 Z-0.0250
G01 F120.00
G01 X-2.4143 Y-21.4000
G01 X-2.4323 Y-21.1135
G01 X-2.4861 Y-20.8316
G01 X-2.5748 Y-20.5586
G01 X-2.7030 Y-20.2894
G01 X-2.7463 Y-20.3328
G01 X-2.6427 Y-20.5478
G01 X-2.5661 Y-20.7643
G01 X-2.5160 Y-20.9656
G01 X-2.4853 Y-21.1707
G01 X-2.4732 Y-21.4000
G01 X-2.4853 Y-21.6293
G01 X-2.5160 Y-21.8344
G01 X-2.5661 Y-22.0357
G01 X-2.6427 Y-22.2522
G01 X-2.7463 Y-22.4672
G01 X-2.7030 Y-22.5106
G01 X-2.5748 Y-22.2414
G01 X-2.4861 Y-21.9684
G01 X-2.4323 Y-21.6865
G00 X-2.4323 Y-21.6865
G01 F60.00
G01 Z-0.0500
G01 F120.00
G01 X-2.4143 Y-21.4000
G01 X-2.4323 Y-21.1135
G01 X-2.4861 Y-20.8316
G01 X-2.5748 Y-20.5586
G01 X-2.7030 Y-20.2894
G01 X-2.7463 Y-20.3328
G01 X-2.6427 Y-20.5478
G01 X-2.5661 Y-20.7643
G01 X-2.5160 Y-20.9656
G01 X-2.4853 Y-21.1707
G01 X-2.4732 Y-21.4000
G01 X-2.4853 Y-21.6293
G01 X-2.5160 Y-21.8344
G01 X-2.5661 Y-22.0357
G01 X-2.6427 Y-22.2522
G01 X-2.7463 Y-22.4672
G01 X-2.7030 Y-22.5106
G01 X-2.5748 Y-22.2414
G01 X-2.4861 Y-21.9684
G01 X-2.4323 Y-21.6865
G00 X-2.4323 Y-21.6865
G01 F60.00
G01 Z-0.0750
G01 F120.00
G01 X-2.4143 Y-21.4000
G01 X-2.4323 Y-21.1135
G01 X-2.4861 Y-20.8316
G01 X-2.5748 Y-20.5586
G01 X-2.7030 Y-20.2894
G01 X-2.7463 Y-20.3328
G01 X-2.6427 Y-20.5478
G01 X-2.5661 Y-20.7643
G01 X-2.5160 Y-20.9656
G01 X-2.4853 Y-21.1707
G01 X-2.4732 Y-21.4000
G01 X-2.4853 Y-21.6293
G01 X-2.5160 Y-21.8344
G01 X-2.5661 Y-22.0357
G01 X-2.6427 Y-22.2522
G01 X-2.7463 Y-22.4672
G01 X-2.7030 Y-22.5106
G01 X-2.5748 Y-22.2414
G01 X-2.4861 Y-21.9684
G01 X-2.4323 Y-21.6865
G00 X-2.4323 Y-21.6865
G01 F60.00
G01 Z-0.1000
G01 F120.00
G01 X-2.4143 Y-21.4000
G01 X-2.4323 Y-21.1135
G01 X-2.4861 Y-20.8316
G01 X-2.5748 Y-20.5586
G01 X-2.7030 Y-20.2894
G01 X-2.7463 Y-20.3328
G01 X-2.6427 Y-20.5478
G01 X-2.5661 Y-20.7643
G01 X-2.5160 Y-20.9656
G01 X-2.4853 Y-21.1707
G01 X-2.4732 Y-21.4000
G01 X-2.4853 Y-21.6293
G01 X-2.5160 Y-21.8344
G01 X-2.5661 Y-22.0357
G01 X-2.6427 Y-22.2522
G01 X-2.7463 Y-22.4672
G01 X-2.7030 Y-22.5106
G01 X-2.5748 Y-22.2414
G01 X-2.4861 Y-21.9684
G01 X-2.4323 Y-21.6865
G00 Z2.0000
G00 X-2.4861 Y-14.7684
G01 F60.00
G01 Z-0.0250
G01 F120.00
G01 X-2.4323 Y-14.4865
G01 X-2.4143 Y-14.2000
G01 X-2.4323 Y-13.9135
G01 X-2.4861 Y-13.6316
G01 X-2.5748 Y-13.3586
G01 X-2.7030 Y-13.0894
G01 X-2.7463 Y-13.1328
G01 X-2.6427 Y-13.3478
G01 X-2.5661 Y-13.5643
G01 X-2.5160 Y-13.7656
G01 X-2.4853 Y-13.9707
G01 X-2.4732 Y-14.2000
G01 X-2.4853 Y-14.4293
G01 X-2.5160 Y-14.6344
G01 X-2.5661 Y-14.8357
G01 X-2.6427 Y-15.0522
G01 X-2.7463 Y-15.2672
G01 X-2.7030 Y-15.3106
G01 X-2.5748 Y-15.0414
G01 X-2.4861 Y-14.7684
G00 X-2.4861 Y-14.7684
G01 F60.00
G01 Z-0.0500
G01 F120.00
G01 X-2.4323 Y-14.4865
G01 X-2.4143 Y-14.2000
G01 X-2.4323 Y-13.9135
G01 X-2.4861 Y-13.6316
G01 X-2.5748 Y-13.3586
G01 X-2.7030 Y-13.0894
G01 X-2.7463 Y-13.1328
G01 X-2.6427 Y-13.3478
G01 X-2.5661 Y-13.5643
G01 X-2.5160 Y-13.7656
G01 X-2.4853 Y-13.9707
G01 X-2.4732 Y-14.2000
G01 X-2.4853 Y-14.4293
G01 X-2.5160 Y-14.6344
G01 X-2.5661 Y-14.8357
G01 X-2.6427 Y-15.0522
G01 X-2.7463 Y-15.2672
G01 X-2.7030 Y-15.3106
G01 X-2.5748 Y-15.0414
G01 X-2.4861 Y-14.7684
G00 X-2.4861 Y-14.7684
G01 F60.00
G01 Z-0.0750
G01 F120.00
G01 X-2.4323 Y-14.4865
G01 X-2.4143 Y-14.2000
G01 X-2.4323 Y-13.9135
G01 X-2.4861 Y-13.6316
G01 X-2.5748 Y-13.3586
G01 X-2.7030 Y-13.0894
G01 X-2.7463 Y-13.1328
G01 X-2.6427 Y-13.3478
G01 X-2.5661 Y-13.5643
G01 X-2.5160 Y-13.7656
G01 X-2.4853 Y-13.9707
G01 X-2.4732 Y-14.2000
G01 X-2.4853 Y-14.4293
G01 X-2.5160 Y-14.6344
G01 X-2.5661 Y-14.8357
G01 X-2.6427 Y-15.0522
G01 X-2.7463 Y-15.2672
G01 X-2.7030 Y-15.3106
G01 X-2.5748 Y-15.0414
G01 X-2.4861 Y-14.7684
G00 X-2.4861 Y-14.7684
G01 F60.00
G01 Z-0.1000
G01 F120.00
G01 X-2.4323 Y-14.4865
G01 X-2.4143 Y-14.2000
G01 X-2.4323 Y-13.9135
G01 X-2.4861 Y-13.6316
G01 X-2.5748 Y-13.3586
G01 X-2.7030 Y-13.0894
G01 X-2.7463 Y-13.1328
G01 X-2.6427 Y-13.3478
G01 X-2.5661 Y-13.5643
G01 X-2.5160 Y-13.7656
G01 X-2.4853 Y-13.9707
G01 X-2.4732 Y-14.2000
G01 X-2.4853 Y-14.4293
G01 X-2.5160 Y-14.6344
G01 X-2.5661 Y-14.8357
G01 X-2.6427 Y-15.0522
G01 X-2.7463 Y-15.2672
G01 X-2.7030 Y-15.3106
G01 X-2.5748 Y-15.0414
G01 X-2.4861 Y-14.7684
G00 Z2.0000
G00 X-2.7240 Y-9.2347
G01 F60.00
G01 Z-0.0250
G01 F120.00
G01 X-2.6185 Y-9.1697
G01 X-2.5309 Y-9.0822
G01 X-2.4657 Y-8.9769
G01 X-2.4260 Y-8.8579
G01 X-2.4188 Y-8.7886
G01 X-2.4188 Y-7.6268
G01 X-2.4732 Y-7.6268
G01 X-2.4769 Y-8.8078
G01 X-2.4937 Y-8.8884
G01 X-2.5245 Y-8.9648
G01 X-2.5600 Y-9.0240
G01 X-2.6129 Y-9.0871
G01 X-2.6760 Y-9.1400
G01 X-2.7352 Y-9.1755
G01 X-2.8116 Y-9.2063
G01 X-2.8922 Y-9.2231
G01 X-4.0732 Y-9.2268
G01 X-4.0732 Y-9.2812
G01 X-2.9112 Y-9.2812
G01 X-2.8431 Y-9.2742
G01 X-2.7240 Y-9.2347
G00 X-2.7240 Y-9.2347
G01 F60.00
G01 Z-0.0500
G01 F120.00
G01 X-2.6185 Y-9.1697
G01 X-2.5309 Y-9.0822
G01 X-2.4657 Y-8.9769
G01 X-2.4260 Y-8.8579
G01 X-2.4188 Y-8.7886
G01 X-2.4188 Y-7.6268
G01 X-2.4732 Y-7.6268
G01 X-2.4769 Y-8.8078
G01 X-2.4937 Y-8.8884
G01 X-2.5245 Y-8.9648
G01 X-2.5600 Y-9.0240
G01 X-2.6129 Y-9.0871
G01 X-2.6760 Y-9.1400
G01 X-2.7352 Y-9.1755
G01 X-2.8116 Y-9.2063
G01 X-2.8922 Y-9.2231
G01 X-4.0732 Y-9.2268
G01 X-4.0732 Y-9.2812
G01 X-2.9112 Y-9.2812
G01 X-2.8431 Y-9.2742
G01 X-2.7240 Y-9.2347
G00 X-2.7240 Y-9.2347
G01 F60.00
G01 Z-0.0750
G01 F120.00
G01 X-2.6185 Y-9.1697
G01 X-2.5309 Y-9.0822
G01 X-2.4657 Y-8.9769
G01 X-2.4260 Y-8.8579
G01 X-2.4188 Y-8.7886
G01 X-2.4188 Y-7.6268
G01 X-2.4732 Y-7.6268
G01 X-2.4769 Y-8.8078
G01 X-2.4937 Y-8.8884
G01 X-2.5245 Y-8.9648
G01 X-2.5600 Y-9.0240
G01 X-2.6129 Y-9.0871
G01 X-2.6760 Y-9.1400
G01 X-2.7352 Y-9.1755
G01 X-2.8116 Y-9.2063
G01 X-2.8922 Y-9.2231
G01 X-4.0732 Y-9.2268
G01 X-4.0732 Y-9.2812
G01 X-2.9112 Y-9.2812
G01 X-2.8431 Y-9.2742
G01 X-2.7240 Y-9.2347
G00 X-2.7240 Y-9.2347
G01 F60.00
G01 Z-0.1000
G01 F120.00
G01 X-2.6185 Y-9.1697
G01 X-2.5309 Y-9.0822
G01 X-2.4657 Y-8.9769
G01 X-2.4260 Y-8.8579
G01 X-2.4188 Y-8.7886
G01 X-2.4188 Y-7.6268
G01 X-2.4732 Y-7.6268
G01 X-2.4769 Y-8.8078
G01 X-2.4937 Y-8.8884
G01 X-2.5245 Y-8.9648
G01 X-2.5600 Y-9.0240
G01 X-2.6129 Y-9.0871
G01 X-2.6760 Y-9.1400
G01 X-2.7352 Y-9.1755
G01 X-2.8116 Y-9.2063
G01 X-2.8922 Y-9.2231
G01 X-4.0732 Y-9.2268
G01 X-4.0732 Y-9.2812
G01 X-2.9112 Y-9.2812
G01 X-2.8431 Y-9.2742
G01 X-2.7240 Y-9.2347
G00 Z2.0000
G00 X-15.2423 Y-5.8794
G01 F60.00
G01 Z-0.0250
G01 F120.00
G01 X-15.1494 Y-5.9484
G01 X-15.0636 Y-6.0261
G01 X-14.9859 Y-6.1119
G01 X-14.8996 Y-6.2332
G01 X-14.8342 Y-6.2332
G01 X-14.8664 Y-6.1749
G01 X-14.9921 Y-6.0157
G01 X-15.1422 Y-5.8792
G01 X-15.3182 Y-5.7665
G01 X-15.3182 Y-5.8336
G01 X-15.2423 Y-5.8794
G00 X-15.2423 Y-5.8794
G01 F60.00
G01 Z-0.0500
G01 F120.00
G01 X-15.1494 Y-5.9484
G01 X-15.0636 Y-6.0261
G01 X-14.9859 Y-6.1119
G01 X-14.8996 Y-6.2332
G01 X-14.8342 Y-6.2332
G01 X-14.8664 Y-6.1749
G01 X-14.9921 Y-6.0157
G01 X-15.1422 Y-5.8792
G01 X-15.3182 Y-5.7665
G01 X-15.3182 Y-5.8336
G01 X-15.2423 Y-5.8794
G00 X-15.2423 Y-5.8794
G01 F60.00
G01 Z-0.0750
G01 F120.00
G01 X-15.1494 Y-5.9484
G01 X-15.0636 Y-6.0261
G01 X-14.9859 Y-6.1119
G01 X-14.8996 Y-6.2332
G01 X-14.8342 Y-6.2332
G01 X-14.8664 Y-6.1749
G01 X-14.9921 Y-6.0157
G01 X-15.1422 Y-5.8792
G01 X-15.3182 Y-5.7665
G01 X-15.3182 Y-5.8336
G01 X-15.2423 Y-5.8794
G00 X-15.2423 Y-5.8794
G01 F60.00
G01 Z-0.1000
G01 F120.00
G01 X-15.1494 Y-5.9484
G01 X-15.0636 Y-6.0261
G01 X-14.9859 Y-6.1119
G01 X-14.8996 Y-6.2332
G01 X-14.8342 Y-6.2332
G01 X-14.8664 Y-6.1749
G01 X-14.9921 Y-6.0157
G01 X-15.1422 Y-5.8792
G01 X-15.3182 Y-5.7665
G01 X-15.3182 Y-5.8336
G01 X-15.2423 Y-5.8794
G00 Z2.0000
G00 X-16.9731 Y-6.2048
G01 F60.00
G01 Z-0.0250
G01 F120.00
G01 X-16.9041 Y-6.1119
G01 X-16.8183 Y-6.0184
G01 X-16.7319 Y-5.9415
G01 X-16.5718 Y-5.8336
G01 X-16.5718 Y-5.7687
G01 X-16.7716 Y-5.8979
G01 X-16.9182 Y-6.0381
G01 X-17.0400 Y-6.2003
G01 X-17.0571 Y-6.2332
G01 X-16.9904 Y-6.2332
G01 X-16.9731 Y-6.2048
G00 X-16.9731 Y-6.2048
G01 F60.00
G01 Z-0.0500
G01 F120.00
G01 X-16.9041 Y-6.1119
G01 X-16.8183 Y-6.0184
G01 X-16.7319 Y-5.9415
G01 X-16.5718 Y-5.8336
G01 X-16.5718 Y-5.7687
G01 X-16.7716 Y-5.8979
G01 X-16.9182 Y-6.0381
G01 X-17.0400 Y-6.2003
G01 X-17.0571 Y-6.2332
G01 X-16.9904 Y-6.2332
G01 X-16.9731 Y-6.2048
G00 X-16.9731 Y-6.2048
G01 F60.00
G01 Z-0.0750
G01 F120.00
G01 X-16.9041 Y-6.1119
G01 X-16.8183 Y-6.0184
G01 X-16.7319 Y-5.9415
G01 X-16.5718 Y-5.8336
G01 X-16.5718 Y-5.7687
G01 X-16.7716 Y-5.8979
G01 X-16.9182 Y-6.0381
G01 X-17.0400 Y-6.2003
G01 X-17.0571 Y-6.2332
G01 X-16.9904 Y-6.2332
G01 X-16.9731 Y-6.2048
G00 X-16.9731 Y-6.2048
G01 F60.00
G01 Z-0.1000
G01 F120.00
G01 X-16.9041 Y-6.1119
G01 X-16.8183 Y-6.0184
G01 X-16.7319 Y-5.9415
G01 X-16.5718 Y-5.8336
G01 X-16.5718 Y-5.7687
G01 X-16.7716 Y-5.8979
G01 X-16.9182 Y-6.0381
G01 X-17.0400 Y-6.2003
G01 X-17.0571 Y-6.2332
G01 X-16.9904 Y-6.2332
G01 X-16.9731 Y-6.2048
G00 Z2.0000
G00 X-19.6190 Y-4.9468
G01 F60.00
G01 Z-0.0250
G01 F120.00
G01 X-19.6877 Y-4.9468
G01 X-19.7739 Y-5.0461
G01 X-19.8732 Y-5.1323
G01 X-19.8732 Y-5.2010
G01 X-19.8024 Y-5.1514
G01 X-19.6686 Y-5.0176
G01 X-19.6190 Y-4.9468
G00 X-19.6190 Y-4.9468
G01 F60.00
G01 Z-0.0500
G01 F120.00
G01 X-19.6877 Y-4.9468
G01 X-19.7739 Y-5.0461
G01 X-19.8732 Y-5.1323
G01 X-19.8732 Y-5.2010
G01 X-19.8024 Y-5.1514
G01 X-19.6686 Y-5.0176
G01 X-19.6190 Y-4.9468
G00 X-19.6190 Y-4.9468
G01 F60.00
G01 Z-0.0750
G01 F120.00
G01 X-19.6877 Y-4.9468
G01 X-19.7739 Y-5.0461
G01 X-19.8732 Y-5.1323
G01 X-19.8732 Y-5.2010
G01 X-19.8024 Y-5.1514
G01 X-19.6686 Y-5.0176
G01 X-19.6190 Y-4.9468
G00 X-19.6190 Y-4.9468
G01 F60.00
G01 Z-0.1000
G01 F120.00
G01 X-19.6877 Y-4.9468
G01 X-19.7739 Y-5.0461
G01 X-19.8732 Y-5.1323
G01 X-19.8732 Y-5.2010
G01 X-19.8024 Y-5.1514
G01 X-19.6686 Y-5.0176
G01 X-19.6190 Y-4.9468
G00 Z2.0000
G00 X-19.8486 Y-3.5263
G01 F60.00
G01 Z-0.0250
G01 F120.00
G01 X-19.7739 Y-3.5939
G01 X-19.6877 Y-3.6932
G01 X-19.6190 Y-3.6932
G01 X-19.6686 Y-3.6224
G01 X-19.8024 Y-3.4886
G01 X-19.8732 Y-3.4390
G01 X-19.8732 Y-3.5077
G01 X-19.8486 Y-3.5263
G00 X-19.8486 Y-3.5263
G01 F60.00
G01 Z-0.0500
G01 F120.00
G01 X-19.7739 Y-3.5939
G01 X-19.6877 Y-3.6932
G01 X-19.6190 Y-3.6932
G01 X-19.6686 Y-3.6224
G01 X-19.8024 Y-3.4886
G01 X-19.8732 Y-3.4390
G01 X-19.8732 Y-3.5077
G01 X-19.8486 Y-3.5263
G00 X-19.8486 Y-3.5263
G01 F60.00
G01 Z-0.0750
G01 F120.00
G01 X-19.7739 Y-3.5939
G01 X-19.6877 Y-3.6932
G01 X-19.6190 Y-3.6932
G01 X-19.6686 Y-3.6224
G01 X-19.8024 Y-3.4886
G01 X-19.8732 Y-3.4390
G01 X-19.8732 Y-3.5077
G01 X-19.8486 Y-3.5263
G00 X-19.8486 Y-3.5263
G01 F60.00
G01 Z-0.1000
G01 F120.00
G01 X-19.7739 Y-3.5939
G01 X-19.6877 Y-3.6932
G01 X-19.6190 Y-3.6932
G01 X-19.6686 Y-3.6224
G01 X-19.8024 Y-3.4886
G01 X-19.8732 Y-3.4390
G01 X-19.8732 Y-3.5077
G01 X-19.8486 Y-3.5263
G00 Z2.0000
G00 X-21.2937 Y-3.6686
G01 F60.00
G01 Z-0.0250
G01 F120.00
G01 X-21.2261 Y-3.5939
G01 X-21.1268 Y-3.5077
G01 X-21.1268 Y-3.4390
G01 X-21.1976 Y-3.4886
G01 X-21.3314 Y-3.6224
G01 X-21.3810 Y-3.6932
G01 X-21.3123 Y-3.6932
G01 X-21.2937 Y-3.6686
G00 X-21.2937 Y-3.6686
G01 F60.00
G01 Z-0.0500
G01 F120.00
G01 X-21.2261 Y-3.5939
G01 X-21.1268 Y-3.5077
G01 X-21.1268 Y-3.4390
G01 X-21.1976 Y-3.4886
G01 X-21.3314 Y-3.6224
G01 X-21.3810 Y-3.6932
G01 X-21.3123 Y-3.6932
G01 X-21.2937 Y-3.6686
G00 X-21.2937 Y-3.6686
G01 F60.00
G01 Z-0.0750
G01 F120.00
G01 X-21.2261 Y-3.5939
G01 X-21.1268 Y-3.5077
G01 X-21.1268 Y-3.4390
G01 X-21.1976 Y-3.4886
G01 X-21.3314 Y-3.6224
G01 X-21.3810 Y-3.6932
G01 X-21.3123 Y-3.6932
G01 X-21.2937 Y-3.6686
G00 X-21.2937 Y-3.6686
G01 F60.00
G01 Z-0.1000
G01 F120.00
G01 X-21.2261 Y-3.5939
G01 X-21.1268 Y-3.5077
G01 X-21.1268 Y-3.4390
G01 X-21.1976 Y-3.4886
G01 X-21.3314 Y-3.6224
G01 X-21.3810 Y-3.6932
G01 X-21.3123 Y-3.6932
G01 X-21.2937 Y-3.6686
G00 Z2.0000
G00 X-21.1268 Y-5.2010
G01 F60.00
G01 Z-0.0250
G01 F120.00
G01 X-21.1268 Y-5.1323
G01 X-21.2261 Y-5.0461
G01 X-21.3123 Y-4.9468
G01 X-21.3810 Y-4.9468
G01 X-21.3314 Y-5.0176
G01 X-21.1976 Y-5.1514
G01 X-21.1268 Y-5.2010
G00 X-21.1268 Y-5.2010
G01 F60.00
G01 Z-0.0500
G01 F120.00
G01 X-21.1268 Y-5.1323
G01 X-21.2261 Y-5.0461
G01 X-21.3123 Y-4.9468
G01 X-21.3810 Y-4.9468
G01 X-21.3314 Y-5.0176
G01 X-21.1976 Y-5.1514
G01 X-21.1268 Y-5.2010
G00 X-21.1268 Y-5.2010
G01 F60.00
G01 Z-0.0750
G01 F120.00
G01 X-21.1268 Y-5.1323
G01 X-21.2261 Y-5.0461
G01 X-21.3123 Y-4.9468
G01 X-21.3810 Y-4.9468
G01 X-21.3314 Y-5.0176
G01 X-21.1976 Y-5.1514
G01 X-21.1268 Y-5.2010
G00 X-21.1268 Y-5.2010
G01 F60.00
G01 Z-0.1000
G01 F120.00
G01 X-21.1268 Y-5.1323
G01 X-21.2261 Y-5.0461
G01 X-21.3123 Y-4.9468
G01 X-21.3810 Y-4.9468
G01 X-21.3314 Y-5.0176
G01 X-21.1976 Y-5.1514
G01 X-21.1268 Y-5.2010
G00 Z2.0000
G00 X-23.0307 Y-4.6171
G01 F60.00
G01 Z-0.0250
G01 F120.00
G01 X-23.0824 Y-4.6688
G01 X-23.0732 Y-4.8000
G01 X-23.0824 Y-4.9312
G01 X-23.0307 Y-4.9829
G01 X-23.0147 Y-4.8000
G01 X-23.0307 Y-4.6171
G00 X-23.0307 Y-4.6171
G01 F60.00
G01 Z-0.0500
G01 F120.00
G01 X-23.0824 Y-4.6688
G01 X-23.0732 Y-4.8000
G01 X-23.0824 Y-4.9312
G01 X-23.0307 Y-4.9829
G01 X-23.0147 Y-4.8000
G01 X-23.0307 Y-4.6171
G00 X-23.0307 Y-4.6171
G01 F60.00
G01 Z-0.0750
G01 F120.00
G01 X-23.0824 Y-4.6688
G01 X-23.0732 Y-4.8000
G01 X-23.0824 Y-4.9312
G01 X-23.0307 Y-4.9829
G01 X-23.0147 Y-4.8000
G01 X-23.0307 Y-4.6171
G00 X-23.0307 Y-4.6171
G01 F60.00
G01 Z-0.1000
G01 F120.00
G01 X-23.0824 Y-4.6688
G01 X-23.0732 Y-4.8000
G01 X-23.0824 Y-4.9312
G01 X-23.0307 Y-4.9829
G01 X-23.0147 Y-4.8000
G01 X-23.0307 Y-4.6171
G00 Z2.0000
G00 X-24.0105 Y-3.7773
G01 F60.00
G01 Z-0.0250
G01 F120.00
G01 X-23.9688 Y-3.7824
G01 X-23.9171 Y-3.7307
G01 X-24.1000 Y-3.7147
G01 X-24.1525 Y-3.7193
G01 X-24.0986 Y-3.7732
G01 X-24.0105 Y-3.7773
G00 X-24.0105 Y-3.7773
G01 F60.00
G01 Z-0.0500
G01 F120.00
G01 X-23.9688 Y-3.7824
G01 X-23.9171 Y-3.7307
G01 X-24.1000 Y-3.7147
G01 X-24.1525 Y-3.7193
G01 X-24.0986 Y-3.7732
G01 X-24.0105 Y-3.7773
G00 X-24.0105 Y-3.7773
G01 F60.00
G01 Z-0.0750
G01 F120.00
G01 X-23.9688 Y-3.7824
G01 X-23.9171 Y-3.7307
G01 X-24.1000 Y-3.7147
G01 X-24.1525 Y-3.7193
G01 X-24.0986 Y-3.7732
G01 X-24.0105 Y-3.7773
G00 X-24.0105 Y-3.7773
G01 F60.00
G01 Z-0.1000
G01 F120.00
G01 X-23.9688 Y-3.7824
G01 X-23.9171 Y-3.7307
G01 X-24.1000 Y-3.7147
G01 X-24.1525 Y-3.7193
G01 X-24.0986 Y-3.7732
G01 X-24.0105 Y-3.7773
G00 Z2.0000
G00 X-25.1219 Y-4.9006
G01 F60.00
G01 Z-0.0250
G01 F120.00
G01 X-25.1268 Y-4.8014
G01 X-25.1807 Y-4.7475
G01 X-25.1853 Y-4.8000
G01 X-25.1693 Y-4.9829
G01 X-25.1176 Y-4.9312
G01 X-25.1219 Y-4.9006
G00 X-25.1219 Y-4.9006
G01 F60.00
G01 Z-0.0500
G01 F120.00
G01 X-25.1268 Y-4.8014
G01 X-25.1807 Y-4.7475
G01 X-25.1853 Y-4.8000
G01 X-25.1693 Y-4.9829
G01 X-25.1176 Y-4.9312
G01 X-25.1219 Y-4.9006
G00 X-25.1219 Y-4.9006
G01 F60.00
G01 Z-0.0750
G01 F120.00
G01 X-25.1268 Y-4.8014
G01 X-25.1807 Y-4.7475
G01 X-25.1853 Y-4.8000
G01 X-25.1693 Y-4.9829
G01 X-25.1176 Y-4.9312
G01 X-25.1219 Y-4.9006
G00 X-25.1219 Y-4.9006
G01 F60.00
G01 Z-0.1000
G01 F120.00
G01 X-25.1268 Y-4.8014
G01 X-25.1807 Y-4.7475
G01 X-25.1853 Y-4.8000
G01 X-25.1693 Y-4.9829
G01 X-25.1176 Y-4.9312
G01 X-25.1219 Y-4.9006
G00 Z2.0000
G00 X-23.9688 Y-5.8176
G01 F60.00
G01 Z-0.0250
G01 F120.00
G01 X-24.1000 Y-5.8268
G01 X-24.2312 Y-5.8176
G01 X-24.2829 Y-5.8693
G01 X-24.1000 Y-5.8853
G01 X-23.9171 Y-5.8693
G01 X-23.9688 Y-5.8176
G00 X-23.9688 Y-5.8176
G01 F60.00
G01 Z-0.0500
G01 F120.00
G01 X-24.1000 Y-5.8268
G01 X-24.2312 Y-5.8176
G01 X-24.2829 Y-5.8693
G01 X-24.1000 Y-5.8853
G01 X-23.9171 Y-5.8693
G01 X-23.9688 Y-5.8176
G00 X-23.9688 Y-5.8176
G01 F60.00
G01 Z-0.0750
G01 F120.00
G01 X-24.1000 Y-5.8268
G01 X-24.2312 Y-5.8176
G01 X-24.2829 Y-5.8693
G01 X-24.1000 Y-5.8853
G01 X-23.9171 Y-5.8693
G01 X-23.9688 Y-5.8176
G00 X-23.9688 Y-5.8176
G01 F60.00
G01 Z-0.1000
G01 F120.00
G01 X-24.1000 Y-5.8268
G01 X-24.2312 Y-5.8176
G01 X-24.2829 Y-5.8693
G01 X-24.1000 Y-5.8853
G01 X-23.9171 Y-5.8693
G01 X-23.9688 Y-5.8176
G00 Z2.0000
G00 X-18.4297 Y-11.3853
G01 F60.00
G01 Z-0.0250
G01 F120.00
G01 X-20.5014 Y-13.4532
G01 X-20.6117 Y-13.4595
G01 X-20.7873 Y-13.4944
G01 X-20.8929 Y-13.5314
G01 X-20.9840 Y-13.5744
G01 X-21.0796 Y-13.6327
G01 X-21.2180 Y-13.7463
G01 X-21.2937 Y-13.8286
G01 X-21.3538 Y-13.9095
G01 X-21.4486 Y-14.0871
G01 X-21.5071 Y-14.2797
G01 X-21.5268 Y-14.4800
G01 X-21.5090 Y-14.6694
G01 X-21.4826 Y-14.7781
G01 X-21.4526 Y-14.8626
G01 X-21.4001 Y-14.9737
G01 X-21.2937 Y-15.1314
G01 X-21.1514 Y-15.2737
G01 X-20.9937 Y-15.3801
G01 X-20.8826 Y-15.4326
G01 X-20.7003 Y-15.4871
G01 X-20.5111 Y-15.5065
G01 X-20.3883 Y-15.5005
G01 X-20.2019 Y-15.4626
G01 X-20.0969 Y-15.4241
G01 X-19.9295 Y-15.3338
G01 X-19.8486 Y-15.2737
G01 X-19.7663 Y-15.1980
G01 X-19.6527 Y-15.0596
G01 X-19.5944 Y-14.9640
G01 X-19.5514 Y-14.8729
G01 X-19.5144 Y-14.7673
G01 X-19.4795 Y-14.5917
G01 X-19.4732 Y-14.4814
G01 X-17.6588 Y-12.6671
G01 X-17.1718 Y-12.6671
G01 X-17.1693 Y-12.9258
G01 X-17.1395 Y-13.0091
G01 X-17.0973 Y-13.0605
G01 X-17.0420 Y-13.0975
G01 X-16.9783 Y-13.1168
G01 X-16.6721 Y-13.1193
G01 X-16.6721 Y-16.8550
G01 X-16.6672 Y-16.9373
G01 X-16.6407 Y-17.0661
G01 X-16.5862 Y-17.1977
G01 X-16.4997 Y-17.3247
G01 X-15.6012 Y-18.2220
G01 X-15.4924 Y-18.2957
G01 X-15.4078 Y-18.3357
G01 X-15.2818 Y-18.3731
G01 X-15.1511 Y-18.3868
G01 X-11.7110 Y-18.3871
G01 X-11.5933 Y-18.4781
G01 X-11.4234 Y-18.5665
G01 X-11.2506 Y-18.6180
G01 X-11.0600 Y-18.6368
G01 X-10.9643 Y-18.6321
G01 X-10.8586 Y-18.6156
G01 X-10.7659 Y-18.5912
G01 X-10.6095 Y-18.5265
G01 X-10.5173 Y-18.4722
G01 X-10.4403 Y-18.4151
G01 X-10.3049 Y-18.2797
G01 X-10.2419 Y-18.1933
G01 X-10.1621 Y-18.0440
G01 X-10.1253 Y-17.9435
G01 X-10.1020 Y-17.8506
G01 X-10.0879 Y-17.7557
G01 X-10.0835 Y-17.6489
G01 X-10.1001 Y-17.4804
G01 X-10.1253 Y-17.3765
G01 X-10.1576 Y-17.2862
G01 X-10.2040 Y-17.1899
G01 X-10.2981 Y-17.0491
G01 X-10.3693 Y-16.9693
G01 X-10.4403 Y-16.9049
G01 X-10.5267 Y-16.8419
G01 X-10.6760 Y-16.7621
G01 X-10.7659 Y-16.7288
G01 X-10.8694 Y-16.7020
G01 X-10.9754 Y-16.6871
G01 X-11.1446 Y-16.6871
G01 X-11.2506 Y-16.7020
G01 X-11.3541 Y-16.7288
G01 X-11.5105 Y-16.7935
G01 X-11.6027 Y-16.8478
G01 X-11.7110 Y-16.9329
G01 X-14.8388 Y-16.9329
G01 X-15.2179 Y-16.5538
G01 X-15.2179 Y-13.1193
G01 X-14.9339 Y-13.1190
G01 X-14.8686 Y-13.1060
G01 X-14.8099 Y-13.0747
G01 X-14.7628 Y-13.0276
G01 X-14.7315 Y-12.9689
G01 X-14.7207 Y-12.9258
G01 X-14.7185 Y-10.9764
G01 X-14.7400 Y-10.8905
G01 X-14.7927 Y-10.8195
G01 X-14.8686 Y-10.7740
G01 X-14.9339 Y-10.7610
G01 X-16.9783 Y-10.7632
G01 X-17.0214 Y-10.7740
G01 X-17.0801 Y-10.8053
G01 X-17.1272 Y-10.8524
G01 X-17.1500 Y-10.8905
G01 X-17.1715 Y-10.9764
G01 X-17.1718 Y-11.2129
G01 X-18.0423 Y-11.2178
G01 X-18.1603 Y-11.2413
G01 X-18.2382 Y-11.2683
G01 X-18.3545 Y-11.3295
G01 X-18.4297 Y-11.3853
G00 X-18.4297 Y-11.3853
G01 F60.00
G01 Z-0.0500
G01 F120.00
G01 X-20.5014 Y-13.4532
G01 X-20.6117 Y-13.4595
G01 X-20.7873 Y-13.4944
G01 X-20.8929 Y-13.5314
G01 X-20.9840 Y-13.5744
G01 X-21.0796 Y-13.6327
G01 X-21.2180 Y-13.7463
G01 X-21.2937 Y-13.8286
G01 X-21.3538 Y-13.9095
G01 X-21.4486 Y-14.0871
G01 X-21.5071 Y-14.2797
G01 X-21.5268 Y-14.4800
G01 X-21.5090 Y-14.6694
G01 X-21.4826 Y-14.7781
G01 X-21.4526 Y-14.8626
G01 X-21.4001 Y-14.9737
G01 X-21.2937 Y-15.1314
G01 X-21.1514 Y-15.2737
G01 X-20.9937 Y-15.3801
G01 X-20.8826 Y-15.4326
G01 X-20.7003 Y-15.4871
G01 X-20.5111 Y-15.5065
G01 X-20.3883 Y-15.5005
G01 X-20.2019 Y-15.4626
G01 X-20.0969 Y-15.4241
G01 X-19.9295 Y-15.3338
G01 X-19.8486 Y-15.2737
G01 X-19.7663 Y-15.1980
G01 X-19.6527 Y-15.0596
G01 X-19.5944 Y-14.9640
G01 X-19.5514 Y-14.8729
G01 X-19.5144 Y-14.7673
G01 X-19.4795 Y-14.5917
G01 X-19.4732 Y-14.4814
G01 X-17.6588 Y-12.6671
G01 X-17.1718 Y-12.6671
G01 X-17.1693 Y-12.9258
G01 X-17.1395 Y-13.0091
G01 X-17.0973 Y-13.0605
G01 X-17.0420 Y-13.0975
G01 X-16.9783 Y-13.1168
G01 X-16.6721 Y-13.1193
G01 X-16.6721 Y-16.8550
G01 X-16.6672 Y-16.9373
G01 X-16.6407 Y-17.0661
G01 X-16.5862 Y-17.1977
G01 X-16.4997 Y-17.3247
G01 X-15.6012 Y-18.2220
G01 X-15.4924 Y-18.2957
G01 X-15.4078 Y-18.3357
G01 X-15.2818 Y-18.3731
G01 X-15.1511 Y-18.3868
G01 X-11.7110 Y-18.3871
G01 X-11.5933 Y-18.4781
G01 X-11.4234 Y-18.5665
G01 X-11.2506 Y-18.6180
G01 X-11.0600 Y-18.6368
G01 X-10.9643 Y-18.6321
G01 X-10.8586 Y-18.6156
G01 X-10.7659 Y-18.5912
G01 X-10.6095 Y-18.5265
G01 X-10.5173 Y-18.4722
G01 X-10.4403 Y-18.4151
G01 X-10.3049 Y-18.2797
G01 X-10.2419 Y-18.1933
G01 X-10.1621 Y-18.0440
G01 X-10.1253 Y-17.9435
G01 X-10.1020 Y-17.8506
G01 X-10.0879 Y-17.7557
G01 X-10.0835 Y-17.6489
G01 X-10.1001 Y-17.4804
G01 X-10.1253 Y-17.3765
G01 X-10.1576 Y-17.2862
G01 X-10.2040 Y-17.1899
G01 X-10.2981 Y-17.0491
G01 X-10.3693 Y-16.9693
G01 X-10.4403 Y-16.9049
G01 X-10.5267 Y-16.8419
G01 X-10.6760 Y-16.7621
G01 X-10.7659 Y-16.7288
G01 X-10.8694 Y-16.7020
G01 X-10.9754 Y-16.6871
G01 X-11.1446 Y-16.6871
G01 X-11.2506 Y-16.7020
G01 X-11.3541 Y-16.7288
G01 X-11.5105 Y-16.7935
G01 X-11.6027 Y-16.8478
G01 X-11.7110 Y-16.9329
G01 X-14.8388 Y-16.9329
G01 X-15.2179 Y-16.5538
G01 X-15.2179 Y-13.1193
G01 X-14.9339 Y-13.1190
G01 X-14.8686 Y-13.1060
G01 X-14.8099 Y-13.0747
G01 X-14.7628 Y-13.0276
G01 X-14.7315 Y-12.9689
G01 X-14.7207 Y-12.9258
G01 X-14.7185 Y-10.9764
G01 X-14.7400 Y-10.8905
G01 X-14.7927 Y-10.8195
G01 X-14.8686 Y-10.7740
G01 X-14.9339 Y-10.7610
G01 X-16.9783 Y-10.7632
G01 X-17.0214 Y-10.7740
G01 X-17.0801 Y-10.8053
G01 X-17.1272 Y-10.8524
G01 X-17.1500 Y-10.8905
G01 X-17.1715 Y-10.9764
G01 X-17.1718 Y-11.2129
G01 X-18.0423 Y-11.2178
G01 X-18.1603 Y-11.2413
G01 X-18.2382 Y-11.2683
G01 X-18.3545 Y-11.3295
G01 X-18.4297 Y-11.3853
G00 X-18.4297 Y-11.3853
G01 F60.00
G01 Z-0.0750
G01 F120.00
G01 X-20.5014 Y-13.4532
G01 X-20.6117 Y-13.4595
G01 X-20.7873 Y-13.4944
G01 X-20.8929 Y-13.5314
G01 X-20.9840 Y-13.5744
G01 X-21.0796 Y-13.6327
G01 X-21.2180 Y-13.7463
G01 X-21.2937 Y-13.8286
G01 X-21.3538 Y-13.9095
G01 X-21.4486 Y-14.0871
G01 X-21.5071 Y-14.2797
G01 X-21.5268 Y-14.4800
G01 X-21.5090 Y-14.6694
G01 X-21.4826 Y-14.7781
G01 X-21.4526 Y-14.8626
G01 X-21.4001 Y-14.9737
G01 X-21.2937 Y-15.1314
G01 X-21.1514 Y-15.2737
G01 X-20.9937 Y-15.3801
G01 X-20.8826 Y-15.4326
G01 X-20.7003 Y-15.4871
G01 X-20.5111 Y-15.5065
G01 X-20.3883 Y-15.5005
G01 X-20.2019 Y-15.4626
G01 X-20.0969 Y-15.4241
G01 X-19.9295 Y-15.3338
G01 X-19.8486 Y-15.2737
G01 X-19.7663 Y-15.1980
G01 X-19.6527 Y-15.0596
G01 X-19.5944 Y-14.9640
G01 X-19.5514 Y-14.8729
G01 X-19.5144 Y-14.7673
G01 X-19.4795 Y-14.5917
G01 X-19.4732 Y-14.4814
G01 X-17.6588 Y-12.6671
G01 X-17.1718 Y-12.6671
G01 X-17.1693 Y-12.9258
G01 X-17.1395 Y-13.0091
G01 X-17.0973 Y-13.0605
G01 X-17.0420 Y-13.0975
G01 X-16.9783 Y-13.1168
G01 X-16.6721 Y-13.1193
G01 X-16.6721 Y-16.8550
G01 X-16.6672 Y-16.9373
G01 X-16.6407 Y-17.0661
G01 X-16.5862 Y-17.1977
G01 X-16.4997 Y-17.3247
G01 X-15.6012 Y-18.2220
G01 X-15.4924 Y-18.2957
G01 X-15.4078 Y-18.3357
G01 X-15.2818 Y-18.3731
G01 X-15.1511 Y-18.3868
G01 X-11.7110 Y-18.3871
G01 X-11.5933 Y-18.4781
G01 X-11.4234 Y-18.5665
G01 X-11.2506 Y-18.6180
G01 X-11.0600 Y-18.6368
G01 X-10.9643 Y-18.6321
G01 X-10.8586 Y-18.6156
G01 X-10.7659 Y-18.5912
G01 X-10.6095 Y-18.5265
G01 X-10.5173 Y-18.4722
G01 X-10.4403 Y-18.4151
G01 X-10.3049 Y-18.2797
G01 X-10.2419 Y-18.1933
G01 X-10.1621 Y-18.0440
G01 X-10.1253 Y-17.9435
G01 X-10.1020 Y-17.8506
G01 X-10.0879 Y-17.7557
G01 X-10.0835 Y-17.6489
G01 X-10.1001 Y-17.4804
G01 X-10.1253 Y-17.3765
G01 X-10.1576 Y-17.2862
G01 X-10.2040 Y-17.1899
G01 X-10.2981 Y-17.0491
G01 X-10.3693 Y-16.9693
G01 X-10.4403 Y-16.9049
G01 X-10.5267 Y-16.8419
G01 X-10.6760 Y-16.7621
G01 X-10.7659 Y-16.7288
G01 X-10.8694 Y-16.7020
G01 X-10.9754 Y-16.6871
G01 X-11.1446 Y-16.6871
G01 X-11.2506 Y-16.7020
G01 X-11.3541 Y-16.7288
G01 X-11.5105 Y-16.7935
G01 X-11.6027 Y-16.8478
G01 X-11.7110 Y-16.9329
G01 X-14.8388 Y-16.9329
G01 X-15.2179 Y-16.5538
G01 X-15.2179 Y-13.1193
G01 X-14.9339 Y-13.1190
G01 X-14.8686 Y-13.1060
G01 X-14.8099 Y-13.0747
G01 X-14.7628 Y-13.0276
G01 X-14.7315 Y-12.9689
G01 X-14.7207 Y-12.9258
G01 X-14.7185 Y-10.9764
G01 X-14.7400 Y-10.8905
G01 X-14.7927 Y-10.8195
G01 X-14.8686 Y-10.7740
G01 X-14.9339 Y-10.7610
G01 X-16.9783 Y-10.7632
G01 X-17.0214 Y-10.7740
G01 X-17.0801 Y-10.8053
G01 X-17.1272 Y-10.8524
G01 X-17.1500 Y-10.8905
G01 X-17.1715 Y-10.9764
G01 X-17.1718 Y-11.2129
G01 X-18.0423 Y-11.2178
G01 X-18.1603 Y-11.2413
G01 X-18.2382 Y-11.2683
G01 X-18.3545 Y-11.3295
G01 X-18.4297 Y-11.3853
G00 X-18.4297 Y-11.3853
G01 F60.00
G01 Z-0.1000
G01 F120.00
G01 X-20.5014 Y-13.4532
G01 X-20.6117 Y-13.4595
G01 X-20.7873 Y-13.4944
G01 X-20.8929 Y-13.5314
G01 X-20.9840 Y-13.5744
G01 X-21.0796 Y-13.6327
G01 X-21.2180 Y-13.7463
G01 X-21.2937 Y-13.8286
G01 X-21.3538 Y-13.9095
G01 X-21.4486 Y-14.0871
G01 X-21.5071 Y-14.2797
G01 X-21.5268 Y-14.4800
G01 X-21.5090 Y-14.6694
G01 X-21.4826 Y-14.7781
G01 X-21.4526 Y-14.8626
G01 X-21.4001 Y-14.9737
G01 X-21.2937 Y-15.1314
G01 X-21.1514 Y-15.2737
G01 X-20.9937 Y-15.3801
G01 X-20.8826 Y-15.4326
G01 X-20.7003 Y-15.4871
G01 X-20.5111 Y-15.5065
G01 X-20.3883 Y-15.5005
G01 X-20.2019 Y-15.4626
G01 X-20.0969 Y-15.4241
G01 X-19.9295 Y-15.3338
G01 X-19.8486 Y-15.2737
G01 X-19.7663 Y-15.1980
G01 X-19.6527 Y-15.0596
G01 X-19.5944 Y-14.9640
G01 X-19.5514 Y-14.8729
G01 X-19.5144 Y-14.7673
G01 X-19.4795 Y-14.5917
G01 X-19.4732 Y-14.4814
G01 X-17.6588 Y-12.6671
G01 X-17.1718 Y-12.6671
G01 X-17.1693 Y-12.9258
G01 X-17.1395 Y-13.0091
G01 X-17.0973 Y-13.0605
G01 X-17.0420 Y-13.0975
G01 X-16.9783 Y-13.1168
G01 X-16.6721 Y-13.1193
G01 X-16.6721 Y-16.8550
G01 X-16.6672 Y-16.9373
G01 X-16.6407 Y-17.0661
G01 X-16.5862 Y-17.1977
G01 X-16.4997 Y-17.3247
G01 X-15.6012 Y-18.2220
G01 X-15.4924 Y-18.2957
G01 X-15.4078 Y-18.3357
G01 X-15.2818 Y-18.3731
G01 X-15.1511 Y-18.3868
G01 X-11.7110 Y-18.3871
G01 X-11.5933 Y-18.4781
G01 X-11.4234 Y-18.5665
G01 X-11.2506 Y-18.6180
G01 X-11.0600 Y-18.6368
G01 X-10.9643 Y-18.6321
G01 X-10.8586 Y-18.6156
G01 X-10.7659 Y-18.5912
G01 X-10.6095 Y-18.5265
G01 X-10.5173 Y-18.4722
G01 X-10.4403 Y-18.4151
G01 X-10.3049 Y-18.2797
G01 X-10.2419 Y-18.1933
G01 X-10.1621 Y-18.0440
G01 X-10.1253 Y-17.9435
G01 X-10.1020 Y-17.8506
G01 X-10.0879 Y-17.7557
G01 X-10.0835 Y-17.6489
G01 X-10.1001 Y-17.4804
G01 X-10.1253 Y-17.3765
G01 X-10.1576 Y-17.2862
G01 X-10.2040 Y-17.1899
G01 X-10.2981 Y-17.0491
G01 X-10.3693 Y-16.9693
G01 X-10.4403 Y-16.9049
G01 X-10.5267 Y-16.8419
G01 X-10.6760 Y-16.7621
G01 X-10.7659 Y-16.7288
G01 X-10.8694 Y-16.7020
G01 X-10.9754 Y-16.6871
G01 X-11.1446 Y-16.6871
G01 X-11.2506 Y-16.7020
G01 X-11.3541 Y-16.7288
G01 X-11.5105 Y-16.7935
G01 X-11.6027 Y-16.8478
G01 X-11.7110 Y-16.9329
G01 X-14.8388 Y-16.9329
G01 X-15.2179 Y-16.5538
G01 X-15.2179 Y-13.1193
G01 X-14.9339 Y-13.1190
G01 X-14.8686 Y-13.1060
G01 X-14.8099 Y-13.0747
G01 X-14.7628 Y-13.0276
G01 X-14.7315 Y-12.9689
G01 X-14.7207 Y-12.9258
G01 X-14.7185 Y-10.9764
G01 X-14.7400 Y-10.8905
G01 X-14.7927 Y-10.8195
G01 X-14.8686 Y-10.7740
G01 X-14.9339 Y-10.7610
G01 X-16.9783 Y-10.7632
G01 X-17.0214 Y-10.7740
G01 X-17.0801 Y-10.8053
G01 X-17.1272 Y-10.8524
G01 X-17.1500 Y-10.8905
G01 X-17.1715 Y-10.9764
G01 X-17.1718 Y-11.2129
G01 X-18.0423 Y-11.2178
G01 X-18.1603 Y-11.2413
G01 X-18.2382 Y-11.2683
G01 X-18.3545 Y-11.3295
G01 X-18.4297 Y-11.3853
G00 Z2.0000
G00 X-24.0024 Y-15.2025
G01 F60.00
G01 Z-0.0250
G01 F120.00
G01 X-23.9742 Y-15.3130
G01 X-23.9732 Y-15.5732
G01 X-23.7667 Y-15.5757
G01 X-23.7030 Y-15.5950
G01 X-23.6477 Y-15.6320
G01 X-23.6055 Y-15.6834
G01 X-23.5800 Y-15.7449
G01 X-23.5735 Y-15.7889
G01 X-23.5732 Y-15.9732
G01 X-23.5188 Y-15.9732
G01 X-23.5188 Y-15.7642
G01 X-23.5508 Y-15.6636
G01 X-23.5991 Y-15.5991
G01 X-23.6636 Y-15.5508
G01 X-23.7624 Y-15.5124
G01 X-23.8492 Y-15.4560
G01 X-23.9335 Y-15.3445
G01 X-23.9596 Y-15.2640
G01 X-23.9663 Y-15.1588
G01 X-23.9522 Y-15.0859
G01 X-23.8935 Y-14.9756
G01 X-23.8059 Y-14.8822
G01 X-23.7407 Y-14.7769
G01 X-23.7010 Y-14.6579
G01 X-23.6938 Y-14.5268
G01 X-23.7482 Y-14.5268
G01 X-23.7519 Y-14.6078
G01 X-23.7687 Y-14.6884
G01 X-23.7995 Y-14.7648
G01 X-23.8350 Y-14.8240
G01 X-23.9141 Y-14.9113
G01 X-24.0107 Y-14.9758
G01 X-24.0107 Y-15.1792
G01 X-24.0024 Y-15.2025
G00 X-24.0024 Y-15.2025
G01 F60.00
G01 Z-0.0500
G01 F120.00
G01 X-23.9742 Y-15.3130
G01 X-23.9732 Y-15.5732
G01 X-23.7667 Y-15.5757
G01 X-23.7030 Y-15.5950
G01 X-23.6477 Y-15.6320
G01 X-23.6055 Y-15.6834
G01 X-23.5800 Y-15.7449
G01 X-23.5735 Y-15.7889
G01 X-23.5732 Y-15.9732
G01 X-23.5188 Y-15.9732
G01 X-23.5188 Y-15.7642
G01 X-23.5508 Y-15.6636
G01 X-23.5991 Y-15.5991
G01 X-23.6636 Y-15.5508
G01 X-23.7624 Y-15.5124
G01 X-23.8492 Y-15.4560
G01 X-23.9335 Y-15.3445
G01 X-23.9596 Y-15.2640
G01 X-23.9663 Y-15.1588
G01 X-23.9522 Y-15.0859
G01 X-23.8935 Y-14.9756
G01 X-23.8059 Y-14.8822
G01 X-23.7407 Y-14.7769
G01 X-23.7010 Y-14.6579
G01 X-23.6938 Y-14.5268
G01 X-23.7482 Y-14.5268
G01 X-23.7519 Y-14.6078
G01 X-23.7687 Y-14.6884
G01 X-23.7995 Y-14.7648
G01 X-23.8350 Y-14.8240
G01 X-23.9141 Y-14.9113
G01 X-24.0107 Y-14.9758
G01 X-24.0107 Y-15.1792
G01 X-24.0024 Y-15.2025
G00 X-24.0024 Y-15.2025
G01 F60.00
G01 Z-0.0750
G01 F120.00
G01 X-23.9742 Y-15.3130
G01 X-23.9732 Y-15.5732
G01 X-23.7667 Y-15.5757
G01 X-23.7030 Y-15.5950
G01 X-23.6477 Y-15.6320
G01 X-23.6055 Y-15.6834
G01 X-23.5800 Y-15.7449
G01 X-23.5735 Y-15.7889
G01 X-23.5732 Y-15.9732
G01 X-23.5188 Y-15.9732
G01 X-23.5188 Y-15.7642
G01 X-23.5508 Y-15.6636
G01 X-23.5991 Y-15.5991
G01 X-23.6636 Y-15.5508
G01 X-23.7624 Y-15.5124
G01 X-23.8492 Y-15.4560
G01 X-23.9335 Y-15.3445
G01 X-23.9596 Y-15.2640
G01 X-23.9663 Y-15.1588
G01 X-23.9522 Y-15.0859
G01 X-23.8935 Y-14.9756
G01 X-23.8059 Y-14.8822
G01 X-23.7407 Y-14.7769
G01 X-23.7010 Y-14.6579
G01 X-23.6938 Y-14.5268
G01 X-23.7482 Y-14.5268
G01 X-23.7519 Y-14.6078
G01 X-23.7687 Y-14.6884
G01 X-23.7995 Y-14.7648
G01 X-23.8350 Y-14.8240
G01 X-23.9141 Y-14.9113
G01 X-24.0107 Y-14.9758
G01 X-24.0107 Y-15.1792
G01 X-24.0024 Y-15.2025
G00 X-24.0024 Y-15.2025
G01 F60.00
G01 Z-0.1000
G01 F120.00
G01 X-23.9742 Y-15.3130
G01 X-23.9732 Y-15.5732
G01 X-23.7667 Y-15.5757
G01 X-23.7030 Y-15.5950
G01 X-23.6477 Y-15.6320
G01 X-23.6055 Y-15.6834
G01 X-23.5800 Y-15.7449
G01 X-23.5735 Y-15.7889
G01 X-23.5732 Y-15.9732
G01 X-23.5188 Y-15.9732
G01 X-23.5188 Y-15.7642
G01 X-23.5508 Y-15.6636
G01 X-23.5991 Y-15.5991
G01 X-23.6636 Y-15.5508
G01 X-23.7624 Y-15.5124
G01 X-23.8492 Y-15.4560
G01 X-23.9335 Y-15.3445
G01 X-23.9596 Y-15.2640
G01 X-23.9663 Y-15.1588
G01 X-23.9522 Y-15.0859
G01 X-23.8935 Y-14.9756
G01 X-23.8059 Y-14.8822
G01 X-23.7407 Y-14.7769
G01 X-23.7010 Y-14.6579
G01 X-23.6938 Y-14.5268
G01 X-23.7482 Y-14.5268
G01 X-23.7519 Y-14.6078
G01 X-23.7687 Y-14.6884
G01 X-23.7995 Y-14.7648
G01 X-23.8350 Y-14.8240
G01 X-23.9141 Y-14.9113
G01 X-24.0107 Y-14.9758
G01 X-24.0107 Y-15.1792
G01 X-24.0024 Y-15.2025
G00 Z2.0000
G00 X-23.5991 Y-17.6009
G01 F60.00
G01 Z-0.0250
G01 F120.00
G01 X-23.5508 Y-17.5364
G01 X-23.5211 Y-17.4573
G01 X-23.5188 Y-17.2268
G01 X-23.5732 Y-17.2268
G01 X-23.5757 Y-17.4333
G01 X-23.5950 Y-17.4970
G01 X-23.6320 Y-17.5523
G01 X-23.6834 Y-17.5945
G01 X-23.7449 Y-17.6200
G01 X-23.7889 Y-17.6265
G01 X-23.9732 Y-17.6268
G01 X-23.9732 Y-17.6812
G01 X-23.7427 Y-17.6789
G01 X-23.6636 Y-17.6492
G01 X-23.5991 Y-17.6009
G00 X-23.5991 Y-17.6009
G01 F60.00
G01 Z-0.0500
G01 F120.00
G01 X-23.5508 Y-17.5364
G01 X-23.5211 Y-17.4573
G01 X-23.5188 Y-17.2268
G01 X-23.5732 Y-17.2268
G01 X-23.5757 Y-17.4333
G01 X-23.5950 Y-17.4970
G01 X-23.6320 Y-17.5523
G01 X-23.6834 Y-17.5945
G01 X-23.7449 Y-17.6200
G01 X-23.7889 Y-17.6265
G01 X-23.9732 Y-17.6268
G01 X-23.9732 Y-17.6812
G01 X-23.7427 Y-17.6789
G01 X-23.6636 Y-17.6492
G01 X-23.5991 Y-17.6009
G00 X-23.5991 Y-17.6009
G01 F60.00
G01 Z-0.0750
G01 F120.00
G01 X-23.5508 Y-17.5364
G01 X-23.5211 Y-17.4573
G01 X-23.5188 Y-17.2268
G01 X-23.5732 Y-17.2268
G01 X-23.5757 Y-17.4333
G01 X-23.5950 Y-17.4970
G01 X-23.6320 Y-17.5523
G01 X-23.6834 Y-17.5945
G01 X-23.7449 Y-17.6200
G01 X-23.7889 Y-17.6265
G01 X-23.9732 Y-17.6268
G01 X-23.9732 Y-17.6812
G01 X-23.7427 Y-17.6789
G01 X-23.6636 Y-17.6492
G01 X-23.5991 Y-17.6009
G00 X-23.5991 Y-17.6009
G01 F60.00
G01 Z-0.1000
G01 F120.00
G01 X-23.5508 Y-17.5364
G01 X-23.5211 Y-17.4573
G01 X-23.5188 Y-17.2268
G01 X-23.5732 Y-17.2268
G01 X-23.5757 Y-17.4333
G01 X-23.5950 Y-17.4970
G01 X-23.6320 Y-17.5523
G01 X-23.6834 Y-17.5945
G01 X-23.7449 Y-17.6200
G01 X-23.7889 Y-17.6265
G01 X-23.9732 Y-17.6268
G01 X-23.9732 Y-17.6812
G01 X-23.7427 Y-17.6789
G01 X-23.6636 Y-17.6492
G01 X-23.5991 Y-17.6009
G00 Z2.0000
G00 X-18.8686 Y-20.9937
G01 F60.00
G01 Z-0.0250
G01 F120.00
G01 X-18.7950 Y-20.9271
G01 X-11.7110 Y-20.9271
G01 X-11.6118 Y-21.0058
G01 X-11.5205 Y-21.0615
G01 X-11.3435 Y-21.1347
G01 X-11.1557 Y-21.1721
G01 X-10.9643 Y-21.1721
G01 X-10.7765 Y-21.1347
G01 X-10.5995 Y-21.0615
G01 X-10.4403 Y-20.9551
G01 X-10.3049 Y-20.8197
G01 X-10.1985 Y-20.6605
G01 X-10.1253 Y-20.4835
G01 X-10.0879 Y-20.2957
G01 X-10.0879 Y-20.1043
G01 X-10.1253 Y-19.9165
G01 X-10.1935 Y-19.7495
G01 X-10.2542 Y-19.6482
G01 X-10.3693 Y-19.5093
G01 X-10.5173 Y-19.3878
G01 X-10.6760 Y-19.3021
G01 X-10.7872 Y-19.2623
G01 X-10.9754 Y-19.2271
G01 X-11.1557 Y-19.2279
G01 X-11.2506 Y-19.2420
G01 X-11.3541 Y-19.2688
G01 X-11.5301 Y-19.3440
G01 X-11.6118 Y-19.3942
G01 X-11.7110 Y-19.4729
G01 X-18.7950 Y-19.4729
G01 X-18.9495 Y-19.3462
G01 X-19.1271 Y-19.2514
G01 X-19.3197 Y-19.1929
G01 X-19.5200 Y-19.1732
G01 X-19.7203 Y-19.1929
G01 X-19.9026 Y-19.2474
G01 X-20.0137 Y-19.2999
G01 X-20.1714 Y-19.4063
G01 X-20.3137 Y-19.5486
G01 X-20.4256 Y-19.7160
G01 X-20.5026 Y-19.9019
G01 X-20.5419 Y-20.0994
G01 X-20.5419 Y-20.3006
G01 X-20.5026 Y-20.4981
G01 X-20.4256 Y-20.6840
G01 X-20.3137 Y-20.8514
G01 X-20.1714 Y-20.9937
G01 X-20.0040 Y-21.1056
G01 X-19.8181 Y-21.1826
G01 X-19.6206 Y-21.2219
G01 X-19.4194 Y-21.2219
G01 X-19.2219 Y-21.1826
G01 X-19.0360 Y-21.1056
G01 X-18.8686 Y-20.9937
G00 X-18.8686 Y-20.9937
G01 F60.00
G01 Z-0.0500
G01 F120.00
G01 X-18.7950 Y-20.9271
G01 X-11.7110 Y-20.9271
G01 X-11.6118 Y-21.0058
G01 X-11.5205 Y-21.0615
G01 X-11.3435 Y-21.1347
G01 X-11.1557 Y-21.1721
G01 X-10.9643 Y-21.1721
G01 X-10.7765 Y-21.1347
G01 X-10.5995 Y-21.0615
G01 X-10.4403 Y-20.9551
G01 X-10.3049 Y-20.8197
G01 X-10.1985 Y-20.6605
G01 X-10.1253 Y-20.4835
G01 X-10.0879 Y-20.2957
G01 X-10.0879 Y-20.1043
G01 X-10.1253 Y-19.9165
G01 X-10.1935 Y-19.7495
G01 X-10.2542 Y-19.6482
G01 X-10.3693 Y-19.5093
G01 X-10.5173 Y-19.3878
G01 X-10.6760 Y-19.3021
G01 X-10.7872 Y-19.2623
G01 X-10.9754 Y-19.2271
G01 X-11.1557 Y-19.2279
G01 X-11.2506 Y-19.2420
G01 X-11.3541 Y-19.2688
G01 X-11.5301 Y-19.3440
G01 X-11.6118 Y-19.3942
G01 X-11.7110 Y-19.4729
G01 X-18.7950 Y-19.4729
G01 X-18.9495 Y-19.3462
G01 X-19.1271 Y-19.2514
G01 X-19.3197 Y-19.1929
G01 X-19.5200 Y-19.1732
G01 X-19.7203 Y-19.1929
G01 X-19.9026 Y-19.2474
G01 X-20.0137 Y-19.2999
G01 X-20.1714 Y-19.4063
G01 X-20.3137 Y-19.5486
G01 X-20.4256 Y-19.7160
G01 X-20.5026 Y-19.9019
G01 X-20.5419 Y-20.0994
G01 X-20.5419 Y-20.3006
G01 X-20.5026 Y-20.4981
G01 X-20.4256 Y-20.6840
G01 X-20.3137 Y-20.8514
G01 X-20.1714 Y-20.9937
G01 X-20.0040 Y-21.1056
G01 X-19.8181 Y-21.1826
G01 X-19.6206 Y-21.2219
G01 X-19.4194 Y-21.2219
G01 X-19.2219 Y-21.1826
G01 X-19.0360 Y-21.1056
G01 X-18.8686 Y-20.9937
G00 X-18.8686 Y-20.9937
G01 F60.00
G01 Z-0.0750
G01 F120.00
G01 X-18.7950 Y-20.9271
G01 X-11.7110 Y-20.9271
G01 X-11.6118 Y-21.0058
G01 X-11.5205 Y-21.0615
G01 X-11.3435 Y-21.1347
G01 X-11.1557 Y-21.1721
G01 X-10.9643 Y-21.1721
G01 X-10.7765 Y-21.1347
G01 X-10.5995 Y-21.0615
G01 X-10.4403 Y-20.9551
G01 X-10.3049 Y-20.8197
G01 X-10.1985 Y-20.6605
G01 X-10.1253 Y-20.4835
G01 X-10.0879 Y-20.2957
G01 X-10.0879 Y-20.1043
G01 X-10.1253 Y-19.9165
G01 X-10.1935 Y-19.7495
G01 X-10.2542 Y-19.6482
G01 X-10.3693 Y-19.5093
G01 X-10.5173 Y-19.3878
G01 X-10.6760 Y-19.3021
G01 X-10.7872 Y-19.2623
G01 X-10.9754 Y-19.2271
G01 X-11.1557 Y-19.2279
G01 X-11.2506 Y-19.2420
G01 X-11.3541 Y-19.2688
G01 X-11.5301 Y-19.3440
G01 X-11.6118 Y-19.3942
G01 X-11.7110 Y-19.4729
G01 X-18.7950 Y-19.4729
G01 X-18.9495 Y-19.3462
G01 X-19.1271 Y-19.2514
G01 X-19.3197 Y-19.1929
G01 X-19.5200 Y-19.1732
G01 X-19.7203 Y-19.1929
G01 X-19.9026 Y-19.2474
G01 X-20.0137 Y-19.2999
G01 X-20.1714 Y-19.4063
G01 X-20.3137 Y-19.5486
G01 X-20.4256 Y-19.7160
G01 X-20.5026 Y-19.9019
G01 X-20.5419 Y-20.0994
G01 X-20.5419 Y-20.3006
G01 X-20.5026 Y-20.4981
G01 X-20.4256 Y-20.6840
G01 X-20.3137 Y-20.8514
G01 X-20.1714 Y-20.9937
G01 X-20.0040 Y-21.1056
G01 X-19.8181 Y-21.1826
G01 X-19.6206 Y-21.2219
G01 X-19.4194 Y-21.2219
G01 X-19.2219 Y-21.1826
G01 X-19.0360 Y-21.1056
G01 X-18.8686 Y-20.9937
G00 X-18.8686 Y-20.9937
G01 F60.00
G01 Z-0.1000
G01 F120.00
G01 X-18.7950 Y-20.9271
G01 X-11.7110 Y-20.9271
G01 X-11.6118 Y-21.0058
G01 X-11.5205 Y-21.0615
G01 X-11.3435 Y-21.1347
G01 X-11.1557 Y-21.1721
G01 X-10.9643 Y-21.1721
G01 X-10.7765 Y-21.1347
G01 X-10.5995 Y-21.0615
G01 X-10.4403 Y-20.9551
G01 X-10.3049 Y-20.8197
G01 X-10.1985 Y-20.6605
G01 X-10.1253 Y-20.4835
G01 X-10.0879 Y-20.2957
G01 X-10.0879 Y-20.1043
G01 X-10.1253 Y-19.9165
G01 X-10.1935 Y-19.7495
G01 X-10.2542 Y-19.6482
G01 X-10.3693 Y-19.5093
G01 X-10.5173 Y-19.3878
G01 X-10.6760 Y-19.3021
G01 X-10.7872 Y-19.2623
G01 X-10.9754 Y-19.2271
G01 X-11.1557 Y-19.2279
G01 X-11.2506 Y-19.2420
G01 X-11.3541 Y-19.2688
G01 X-11.5301 Y-19.3440
G01 X-11.6118 Y-19.3942
G01 X-11.7110 Y-19.4729
G01 X-18.7950 Y-19.4729
G01 X-18.9495 Y-19.3462
G01 X-19.1271 Y-19.2514
G01 X-19.3197 Y-19.1929
G01 X-19.5200 Y-19.1732
G01 X-19.7203 Y-19.1929
G01 X-19.9026 Y-19.2474
G01 X-20.0137 Y-19.2999
G01 X-20.1714 Y-19.4063
G01 X-20.3137 Y-19.5486
G01 X-20.4256 Y-19.7160
G01 X-20.5026 Y-19.9019
G01 X-20.5419 Y-20.0994
G01 X-20.5419 Y-20.3006
G01 X-20.5026 Y-20.4981
G01 X-20.4256 Y-20.6840
G01 X-20.3137 Y-20.8514
G01 X-20.1714 Y-20.9937
G01 X-20.0040 Y-21.1056
G01 X-19.8181 Y-21.1826
G01 X-19.6206 Y-21.2219
G01 X-19.4194 Y-21.2219
G01 X-19.2219 Y-21.1826
G01 X-19.0360 Y-21.1056
G01 X-18.8686 Y-20.9937
G00 Z2.0000
G00 X-12.0109 Y-23.6909
G01 F60.00
G01 Z-0.0250
G01 F120.00
G01 X-11.9464 Y-23.7392
G01 X-11.8673 Y-23.7689
G01 X-11.6868 Y-23.7712
G01 X-11.6868 Y-23.7168
G01 X-11.8651 Y-23.7100
G01 X-11.9266 Y-23.6845
G01 X-11.9623 Y-23.6580
G01 X-12.0045 Y-23.6066
G01 X-12.0300 Y-23.5451
G01 X-12.0368 Y-23.3668
G01 X-12.0912 Y-23.3668
G01 X-12.0889 Y-23.5473
G01 X-12.0592 Y-23.6264
G01 X-12.0109 Y-23.6909
G00 X-12.0109 Y-23.6909
G01 F60.00
G01 Z-0.0500
G01 F120.00
G01 X-11.9464 Y-23.7392
G01 X-11.8673 Y-23.7689
G01 X-11.6868 Y-23.7712
G01 X-11.6868 Y-23.7168
G01 X-11.8651 Y-23.7100
G01 X-11.9266 Y-23.6845
G01 X-11.9623 Y-23.6580
G01 X-12.0045 Y-23.6066
G01 X-12.0300 Y-23.5451
G01 X-12.0368 Y-23.3668
G01 X-12.0912 Y-23.3668
G01 X-12.0889 Y-23.5473
G01 X-12.0592 Y-23.6264
G01 X-12.0109 Y-23.6909
G00 X-12.0109 Y-23.6909
G01 F60.00
G01 Z-0.0750
G01 F120.00
G01 X-11.9464 Y-23.7392
G01 X-11.8673 Y-23.7689
G01 X-11.6868 Y-23.7712
G01 X-11.6868 Y-23.7168
G01 X-11.8651 Y-23.7100
G01 X-11.9266 Y-23.6845
G01 X-11.9623 Y-23.6580
G01 X-12.0045 Y-23.6066
G01 X-12.0300 Y-23.5451
G01 X-12.0368 Y-23.3668
G01 X-12.0912 Y-23.3668
G01 X-12.0889 Y-23.5473
G01 X-12.0592 Y-23.6264
G01 X-12.0109 Y-23.6909
G00 X-12.0109 Y-23.6909
G01 F60.00
G01 Z-0.1000
G01 F120.00
G01 X-11.9464 Y-23.7392
G01 X-11.8673 Y-23.7689
G01 X-11.6868 Y-23.7712
G01 X-11.6868 Y-23.7168
G01 X-11.8651 Y-23.7100
G01 X-11.9266 Y-23.6845
G01 X-11.9623 Y-23.6580
G01 X-12.0045 Y-23.6066
G01 X-12.0300 Y-23.5451
G01 X-12.0368 Y-23.3668
G01 X-12.0912 Y-23.3668
G01 X-12.0889 Y-23.5473
G01 X-12.0592 Y-23.6264
G01 X-12.0109 Y-23.6909
G00 Z2.0000
G00 X-10.1091 Y-23.6909
G01 F60.00
G01 Z-0.0250
G01 F120.00
G01 X-10.0608 Y-23.6264
G01 X-10.0311 Y-23.5473
G01 X-10.0288 Y-23.3668
G01 X-10.0832 Y-23.3668
G01 X-10.0900 Y-23.5451
G01 X-10.1155 Y-23.6066
G01 X-10.1577 Y-23.6580
G01 X-10.1934 Y-23.6845
G01 X-10.2549 Y-23.7100
G01 X-10.4332 Y-23.7168
G01 X-10.4332 Y-23.7712
G01 X-10.2527 Y-23.7689
G01 X-10.1736 Y-23.7392
G01 X-10.1091 Y-23.6909
G00 X-10.1091 Y-23.6909
G01 F60.00
G01 Z-0.0500
G01 F120.00
G01 X-10.0608 Y-23.6264
G01 X-10.0311 Y-23.5473
G01 X-10.0288 Y-23.3668
G01 X-10.0832 Y-23.3668
G01 X-10.0900 Y-23.5451
G01 X-10.1155 Y-23.6066
G01 X-10.1577 Y-23.6580
G01 X-10.1934 Y-23.6845
G01 X-10.2549 Y-23.7100
G01 X-10.4332 Y-23.7168
G01 X-10.4332 Y-23.7712
G01 X-10.2527 Y-23.7689
G01 X-10.1736 Y-23.7392
G01 X-10.1091 Y-23.6909
G00 X-10.1091 Y-23.6909
G01 F60.00
G01 Z-0.0750
G01 F120.00
G01 X-10.0608 Y-23.6264
G01 X-10.0311 Y-23.5473
G01 X-10.0288 Y-23.3668
G01 X-10.0832 Y-23.3668
G01 X-10.0900 Y-23.5451
G01 X-10.1155 Y-23.6066
G01 X-10.1577 Y-23.6580
G01 X-10.1934 Y-23.6845
G01 X-10.2549 Y-23.7100
G01 X-10.4332 Y-23.7168
G01 X-10.4332 Y-23.7712
G01 X-10.2527 Y-23.7689
G01 X-10.1736 Y-23.7392
G01 X-10.1091 Y-23.6909
G00 X-10.1091 Y-23.6909
G01 F60.00
G01 Z-0.1000
G01 F120.00
G01 X-10.0608 Y-23.6264
G01 X-10.0311 Y-23.5473
G01 X-10.0288 Y-23.3668
G01 X-10.0832 Y-23.3668
G01 X-10.0900 Y-23.5451
G01 X-10.1155 Y-23.6066
G01 X-10.1577 Y-23.6580
G01 X-10.1934 Y-23.6845
G01 X-10.2549 Y-23.7100
G01 X-10.4332 Y-23.7168
G01 X-10.4332 Y-23.7712
G01 X-10.2527 Y-23.7689
G01 X-10.1736 Y-23.7392
G01 X-10.1091 Y-23.6909
G00 Z2.0000
G00 X-30.4737 Y-17.2514
G01 F60.00
G01 Z-0.0250
G01 F120.00
G01 X-30.4071 Y-17.3250
G01 X-30.4071 Y-19.4750
G01 X-30.4806 Y-19.5574
G01 X-30.5801 Y-19.7063
G01 X-30.6286 Y-19.8071
G01 X-30.6656 Y-19.9127
G01 X-30.7005 Y-20.0883
G01 X-30.7068 Y-20.2000
G01 X-30.7005 Y-20.3117
G01 X-30.6656 Y-20.4873
G01 X-30.6286 Y-20.5929
G01 X-30.5856 Y-20.6840
G01 X-30.4737 Y-20.8514
G01 X-30.3314 Y-20.9937
G01 X-30.1640 Y-21.1056
G01 X-29.9781 Y-21.1826
G01 X-29.7806 Y-21.2219
G01 X-29.5794 Y-21.2219
G01 X-29.3927 Y-21.1856
G01 X-29.2769 Y-21.1441
G01 X-29.1095 Y-21.0538
G01 X-29.0202 Y-20.9865
G01 X-28.8863 Y-20.8514
G01 X-28.8203 Y-20.7611
G01 X-28.7314 Y-20.5929
G01 X-28.6944 Y-20.4873
G01 X-28.6581 Y-20.3006
G01 X-28.6581 Y-20.0994
G01 X-28.6729 Y-19.9997
G01 X-28.7009 Y-19.8914
G01 X-28.7359 Y-19.7969
G01 X-28.8203 Y-19.6389
G01 X-28.8863 Y-19.5486
G01 X-28.9529 Y-19.4750
G01 X-28.9529 Y-17.3250
G01 X-28.8262 Y-17.1705
G01 X-28.7314 Y-16.9929
G01 X-28.6729 Y-16.8003
G01 X-28.6532 Y-16.6000
G01 X-28.6729 Y-16.3997
G01 X-28.7274 Y-16.2174
G01 X-28.7799 Y-16.1063
G01 X-28.8863 Y-15.9486
G01 X-29.0286 Y-15.8063
G01 X-29.1960 Y-15.6944
G01 X-29.3819 Y-15.6174
G01 X-29.5794 Y-15.5781
G01 X-29.7806 Y-15.5781
G01 X-29.9781 Y-15.6174
G01 X-30.1640 Y-15.6944
G01 X-30.3314 Y-15.8063
G01 X-30.4737 Y-15.9486
G01 X-30.5856 Y-16.1160
G01 X-30.6626 Y-16.3019
G01 X-30.7019 Y-16.4994
G01 X-30.7019 Y-16.7006
G01 X-30.6626 Y-16.8981
G01 X-30.5856 Y-17.0840
G01 X-30.4737 Y-17.2514
G00 X-30.4737 Y-17.2514
G01 F60.00
G01 Z-0.0500
G01 F120.00
G01 X-30.4071 Y-17.3250
G01 X-30.4071 Y-19.4750
G01 X-30.4806 Y-19.5574
G01 X-30.5801 Y-19.7063
G01 X-30.6286 Y-19.8071
G01 X-30.6656 Y-19.9127
G01 X-30.7005 Y-20.0883
G01 X-30.7068 Y-20.2000
G01 X-30.7005 Y-20.3117
G01 X-30.6656 Y-20.4873
G01 X-30.6286 Y-20.5929
G01 X-30.5856 Y-20.6840
G01 X-30.4737 Y-20.8514
G01 X-30.3314 Y-20.9937
G01 X-30.1640 Y-21.1056
G01 X-29.9781 Y-21.1826
G01 X-29.7806 Y-21.2219
G01 X-29.5794 Y-21.2219
G01 X-29.3927 Y-21.1856
G01 X-29.2769 Y-21.1441
G01 X-29.1095 Y-21.0538
G01 X-29.0202 Y-20.9865
G01 X-28.8863 Y-20.8514
G01 X-28.8203 Y-20.7611
G01 X-28.7314 Y-20.5929
G01 X-28.6944 Y-20.4873
G01 X-28.6581 Y-20.3006
G01 X-28.6581 Y-20.0994
G01 X-28.6729 Y-19.9997
G01 X-28.7009 Y-19.8914
G01 X-28.7359 Y-19.7969
G01 X-28.8203 Y-19.6389
G01 X-28.8863 Y-19.5486
G01 X-28.9529 Y-19.4750
G01 X-28.9529 Y-17.3250
G01 X-28.8262 Y-17.1705
G01 X-28.7314 Y-16.9929
G01 X-28.6729 Y-16.8003
G01 X-28.6532 Y-16.6000
G01 X-28.6729 Y-16.3997
G01 X-28.7274 Y-16.2174
G01 X-28.7799 Y-16.1063
G01 X-28.8863 Y-15.9486
G01 X-29.0286 Y-15.8063
G01 X-29.1960 Y-15.6944
G01 X-29.3819 Y-15.6174
G01 X-29.5794 Y-15.5781
G01 X-29.7806 Y-15.5781
G01 X-29.9781 Y-15.6174
G01 X-30.1640 Y-15.6944
G01 X-30.3314 Y-15.8063
G01 X-30.4737 Y-15.9486
G01 X-30.5856 Y-16.1160
G01 X-30.6626 Y-16.3019
G01 X-30.7019 Y-16.4994
G01 X-30.7019 Y-16.7006
G01 X-30.6626 Y-16.8981
G01 X-30.5856 Y-17.0840
G01 X-30.4737 Y-17.2514
G00 X-30.4737 Y-17.2514
G01 F60.00
G01 Z-0.0750
G01 F120.00
G01 X-30.4071 Y-17.3250
G01 X-30.4071 Y-19.4750
G01 X-30.4806 Y-19.5574
G01 X-30.5801 Y-19.7063
G01 X-30.6286 Y-19.8071
G01 X-30.6656 Y-19.9127
G01 X-30.7005 Y-20.0883
G01 X-30.7068 Y-20.2000
G01 X-30.7005 Y-20.3117
G01 X-30.6656 Y-20.4873
G01 X-30.6286 Y-20.5929
G01 X-30.5856 Y-20.6840
G01 X-30.4737 Y-20.8514
G01 X-30.3314 Y-20.9937
G01 X-30.1640 Y-21.1056
G01 X-29.9781 Y-21.1826
G01 X-29.7806 Y-21.2219
G01 X-29.5794 Y-21.2219
G01 X-29.3927 Y-21.1856
G01 X-29.2769 Y-21.1441
G01 X-29.1095 Y-21.0538
G01 X-29.0202 Y-20.9865
G01 X-28.8863 Y-20.8514
G01 X-28.8203 Y-20.7611
G01 X-28.7314 Y-20.5929
G01 X-28.6944 Y-20.4873
G01 X-28.6581 Y-20.3006
G01 X-28.6581 Y-20.0994
G01 X-28.6729 Y-19.9997
G01 X-28.7009 Y-19.8914
G01 X-28.7359 Y-19.7969
G01 X-28.8203 Y-19.6389
G01 X-28.8863 Y-19.5486
G01 X-28.9529 Y-19.4750
G01 X-28.9529 Y-17.3250
G01 X-28.8262 Y-17.1705
G01 X-28.7314 Y-16.9929
G01 X-28.6729 Y-16.8003
G01 X-28.6532 Y-16.6000
G01 X-28.6729 Y-16.3997
G01 X-28.7274 Y-16.2174
G01 X-28.7799 Y-16.1063
G01 X-28.8863 Y-15.9486
G01 X-29.0286 Y-15.8063
G01 X-29.1960 Y-15.6944
G01 X-29.3819 Y-15.6174
G01 X-29.5794 Y-15.5781
G01 X-29.7806 Y-15.5781
G01 X-29.9781 Y-15.6174
G01 X-30.1640 Y-15.6944
G01 X-30.3314 Y-15.8063
G01 X-30.4737 Y-15.9486
G01 X-30.5856 Y-16.1160
G01 X-30.6626 Y-16.3019
G01 X-30.7019 Y-16.4994
G01 X-30.7019 Y-16.7006
G01 X-30.6626 Y-16.8981
G01 X-30.5856 Y-17.0840
G01 X-30.4737 Y-17.2514
G00 X-30.4737 Y-17.2514
G01 F60.00
G01 Z-0.1000
G01 F120.00
G01 X-30.4071 Y-17.3250
G01 X-30.4071 Y-19.4750
G01 X-30.4806 Y-19.5574
G01 X-30.5801 Y-19.7063
G01 X-30.6286 Y-19.8071
G01 X-30.6656 Y-19.9127
G01 X-30.7005 Y-20.0883
G01 X-30.7068 Y-20.2000
G01 X-30.7005 Y-20.3117
G01 X-30.6656 Y-20.4873
G01 X-30.6286 Y-20.5929
G01 X-30.5856 Y-20.6840
G01 X-30.4737 Y-20.8514
G01 X-30.3314 Y-20.9937
G01 X-30.1640 Y-21.1056
G01 X-29.9781 Y-21.1826
G01 X-29.7806 Y-21.2219
G01 X-29.5794 Y-21.2219
G01 X-29.3927 Y-21.1856
G01 X-29.2769 Y-21.1441
G01 X-29.1095 Y-21.0538
G01 X-29.0202 Y-20.9865
G01 X-28.8863 Y-20.8514
G01 X-28.8203 Y-20.7611
G01 X-28.7314 Y-20.5929
G01 X-28.6944 Y-20.4873
G01 X-28.6581 Y-20.3006
G01 X-28.6581 Y-20.0994
G01 X-28.6729 Y-19.9997
G01 X-28.7009 Y-19.8914
G01 X-28.7359 Y-19.7969
G01 X-28.8203 Y-19.6389
G01 X-28.8863 Y-19.5486
G01 X-28.9529 Y-19.4750
G01 X-28.9529 Y-17.3250
G01 X-28.8262 Y-17.1705
G01 X-28.7314 Y-16.9929
G01 X-28.6729 Y-16.8003
G01 X-28.6532 Y-16.6000
G01 X-28.6729 Y-16.3997
G01 X-28.7274 Y-16.2174
G01 X-28.7799 Y-16.1063
G01 X-28.8863 Y-15.9486
G01 X-29.0286 Y-15.8063
G01 X-29.1960 Y-15.6944
G01 X-29.3819 Y-15.6174
G01 X-29.5794 Y-15.5781
G01 X-29.7806 Y-15.5781
G01 X-29.9781 Y-15.6174
G01 X-30.1640 Y-15.6944
G01 X-30.3314 Y-15.8063
G01 X-30.4737 Y-15.9486
G01 X-30.5856 Y-16.1160
G01 X-30.6626 Y-16.3019
G01 X-30.7019 Y-16.4994
G01 X-30.7019 Y-16.7006
G01 X-30.6626 Y-16.8981
G01 X-30.5856 Y-17.0840
G01 X-30.4737 Y-17.2514
G00 Z2.0000
G00 X-33.0137 Y-17.2514
G01 F60.00
G01 Z-0.0250
G01 F120.00
G01 X-32.9471 Y-17.3250
G01 X-32.9471 Y-20.1188
G01 X-33.1012 Y-20.2729
G01 X-41.0988 Y-20.2729
G01 X-41.4729 Y-19.8988
G01 X-41.4729 Y-8.0012
G01 X-37.0988 Y-3.6271
G01 X-26.3012 Y-3.6271
G01 X-25.9268 Y-4.0014
G01 X-25.9268 Y-7.9260
G01 X-25.9204 Y-7.9795
G01 X-25.8943 Y-8.0683
G01 X-25.8708 Y-8.1168
G01 X-25.8365 Y-8.1583
G01 X-25.7749 Y-8.2120
G01 X-25.7005 Y-8.2550
G01 X-25.5772 Y-8.2765
G01 X-25.5772 Y-8.6660
G01 X-25.6071 Y-8.7797
G01 X-25.6219 Y-8.8794
G01 X-25.6227 Y-9.0695
G01 X-25.6071 Y-9.1803
G01 X-25.5826 Y-9.2781
G01 X-25.5056 Y-9.4640
G01 X-25.3937 Y-9.6314
G01 X-25.3261 Y-9.7061
G01 X-25.2426 Y-9.7806
G01 X-25.0937 Y-9.8801
G01 X-25.0031 Y-9.9241
G01 X-24.8981 Y-9.9626
G01 X-24.8003 Y-9.9871
G01 X-24.6111 Y-10.0065
G01 X-24.4994 Y-10.0019
G01 X-24.3127 Y-9.9656
G01 X-24.2071 Y-9.9286
G01 X-24.1063 Y-9.8801
G01 X-23.9486 Y-9.7737
G01 X-23.8663 Y-9.6980
G01 X-23.7527 Y-9.5596
G01 X-23.6944 Y-9.4640
G01 X-23.6474 Y-9.3626
G01 X-23.5954 Y-9.1912
G01 X-23.5781 Y-9.0806
G01 X-23.5781 Y-8.8794
G01 X-23.5929 Y-8.7797
G01 X-23.6228 Y-8.6660
G01 X-23.6228 Y-8.3233
G01 X-17.1041 Y-8.3258
G01 X-16.9633 Y-8.2863
G01 X-16.8897 Y-8.2326
G01 X-16.8328 Y-8.1665
G01 X-16.8047 Y-8.1206
G01 X-16.7883 Y-8.0693
G01 X-16.7744 Y-7.9669
G01 X-16.7833 Y-7.8922
G01 X-16.8330 Y-7.7799
G01 X-17.0236 Y-7.5451
G01 X-17.0558 Y-7.4868
G01 X-16.9904 Y-7.4868
G01 X-16.9041 Y-7.6081
G01 X-16.8183 Y-7.7016
G01 X-16.6568 Y-7.8341
G01 X-16.5484 Y-7.9000
G01 X-16.4438 Y-7.9495
G01 X-16.3241 Y-7.9915
G01 X-16.1191 Y-8.0323
G01 X-15.9925 Y-8.0393
G01 X-15.7930 Y-8.0344
G01 X-15.6674 Y-8.0166
G01 X-15.5446 Y-7.9850
G01 X-15.3515 Y-7.9051
G01 X-15.2332 Y-7.8341
G01 X-15.0717 Y-7.7016
G01 X-14.9859 Y-7.6081
G01 X-14.8996 Y-7.4868
G01 X-14.8329 Y-7.4868
G01 X-14.8980 Y-7.5905
G01 X-14.9406 Y-7.7078
G01 X-14.9443 Y-7.7829
G01 X-14.9202 Y-7.8945
G01 X-14.8858 Y-7.9614
G01 X-14.7964 Y-8.0524
G01 X-14.7334 Y-8.0884
G01 X-14.6404 Y-8.1134
G01 X-11.9481 Y-8.1183
G01 X-11.7944 Y-8.1307
G01 X-11.5941 Y-8.1799
G01 X-11.3472 Y-8.2917
G01 X-11.2393 Y-8.3228
G01 X-10.6939 Y-8.3268
G01 X-8.4934 Y-10.5272
G01 X-8.4456 Y-10.5622
G01 X-8.3317 Y-10.6166
G01 X-8.2478 Y-10.6268
G01 X-1.6237 Y-10.6265
G01 X-1.4821 Y-10.5906
G01 X-1.4438 Y-10.5708
G01 X-1.4022 Y-10.5365
G01 X-1.3171 Y-10.4279
G01 X-1.2995 Y-10.3801
G01 X-1.2818 Y-10.2801
G01 X-1.2817 Y-2.0533
G01 X-1.2968 Y-1.8605
G01 X-1.3114 Y-1.8023
G01 X-1.3604 Y-1.6763
G01 X-1.4196 Y-1.5796
G01 X-1.4654 Y-1.5231
G01 X-1.5642 Y-1.4309
G01 X-1.6595 Y-1.3694
G01 X-1.7193 Y-1.3406
G01 X-1.8268 Y-1.3044
G01 X-1.9348 Y-1.2876
G01 X-2.0379 Y-1.2817
G01 X-25.5794 Y-1.2818
G01 X-25.7112 Y-1.3125
G01 X-25.7737 Y-1.3438
G01 X-25.8637 Y-1.4380
G01 X-25.9005 Y-1.5014
G01 X-25.9267 Y-1.6284
G01 X-25.9268 Y-2.1767
G01 X-37.4000 Y-2.1729
G01 X-37.5527 Y-2.1894
G01 X-37.6216 Y-2.2077
G01 X-37.7328 Y-2.2538
G01 X-37.8130 Y-2.3019
G01 X-37.9141 Y-2.3859
G01 X-42.7141 Y-7.1859
G01 X-42.8105 Y-7.3055
G01 X-42.8672 Y-7.4116
G01 X-42.8957 Y-7.4889
G01 X-42.9150 Y-7.5691
G01 X-42.9271 Y-7.7000
G01 X-42.9271 Y-20.2000
G01 X-42.9222 Y-20.2823
G01 X-42.8957 Y-20.4111
G01 X-42.8412 Y-20.5427
G01 X-42.7547 Y-20.6697
G01 X-41.9060 Y-21.5218
G01 X-41.8130 Y-21.5981
G01 X-41.7328 Y-21.6462
G01 X-41.6111 Y-21.6957
G01 X-41.4823 Y-21.7222
G01 X-32.8000 Y-21.7271
G01 X-32.7177 Y-21.7222
G01 X-32.5889 Y-21.6957
G01 X-32.4573 Y-21.6412
G01 X-32.3303 Y-21.5547
G01 X-31.7020 Y-20.9301
G01 X-31.6219 Y-20.8330
G01 X-31.5788 Y-20.7627
G01 X-31.5443 Y-20.6878
G01 X-31.5069 Y-20.5618
G01 X-31.4929 Y-20.4200
G01 X-31.4929 Y-17.3250
G01 X-31.3662 Y-17.1705
G01 X-31.2714 Y-16.9929
G01 X-31.2129 Y-16.8003
G01 X-31.1932 Y-16.6000
G01 X-31.2129 Y-16.3997
G01 X-31.2674 Y-16.2174
G01 X-31.3199 Y-16.1063
G01 X-31.4263 Y-15.9486
G01 X-31.5686 Y-15.8063
G01 X-31.7360 Y-15.6944
G01 X-31.9219 Y-15.6174
G01 X-32.1194 Y-15.5781
G01 X-32.3206 Y-15.5781
G01 X-32.5181 Y-15.6174
G01 X-32.7040 Y-15.6944
G01 X-32.8714 Y-15.8063
G01 X-33.0137 Y-15.9486
G01 X-33.1256 Y-16.1160
G01 X-33.2026 Y-16.3019
G01 X-33.2419 Y-16.4994
G01 X-33.2419 Y-16.7006
G01 X-33.2026 Y-16.8981
G01 X-33.1256 Y-17.0840
G01 X-33.0137 Y-17.2514
G00 X-33.0137 Y-17.2514
G01 F60.00
G01 Z-0.0500
G01 F120.00
G01 X-32.9471 Y-17.3250
G01 X-32.9471 Y-20.1188
G01 X-33.1012 Y-20.2729
G01 X-41.0988 Y-20.2729
G01 X-41.4729 Y-19.8988
G01 X-41.4729 Y-8.0012
G01 X-37.0988 Y-3.6271
G01 X-26.3012 Y-3.6271
G01 X-25.9268 Y-4.0014
G01 X-25.9268 Y-7.9260
G01 X-25.9204 Y-7.9795
G01 X-25.8943 Y-8.0683
G01 X-25.8708 Y-8.1168
G01 X-25.8365 Y-8.1583
G01 X-25.7749 Y-8.2120
G01 X-25.7005 Y-8.2550
G01 X-25.5772 Y-8.2765
G01 X-25.5772 Y-8.6660
G01 X-25.6071 Y-8.7797
G01 X-25.6219 Y-8.8794
G01 X-25.6227 Y-9.0695
G01 X-25.6071 Y-9.1803
G01 X-25.5826 Y-9.2781
G01 X-25.5056 Y-9.4640
G01 X-25.3937 Y-9.6314
G01 X-25.3261 Y-9.7061
G01 X-25.2426 Y-9.7806
G01 X-25.0937 Y-9.8801
G01 X-25.0031 Y-9.9241
G01 X-24.8981 Y-9.9626
G01 X-24.8003 Y-9.9871
G01 X-24.6111 Y-10.0065
G01 X-24.4994 Y-10.0019
G01 X-24.3127 Y-9.9656
G01 X-24.2071 Y-9.9286
G01 X-24.1063 Y-9.8801
G01 X-23.9486 Y-9.7737
G01 X-23.8663 Y-9.6980
G01 X-23.7527 Y-9.5596
G01 X-23.6944 Y-9.4640
G01 X-23.6474 Y-9.3626
G01 X-23.5954 Y-9.1912
G01 X-23.5781 Y-9.0806
G01 X-23.5781 Y-8.8794
G01 X-23.5929 Y-8.7797
G01 X-23.6228 Y-8.6660
G01 X-23.6228 Y-8.3233
G01 X-17.1041 Y-8.3258
G01 X-16.9633 Y-8.2863
G01 X-16.8897 Y-8.2326
G01 X-16.8328 Y-8.1665
G01 X-16.8047 Y-8.1206
G01 X-16.7883 Y-8.0693
G01 X-16.7744 Y-7.9669
G01 X-16.7833 Y-7.8922
G01 X-16.8330 Y-7.7799
G01 X-17.0236 Y-7.5451
G01 X-17.0558 Y-7.4868
G01 X-16.9904 Y-7.4868
G01 X-16.9041 Y-7.6081
G01 X-16.8183 Y-7.7016
G01 X-16.6568 Y-7.8341
G01 X-16.5484 Y-7.9000
G01 X-16.4438 Y-7.9495
G01 X-16.3241 Y-7.9915
G01 X-16.1191 Y-8.0323
G01 X-15.9925 Y-8.0393
G01 X-15.7930 Y-8.0344
G01 X-15.6674 Y-8.0166
G01 X-15.5446 Y-7.9850
G01 X-15.3515 Y-7.9051
G01 X-15.2332 Y-7.8341
G01 X-15.0717 Y-7.7016
G01 X-14.9859 Y-7.6081
G01 X-14.8996 Y-7.4868
G01 X-14.8329 Y-7.4868
G01 X-14.8980 Y-7.5905
G01 X-14.9406 Y-7.7078
G01 X-14.9443 Y-7.7829
G01 X-14.9202 Y-7.8945
G01 X-14.8858 Y-7.9614
G01 X-14.7964 Y-8.0524
G01 X-14.7334 Y-8.0884
G01 X-14.6404 Y-8.1134
G01 X-11.9481 Y-8.1183
G01 X-11.7944 Y-8.1307
G01 X-11.5941 Y-8.1799
G01 X-11.3472 Y-8.2917
G01 X-11.2393 Y-8.3228
G01 X-10.6939 Y-8.3268
G01 X-8.4934 Y-10.5272
G01 X-8.4456 Y-10.5622
G01 X-8.3317 Y-10.6166
G01 X-8.2478 Y-10.6268
G01 X-1.6237 Y-10.6265
G01 X-1.4821 Y-10.5906
G01 X-1.4438 Y-10.5708
G01 X-1.4022 Y-10.5365
G01 X-1.3171 Y-10.4279
G01 X-1.2995 Y-10.3801
G01 X-1.2818 Y-10.2801
G01 X-1.2817 Y-2.0533
G01 X-1.2968 Y-1.8605
G01 X-1.3114 Y-1.8023
G01 X-1.3604 Y-1.6763
G01 X-1.4196 Y-1.5796
G01 X-1.4654 Y-1.5231
G01 X-1.5642 Y-1.4309
G01 X-1.6595 Y-1.3694
G01 X-1.7193 Y-1.3406
G01 X-1.8268 Y-1.3044
G01 X-1.9348 Y-1.2876
G01 X-2.0379 Y-1.2817
G01 X-25.5794 Y-1.2818
G01 X-25.7112 Y-1.3125
G01 X-25.7737 Y-1.3438
G01 X-25.8637 Y-1.4380
G01 X-25.9005 Y-1.5014
G01 X-25.9267 Y-1.6284
G01 X-25.9268 Y-2.1767
G01 X-37.4000 Y-2.1729
G01 X-37.5527 Y-2.1894
G01 X-37.6216 Y-2.2077
G01 X-37.7328 Y-2.2538
G01 X-37.8130 Y-2.3019
G01 X-37.9141 Y-2.3859
G01 X-42.7141 Y-7.1859
G01 X-42.8105 Y-7.3055
G01 X-42.8672 Y-7.4116
G01 X-42.8957 Y-7.4889
G01 X-42.9150 Y-7.5691
G01 X-42.9271 Y-7.7000
G01 X-42.9271 Y-20.2000
G01 X-42.9222 Y-20.2823
G01 X-42.8957 Y-20.4111
G01 X-42.8412 Y-20.5427
G01 X-42.7547 Y-20.6697
G01 X-41.9060 Y-21.5218
G01 X-41.8130 Y-21.5981
G01 X-41.7328 Y-21.6462
G01 X-41.6111 Y-21.6957
G01 X-41.4823 Y-21.7222
G01 X-32.8000 Y-21.7271
G01 X-32.7177 Y-21.7222
G01 X-32.5889 Y-21.6957
G01 X-32.4573 Y-21.6412
G01 X-32.3303 Y-21.5547
G01 X-31.7020 Y-20.9301
G01 X-31.6219 Y-20.8330
G01 X-31.5788 Y-20.7627
G01 X-31.5443 Y-20.6878
G01 X-31.5069 Y-20.5618
G01 X-31.4929 Y-20.4200
G01 X-31.4929 Y-17.3250
G01 X-31.3662 Y-17.1705
G01 X-31.2714 Y-16.9929
G01 X-31.2129 Y-16.8003
G01 X-31.1932 Y-16.6000
G01 X-31.2129 Y-16.3997
G01 X-31.2674 Y-16.2174
G01 X-31.3199 Y-16.1063
G01 X-31.4263 Y-15.9486
G01 X-31.5686 Y-15.8063
G01 X-31.7360 Y-15.6944
G01 X-31.9219 Y-15.6174
G01 X-32.1194 Y-15.5781
G01 X-32.3206 Y-15.5781
G01 X-32.5181 Y-15.6174
G01 X-32.7040 Y-15.6944
G01 X-32.8714 Y-15.8063
G01 X-33.0137 Y-15.9486
G01 X-33.1256 Y-16.1160
G01 X-33.2026 Y-16.3019
G01 X-33.2419 Y-16.4994
G01 X-33.2419 Y-16.7006
G01 X-33.2026 Y-16.8981
G01 X-33.1256 Y-17.0840
G01 X-33.0137 Y-17.2514
G00 X-33.0137 Y-17.2514
G01 F60.00
G01 Z-0.0750
G01 F120.00
G01 X-32.9471 Y-17.3250
G01 X-32.9471 Y-20.1188
G01 X-33.1012 Y-20.2729
G01 X-41.0988 Y-20.2729
G01 X-41.4729 Y-19.8988
G01 X-41.4729 Y-8.0012
G01 X-37.0988 Y-3.6271
G01 X-26.3012 Y-3.6271
G01 X-25.9268 Y-4.0014
G01 X-25.9268 Y-7.9260
G01 X-25.9204 Y-7.9795
G01 X-25.8943 Y-8.0683
G01 X-25.8708 Y-8.1168
G01 X-25.8365 Y-8.1583
G01 X-25.7749 Y-8.2120
G01 X-25.7005 Y-8.2550
G01 X-25.5772 Y-8.2765
G01 X-25.5772 Y-8.6660
G01 X-25.6071 Y-8.7797
G01 X-25.6219 Y-8.8794
G01 X-25.6227 Y-9.0695
G01 X-25.6071 Y-9.1803
G01 X-25.5826 Y-9.2781
G01 X-25.5056 Y-9.4640
G01 X-25.3937 Y-9.6314
G01 X-25.3261 Y-9.7061
G01 X-25.2426 Y-9.7806
G01 X-25.0937 Y-9.8801
G01 X-25.0031 Y-9.9241
G01 X-24.8981 Y-9.9626
G01 X-24.8003 Y-9.9871
G01 X-24.6111 Y-10.0065
G01 X-24.4994 Y-10.0019
G01 X-24.3127 Y-9.9656
G01 X-24.2071 Y-9.9286
G01 X-24.1063 Y-9.8801
G01 X-23.9486 Y-9.7737
G01 X-23.8663 Y-9.6980
G01 X-23.7527 Y-9.5596
G01 X-23.6944 Y-9.4640
G01 X-23.6474 Y-9.3626
G01 X-23.5954 Y-9.1912
G01 X-23.5781 Y-9.0806
G01 X-23.5781 Y-8.8794
G01 X-23.5929 Y-8.7797
G01 X-23.6228 Y-8.6660
G01 X-23.6228 Y-8.3233
G01 X-17.1041 Y-8.3258
G01 X-16.9633 Y-8.2863
G01 X-16.8897 Y-8.2326
G01 X-16.8328 Y-8.1665
G01 X-16.8047 Y-8.1206
G01 X-16.7883 Y-8.0693
G01 X-16.7744 Y-7.9669
G01 X-16.7833 Y-7.8922
G01 X-16.8330 Y-7.7799
G01 X-17.0236 Y-7.5451
G01 X-17.0558 Y-7.4868
G01 X-16.9904 Y-7.4868
G01 X-16.9041 Y-7.6081
G01 X-16.8183 Y-7.7016
G01 X-16.6568 Y-7.8341
G01 X-16.5484 Y-7.9000
G01 X-16.4438 Y-7.9495
G01 X-16.3241 Y-7.9915
G01 X-16.1191 Y-8.0323
G01 X-15.9925 Y-8.0393
G01 X-15.7930 Y-8.0344
G01 X-15.6674 Y-8.0166
G01 X-15.5446 Y-7.9850
G01 X-15.3515 Y-7.9051
G01 X-15.2332 Y-7.8341
G01 X-15.0717 Y-7.7016
G01 X-14.9859 Y-7.6081
G01 X-14.8996 Y-7.4868
G01 X-14.8329 Y-7.4868
G01 X-14.8980 Y-7.5905
G01 X-14.9406 Y-7.7078
G01 X-14.9443 Y-7.7829
G01 X-14.9202 Y-7.8945
G01 X-14.8858 Y-7.9614
G01 X-14.7964 Y-8.0524
G01 X-14.7334 Y-8.0884
G01 X-14.6404 Y-8.1134
G01 X-11.9481 Y-8.1183
G01 X-11.7944 Y-8.1307
G01 X-11.5941 Y-8.1799
G01 X-11.3472 Y-8.2917
G01 X-11.2393 Y-8.3228
G01 X-10.6939 Y-8.3268
G01 X-8.4934 Y-10.5272
G01 X-8.4456 Y-10.5622
G01 X-8.3317 Y-10.6166
G01 X-8.2478 Y-10.6268
G01 X-1.6237 Y-10.6265
G01 X-1.4821 Y-10.5906
G01 X-1.4438 Y-10.5708
G01 X-1.4022 Y-10.5365
G01 X-1.3171 Y-10.4279
G01 X-1.2995 Y-10.3801
G01 X-1.2818 Y-10.2801
G01 X-1.2817 Y-2.0533
G01 X-1.2968 Y-1.8605
G01 X-1.3114 Y-1.8023
G01 X-1.3604 Y-1.6763
G01 X-1.4196 Y-1.5796
G01 X-1.4654 Y-1.5231
G01 X-1.5642 Y-1.4309
G01 X-1.6595 Y-1.3694
G01 X-1.7193 Y-1.3406
G01 X-1.8268 Y-1.3044
G01 X-1.9348 Y-1.2876
G01 X-2.0379 Y-1.2817
G01 X-25.5794 Y-1.2818
G01 X-25.7112 Y-1.3125
G01 X-25.7737 Y-1.3438
G01 X-25.8637 Y-1.4380
G01 X-25.9005 Y-1.5014
G01 X-25.9267 Y-1.6284
G01 X-25.9268 Y-2.1767
G01 X-37.4000 Y-2.1729
G01 X-37.5527 Y-2.1894
G01 X-37.6216 Y-2.2077
G01 X-37.7328 Y-2.2538
G01 X-37.8130 Y-2.3019
G01 X-37.9141 Y-2.3859
G01 X-42.7141 Y-7.1859
G01 X-42.8105 Y-7.3055
G01 X-42.8672 Y-7.4116
G01 X-42.8957 Y-7.4889
G01 X-42.9150 Y-7.5691
G01 X-42.9271 Y-7.7000
G01 X-42.9271 Y-20.2000
G01 X-42.9222 Y-20.2823
G01 X-42.8957 Y-20.4111
G01 X-42.8412 Y-20.5427
G01 X-42.7547 Y-20.6697
G01 X-41.9060 Y-21.5218
G01 X-41.8130 Y-21.5981
G01 X-41.7328 Y-21.6462
G01 X-41.6111 Y-21.6957
G01 X-41.4823 Y-21.7222
G01 X-32.8000 Y-21.7271
G01 X-32.7177 Y-21.7222
G01 X-32.5889 Y-21.6957
G01 X-32.4573 Y-21.6412
G01 X-32.3303 Y-21.5547
G01 X-31.7020 Y-20.9301
G01 X-31.6219 Y-20.8330
G01 X-31.5788 Y-20.7627
G01 X-31.5443 Y-20.6878
G01 X-31.5069 Y-20.5618
G01 X-31.4929 Y-20.4200
G01 X-31.4929 Y-17.3250
G01 X-31.3662 Y-17.1705
G01 X-31.2714 Y-16.9929
G01 X-31.2129 Y-16.8003
G01 X-31.1932 Y-16.6000
G01 X-31.2129 Y-16.3997
G01 X-31.2674 Y-16.2174
G01 X-31.3199 Y-16.1063
G01 X-31.4263 Y-15.9486
G01 X-31.5686 Y-15.8063
G01 X-31.7360 Y-15.6944
G01 X-31.9219 Y-15.6174
G01 X-32.1194 Y-15.5781
G01 X-32.3206 Y-15.5781
G01 X-32.5181 Y-15.6174
G01 X-32.7040 Y-15.6944
G01 X-32.8714 Y-15.8063
G01 X-33.0137 Y-15.9486
G01 X-33.1256 Y-16.1160
G01 X-33.2026 Y-16.3019
G01 X-33.2419 Y-16.4994
G01 X-33.2419 Y-16.7006
G01 X-33.2026 Y-16.8981
