(G-CODE GENERATED BY FLATCAM vUnstable - www.flatcam.org - Version Date: 2021/2/7)

(Name: electronic_flasher_relay-B_Cu.gbr_iso_combined_ncc_cnc)
(Type: G-code from Geometry)
(Units: MM)

(Created on Thursday, 21 July 2022 at 09:48)

(This preprocessor is the default preprocessor used by FlatCAM.)
(It is made to work with MACH3 compatible motion controllers.)

(TOOL DIAMETER: 2.4 mm)
(Feedrate_XY: 120.0 mm/min)
(Feedrate_Z: 60.0 mm/min)
(Feedrate rapids 1500.0 mm/min)

(Z_Cut: -0.1 mm)
(DepthPerCut: 0.025 mm <=>4 passes)
(Z_Move: 2.0 mm)
(Z Start: None mm)
(Z End: 15.0 mm)
(X,Y End: 0.0000, 0.0000 mm)
(Steps per circle: 16)
(Preprocessor Geometry: default)

(X range:  -43.7271 ...   -0.4817  mm)
(Y range:  -25.5183 ...   -0.4817  mm)

(Spindle Speed: 300.0 RPM)
G21
G90
G94

G01 F120.00
G00 Z2.0000

M03 S300.0
G01 F120.00
G00 X-16.5630 Y-8.1147
G01 F60.00
G01 Z-0.0250
G01 F120.00
G01 X-16.5973 Y-8.1310
G01 X-16.5909 Y-8.1015
G01 X-16.5630 Y-8.1147
G00 X-16.5630 Y-8.1147
G01 F60.00
G01 Z-0.0500
G01 F120.00
G01 X-16.5909 Y-8.1015
G01 X-16.5973 Y-8.1310
G01 X-16.5630 Y-8.1147
G00 X-16.5630 Y-8.1147
G01 F60.00
G01 Z-0.0750
G01 F120.00
G01 X-16.5973 Y-8.1310
G01 X-16.5909 Y-8.1015
G01 X-16.5630 Y-8.1147
G00 X-16.5630 Y-8.1147
G01 F60.00
G01 Z-0.1000
G01 F120.00
G01 X-16.5909 Y-8.1015
G01 X-16.5973 Y-8.1310
G01 X-16.5630 Y-8.1147
G00 Z2.0000
G00 X-14.6268 Y-13.1768
G01 F60.00
G01 Z-0.0250
G01 F120.00
G01 X-14.6267 Y-16.5333
G01 X-14.6181 Y-16.6109
G01 X-14.5834 Y-16.7329
G01 X-14.7560 Y-16.7329
G01 X-15.0179 Y-16.4710
G01 X-15.0179 Y-13.3193
G01 X-14.8921 Y-13.3159
G01 X-14.8012 Y-13.2944
G01 X-14.6988 Y-13.2410
G01 X-14.6268 Y-13.1768
G00 X-14.6268 Y-13.1768
G01 F60.00
G01 Z-0.0500
G01 F120.00
G01 X-14.6988 Y-13.2410
G01 X-14.8012 Y-13.2944
G01 X-14.8921 Y-13.3159
G01 X-15.0179 Y-13.3193
G01 X-15.0179 Y-16.4710
G01 X-14.7560 Y-16.7329
G01 X-14.5834 Y-16.7329
G01 X-14.6181 Y-16.6109
G01 X-14.6267 Y-16.5333
G01 X-14.6268 Y-13.1768
G00 X-14.6268 Y-13.1768
G01 F60.00
G01 Z-0.0750
G01 F120.00
G01 X-14.6267 Y-16.5333
G01 X-14.6181 Y-16.6109
G01 X-14.5834 Y-16.7329
G01 X-14.7560 Y-16.7329
G01 X-15.0179 Y-16.4710
G01 X-15.0179 Y-13.3193
G01 X-14.8921 Y-13.3159
G01 X-14.8012 Y-13.2944
G01 X-14.6988 Y-13.2410
G01 X-14.6268 Y-13.1768
G00 X-14.6268 Y-13.1768
G01 F60.00
G01 Z-0.1000
G01 F120.00
G01 X-14.6988 Y-13.2410
G01 X-14.8012 Y-13.2944
G01 X-14.8921 Y-13.3159
G01 X-15.0179 Y-13.3193
G01 X-15.0179 Y-16.4710
G01 X-14.7560 Y-16.7329
G01 X-14.5834 Y-16.7329
G01 X-14.6181 Y-16.6109
G01 X-14.6267 Y-16.5333
G01 X-14.6268 Y-13.1768
G00 Z2.0000
G00 X-11.0497 Y-18.8366
G01 F60.00
G01 Z-0.0250
G01 F120.00
G01 X-11.0569 Y-18.8773
G01 X-11.0600 Y-18.9152
G01 X-11.0699 Y-18.8366
G01 X-11.0497 Y-18.8366
G00 X-11.0497 Y-18.8366
G01 F60.00
G01 Z-0.0500
G01 F120.00
G01 X-11.0699 Y-18.8366
G01 X-11.0600 Y-18.9152
G01 X-11.0569 Y-18.8773
G01 X-11.0497 Y-18.8366
G00 X-11.0497 Y-18.8366
G01 F60.00
G01 Z-0.0750
G01 F120.00
G01 X-11.0569 Y-18.8773
G01 X-11.0600 Y-18.9152
G01 X-11.0699 Y-18.8366
G01 X-11.0497 Y-18.8366
G00 X-11.0497 Y-18.8366
G01 F60.00
G01 Z-0.1000
G01 F120.00
G01 X-11.0699 Y-18.8366
G01 X-11.0600 Y-18.9152
G01 X-11.0569 Y-18.8773
G01 X-11.0497 Y-18.8366
G00 Z2.0000
G00 X-11.0600 Y-18.9448
G01 F60.00
G01 Z-0.0250
G01 F120.00
G01 X-11.0501 Y-19.0234
G01 X-11.0703 Y-19.0234
G01 X-11.0631 Y-18.9827
G01 X-11.0600 Y-18.9448
G00 X-11.0600 Y-18.9448
G01 F60.00
G01 Z-0.0500
G01 F120.00
G01 X-11.0631 Y-18.9827
G01 X-11.0703 Y-19.0234
G01 X-11.0501 Y-19.0234
G01 X-11.0600 Y-18.9448
G00 X-11.0600 Y-18.9448
G01 F60.00
G01 Z-0.0750
G01 F120.00
G01 X-11.0501 Y-19.0234
G01 X-11.0703 Y-19.0234
G01 X-11.0631 Y-18.9827
G01 X-11.0600 Y-18.9448
G00 X-11.0600 Y-18.9448
G01 F60.00
G01 Z-0.1000
G01 F120.00
G01 X-11.0631 Y-18.9827
G01 X-11.0703 Y-19.0234
G01 X-11.0501 Y-19.0234
G01 X-11.0600 Y-18.9448
G00 Z2.0000
G00 X-10.8473 Y-21.3572
G01 F60.00
G01 Z-0.0250
G01 F120.00
G01 X-10.8402 Y-21.4593
G01 X-10.8060 Y-21.5632
G01 X-11.3106 Y-21.5632
G01 X-11.2886 Y-21.4863
G01 X-11.2718 Y-21.3573
G01 X-11.1705 Y-21.3716
G01 X-11.0551 Y-21.3767
G01 X-10.8473 Y-21.3572
G00 X-10.8473 Y-21.3572
G01 F60.00
G01 Z-0.0500
G01 F120.00
G01 X-11.0551 Y-21.3767
G01 X-11.1705 Y-21.3716
G01 X-11.2718 Y-21.3573
G01 X-11.2886 Y-21.4863
G01 X-11.3106 Y-21.5632
G01 X-10.8060 Y-21.5632
G01 X-10.8402 Y-21.4593
G01 X-10.8473 Y-21.3572
G00 X-10.8473 Y-21.3572
G01 F60.00
G01 Z-0.0750
G01 F120.00
G01 X-10.8402 Y-21.4593
G01 X-10.8060 Y-21.5632
G01 X-11.3106 Y-21.5632
G01 X-11.2886 Y-21.4863
G01 X-11.2718 Y-21.3573
G01 X-11.1705 Y-21.3716
G01 X-11.0551 Y-21.3767
G01 X-10.8473 Y-21.3572
G00 X-10.8473 Y-21.3572
G01 F60.00
G01 Z-0.1000
G01 F120.00
G01 X-11.0551 Y-21.3767
G01 X-11.1705 Y-21.3716
G01 X-11.2718 Y-21.3573
G01 X-11.2886 Y-21.4863
G01 X-11.3106 Y-21.5632
G01 X-10.8060 Y-21.5632
G01 X-10.8402 Y-21.4593
G01 X-10.8473 Y-21.3572
G00 Z2.0000
G00 X-25.9954 Y-16.1603
G01 F60.00
G01 Z-0.0250
G01 F120.00
G01 X-25.9119 Y-16.1537
G01 X-25.8268 Y-16.1290
G01 X-25.8268 Y-16.9978
G01 X-25.8967 Y-16.9760
G01 X-25.9694 Y-16.9665
G01 X-25.9378 Y-16.8441
G01 X-25.9217 Y-16.7410
G01 X-25.9135 Y-16.5840
G01 X-25.9196 Y-16.4749
G01 X-25.9359 Y-16.3655
G01 X-25.9954 Y-16.1603
G00 X-25.9954 Y-16.1603
G01 F60.00
G01 Z-0.0500
G01 F120.00
G01 X-25.9359 Y-16.3655
G01 X-25.9196 Y-16.4749
G01 X-25.9135 Y-16.5840
G01 X-25.9217 Y-16.7410
G01 X-25.9378 Y-16.8441
G01 X-25.9694 Y-16.9665
G01 X-25.8967 Y-16.9760
G01 X-25.8268 Y-16.9978
G01 X-25.8268 Y-16.1290
G01 X-25.9119 Y-16.1537
G01 X-25.9954 Y-16.1603
G00 X-25.9954 Y-16.1603
G01 F60.00
G01 Z-0.0750
G01 F120.00
G01 X-25.9119 Y-16.1537
G01 X-25.8268 Y-16.1290
G01 X-25.8268 Y-16.9978
G01 X-25.8967 Y-16.9760
G01 X-25.9694 Y-16.9665
G01 X-25.9378 Y-16.8441
G01 X-25.9217 Y-16.7410
G01 X-25.9135 Y-16.5840
G01 X-25.9196 Y-16.4749
G01 X-25.9359 Y-16.3655
G01 X-25.9954 Y-16.1603
G00 X-25.9954 Y-16.1603
G01 F60.00
G01 Z-0.1000
G01 F120.00
G01 X-25.9359 Y-16.3655
G01 X-25.9196 Y-16.4749
G01 X-25.9135 Y-16.5840
G01 X-25.9217 Y-16.7410
G01 X-25.9378 Y-16.8441
G01 X-25.9694 Y-16.9665
G01 X-25.8967 Y-16.9760
G01 X-25.8268 Y-16.9978
G01 X-25.8268 Y-16.1290
G01 X-25.9119 Y-16.1537
G01 X-25.9954 Y-16.1603
G00 Z2.0000
G00 X-28.3608 Y-16.7210
G01 F60.00
G01 Z-0.0250
G01 F120.00
G01 X-28.4592 Y-16.7208
G01 X-28.4533 Y-16.6049
G01 X-28.4587 Y-16.4846
G01 X-28.4759 Y-16.3655
G01 X-28.5004 Y-16.2641
G01 X-28.5551 Y-16.1114
G01 X-28.6004 Y-16.0174
G01 X-28.6627 Y-15.9144
G01 X-28.7981 Y-15.7477
G01 X-28.9056 Y-15.6486
G01 X-29.0835 Y-15.5284
G01 X-29.2151 Y-15.4648
G01 X-29.4202 Y-15.4014
G01 X-29.5806 Y-15.3776
G01 X-29.7954 Y-15.3787
G01 X-29.9145 Y-15.3959
G01 X-30.0159 Y-15.4204
G01 X-30.1686 Y-15.4751
G01 X-30.3575 Y-15.5773
G01 X-30.4544 Y-15.6486
G01 X-30.5323 Y-15.7181
G01 X-30.6382 Y-15.8343
G01 X-30.7027 Y-15.9225
G01 X-30.7596 Y-16.0174
G01 X-30.8115 Y-16.1260
G01 X-30.8474 Y-16.2240
G01 X-30.8868 Y-16.3813
G01 X-30.9013 Y-16.4846
G01 X-30.9067 Y-16.6049
G01 X-30.9013 Y-16.7154
G01 X-30.8841 Y-16.8345
G01 X-30.8553 Y-16.9514
G01 X-30.8192 Y-17.0545
G01 X-30.7642 Y-17.1740
G01 X-30.7113 Y-17.2639
G01 X-30.6071 Y-17.4025
G01 X-30.6071 Y-19.3975
G01 X-30.6973 Y-19.5144
G01 X-30.7714 Y-19.6404
G01 X-30.8490 Y-19.8286
G01 X-30.8866 Y-19.9800
G01 X-30.9715 Y-19.9510
G01 X-31.0698 Y-19.9404
G01 X-31.2058 Y-19.9544
G01 X-31.2929 Y-19.9785
G01 X-31.2929 Y-17.4025
G01 X-31.2027 Y-17.2856
G01 X-31.1404 Y-17.1826
G01 X-31.0848 Y-17.0649
G01 X-31.0404 Y-16.9359
G01 X-31.0017 Y-16.7410
G01 X-30.9935 Y-16.6160
G01 X-30.9996 Y-16.4749
G01 X-31.0214 Y-16.3402
G01 X-31.0790 Y-16.1501
G01 X-31.1404 Y-16.0174
G01 X-31.2588 Y-15.8382
G01 X-31.3560 Y-15.7291
G01 X-31.5213 Y-15.5920
G01 X-31.6460 Y-15.5158
G01 X-31.8440 Y-15.4326
G01 X-32.0013 Y-15.3932
G01 X-32.1046 Y-15.3787
G01 X-32.2249 Y-15.3733
G01 X-32.3451 Y-15.3796
G01 X-32.4641 Y-15.3978
G01 X-32.5714 Y-15.4247
G01 X-32.6849 Y-15.4648
G01 X-32.7940 Y-15.5158
G01 X-32.8881 Y-15.5713
G01 X-32.9944 Y-15.6486
G01 X-33.0840 Y-15.7291
G01 X-33.1652 Y-15.8180
G01 X-33.2280 Y-15.9013
G01 X-33.3114 Y-16.0404
G01 X-33.3552 Y-16.1351
G01 X-33.3996 Y-16.2641
G01 X-33.4383 Y-16.4590
G01 X-33.4463 Y-16.5791
G01 X-33.4413 Y-16.7154
G01 X-33.4222 Y-16.8441
G01 X-33.3874 Y-16.9760
G01 X-33.3092 Y-17.1640
G01 X-33.2373 Y-17.2856
G01 X-33.1471 Y-17.4025
G01 X-33.1471 Y-20.0360
G01 X-33.1840 Y-20.0729
G01 X-35.5541 Y-20.0729
G01 X-35.4360 Y-19.9709
G01 X-35.3388 Y-19.8618
G01 X-35.2259 Y-19.6923
G01 X-35.1590 Y-19.5499
G01 X-35.1014 Y-19.3598
G01 X-35.0787 Y-19.2154
G01 X-35.0776 Y-19.0006
G01 X-35.1002 Y-18.8450
G01 X-35.1590 Y-18.6501
G01 X-35.2204 Y-18.5174
G01 X-35.3388 Y-18.3382
G01 X-35.4360 Y-18.2291
G01 X-35.5382 Y-18.1388
G01 X-35.7174 Y-18.0204
G01 X-35.8501 Y-17.9590
G01 X-36.0559 Y-17.8978
G01 X-36.1846 Y-17.8787
G01 X-36.3209 Y-17.8737
G01 X-36.5187 Y-17.8932
G01 X-36.6359 Y-17.9204
G01 X-36.7649 Y-17.9648
G01 X-36.8826 Y-18.0204
G01 X-36.9856 Y-18.0827
G01 X-37.1025 Y-18.1729
G01 X-39.4754 Y-18.1729
G01 X-39.6053 Y-18.0691
G01 X-39.7077 Y-18.0059
G01 X-39.8260 Y-17.9485
G01 X-39.9286 Y-17.9110
G01 X-40.0559 Y-17.8778
G01 X-40.1749 Y-17.8596
G01 X-40.2951 Y-17.8533
G01 X-40.4154 Y-17.8587
G01 X-40.5441 Y-17.8778
G01 X-40.6608 Y-17.9075
G01 X-40.7740 Y-17.9485
G01 X-40.8826 Y-18.0004
G01 X-40.9856 Y-18.0627
G01 X-41.0820 Y-18.1348
G01 X-41.1709 Y-18.2160
G01 X-41.2729 Y-18.3341
G01 X-41.2729 Y-9.6659
G01 X-41.2271 Y-9.7225
G01 X-41.2268 Y-10.2129
G01 X-41.2101 Y-10.3760
G01 X-41.1583 Y-10.5502
G01 X-41.0735 Y-10.7109
G01 X-40.9611 Y-10.8498
G01 X-40.1462 Y-11.6645
G01 X-40.0109 Y-11.7735
G01 X-39.9327 Y-11.8198
G01 X-39.8352 Y-11.8640
G01 X-39.6760 Y-11.9101
G01 X-39.5080 Y-11.9270
G01 X-35.0271 Y-11.9239
G01 X-35.0270 Y-12.5025
G01 X-35.0200 Y-12.6117
G01 X-34.9927 Y-12.7489
G01 X-34.9623 Y-12.8398
G01 X-34.9198 Y-12.9327
G01 X-34.8680 Y-13.0191
G01 X-34.7572 Y-13.1538
G01 X-33.3498 Y-14.5611
G01 X-33.2109 Y-14.6735
G01 X-33.0502 Y-14.7583
G01 X-32.8857 Y-14.8082
G01 X-32.7080 Y-14.8270
G01 X-28.7923 Y-14.8271
G01 X-28.7404 Y-14.9219
G01 X-28.6680 Y-15.0134
G01 X-28.5917 Y-15.0831
G01 X-28.4983 Y-15.1445
G01 X-28.4145 Y-15.1828
G01 X-28.3022 Y-15.2147
G01 X-28.2204 Y-15.2251
G01 X-28.0671 Y-15.2268
G01 X-28.0671 Y-15.7975
G01 X-28.1573 Y-15.9144
G01 X-28.2196 Y-16.0174
G01 X-28.2715 Y-16.1260
G01 X-28.3125 Y-16.2392
G01 X-28.3422 Y-16.3559
G01 X-28.3604 Y-16.4749
G01 X-28.3667 Y-16.5951
G01 X-28.3608 Y-16.7210
G00 X-28.3608 Y-16.7210
G01 F60.00
G01 Z-0.0500
G01 F120.00
G01 X-28.3667 Y-16.5951
G01 X-28.3604 Y-16.4749
G01 X-28.3422 Y-16.3559
G01 X-28.3125 Y-16.2392
G01 X-28.2715 Y-16.1260
G01 X-28.2196 Y-16.0174
G01 X-28.1573 Y-15.9144
G01 X-28.0671 Y-15.7975
G01 X-28.0671 Y-15.2268
G01 X-28.2204 Y-15.2251
G01 X-28.3022 Y-15.2147
G01 X-28.4145 Y-15.1828
G01 X-28.4983 Y-15.1445
G01 X-28.5917 Y-15.0831
G01 X-28.6680 Y-15.0134
G01 X-28.7404 Y-14.9219
G01 X-28.7923 Y-14.8271
G01 X-32.7080 Y-14.8270
G01 X-32.8857 Y-14.8082
G01 X-33.0502 Y-14.7583
G01 X-33.2109 Y-14.6735
G01 X-33.3498 Y-14.5611
G01 X-34.7572 Y-13.1538
G01 X-34.8680 Y-13.0191
G01 X-34.9198 Y-12.9327
G01 X-34.9623 Y-12.8398
G01 X-34.9927 Y-12.7489
G01 X-35.0200 Y-12.6117
G01 X-35.0270 Y-12.5025
G01 X-35.0271 Y-11.9239
G01 X-39.5080 Y-11.9270
G01 X-39.6760 Y-11.9101
G01 X-39.8352 Y-11.8640
G01 X-39.9327 Y-11.8198
G01 X-40.0109 Y-11.7735
G01 X-40.1462 Y-11.6645
G01 X-40.9611 Y-10.8498
G01 X-41.0735 Y-10.7109
G01 X-41.1583 Y-10.5502
G01 X-41.2101 Y-10.3760
G01 X-41.2268 Y-10.2129
G01 X-41.2271 Y-9.7225
G01 X-41.2729 Y-9.6659
G01 X-41.2729 Y-18.3341
G01 X-41.1709 Y-18.2160
G01 X-41.0820 Y-18.1348
G01 X-40.9856 Y-18.0627
G01 X-40.8826 Y-18.0004
G01 X-40.7740 Y-17.9485
G01 X-40.6608 Y-17.9075
G01 X-40.5441 Y-17.8778
G01 X-40.4154 Y-17.8587
G01 X-40.2951 Y-17.8533
G01 X-40.1749 Y-17.8596
G01 X-40.0559 Y-17.8778
G01 X-39.9286 Y-17.9110
G01 X-39.8260 Y-17.9485
G01 X-39.7077 Y-18.0059
G01 X-39.6053 Y-18.0691
G01 X-39.4754 Y-18.1729
G01 X-37.1025 Y-18.1729
G01 X-36.9856 Y-18.0827
G01 X-36.8826 Y-18.0204
G01 X-36.7649 Y-17.9648
G01 X-36.6359 Y-17.9204
G01 X-36.5187 Y-17.8932
G01 X-36.3209 Y-17.8737
G01 X-36.1846 Y-17.8787
G01 X-36.0559 Y-17.8978
G01 X-35.8501 Y-17.9590
G01 X-35.7174 Y-18.0204
G01 X-35.5382 Y-18.1388
G01 X-35.4360 Y-18.2291
G01 X-35.3388 Y-18.3382
G01 X-35.2204 Y-18.5174
G01 X-35.1590 Y-18.6501
G01 X-35.1002 Y-18.8450
G01 X-35.0776 Y-19.0006
G01 X-35.0787 Y-19.2154
G01 X-35.1014 Y-19.3598
G01 X-35.1590 Y-19.5499
G01 X-35.2259 Y-19.6923
G01 X-35.3388 Y-19.8618
G01 X-35.4360 Y-19.9709
G01 X-35.5541 Y-20.0729
G01 X-33.1840 Y-20.0729
G01 X-33.1471 Y-20.0360
G01 X-33.1471 Y-17.4025
G01 X-33.2373 Y-17.2856
G01 X-33.3092 Y-17.1640
G01 X-33.3874 Y-16.9760
G01 X-33.4222 Y-16.8441
G01 X-33.4413 Y-16.7154
G01 X-33.4463 Y-16.5791
G01 X-33.4383 Y-16.4590
G01 X-33.3996 Y-16.2641
G01 X-33.3552 Y-16.1351
G01 X-33.3114 Y-16.0404
G01 X-33.2280 Y-15.9013
G01 X-33.1652 Y-15.8180
G01 X-33.0840 Y-15.7291
G01 X-32.9944 Y-15.6486
G01 X-32.8881 Y-15.5713
G01 X-32.7940 Y-15.5158
G01 X-32.6849 Y-15.4648
G01 X-32.5714 Y-15.4247
G01 X-32.4641 Y-15.3978
G01 X-32.3451 Y-15.3796
G01 X-32.2249 Y-15.3733
G01 X-32.1046 Y-15.3787
G01 X-32.0013 Y-15.3932
G01 X-31.8440 Y-15.4326
G01 X-31.6460 Y-15.5158
G01 X-31.5213 Y-15.5920
G01 X-31.3560 Y-15.7291
G01 X-31.2588 Y-15.8382
G01 X-31.1404 Y-16.0174
G01 X-31.0790 Y-16.1501
G01 X-31.0214 Y-16.3402
G01 X-30.9996 Y-16.4749
G01 X-30.9935 Y-16.6160
G01 X-31.0017 Y-16.7410
G01 X-31.0404 Y-16.9359
G01 X-31.0848 Y-17.0649
G01 X-31.1404 Y-17.1826
G01 X-31.2027 Y-17.2856
G01 X-31.2929 Y-17.4025
G01 X-31.2929 Y-19.9785
G01 X-31.2058 Y-19.9544
G01 X-31.0698 Y-19.9404
G01 X-30.9715 Y-19.9510
G01 X-30.8866 Y-19.9800
G01 X-30.8490 Y-19.8286
G01 X-30.7714 Y-19.6404
G01 X-30.6973 Y-19.5144
G01 X-30.6071 Y-19.3975
G01 X-30.6071 Y-17.4025
G01 X-30.7113 Y-17.2639
G01 X-30.7642 Y-17.1740
G01 X-30.8192 Y-17.0545
G01 X-30.8553 Y-16.9514
G01 X-30.8841 Y-16.8345
G01 X-30.9013 Y-16.7154
G01 X-30.9067 Y-16.6049
G01 X-30.9013 Y-16.4846
G01 X-30.8868 Y-16.3813
G01 X-30.8474 Y-16.2240
G01 X-30.8115 Y-16.1260
G01 X-30.7596 Y-16.0174
G01 X-30.7027 Y-15.9225
G01 X-30.6382 Y-15.8343
G01 X-30.5323 Y-15.7181
G01 X-30.4544 Y-15.6486
G01 X-30.3575 Y-15.5773
G01 X-30.1686 Y-15.4751
G01 X-30.0159 Y-15.4204
G01 X-29.9145 Y-15.3959
G01 X-29.7954 Y-15.3787
G01 X-29.5806 Y-15.3776
G01 X-29.4202 Y-15.4014
G01 X-29.2151 Y-15.4648
G01 X-29.0835 Y-15.5284
G01 X-28.9056 Y-15.6486
G01 X-28.7981 Y-15.7477
G01 X-28.6627 Y-15.9144
G01 X-28.6004 Y-16.0174
G01 X-28.5551 Y-16.1114
G01 X-28.5004 Y-16.2641
G01 X-28.4759 Y-16.3655
G01 X-28.4587 Y-16.4846
G01 X-28.4533 Y-16.6049
G01 X-28.4592 Y-16.7208
G01 X-28.3608 Y-16.7210
G00 X-28.3608 Y-16.7210
G01 F60.00
G01 Z-0.0750
G01 F120.00
G01 X-28.4592 Y-16.7208
G01 X-28.4533 Y-16.6049
G01 X-28.4587 Y-16.4846
G01 X-28.4759 Y-16.3655
G01 X-28.5004 Y-16.2641
G01 X-28.5551 Y-16.1114
G01 X-28.6004 Y-16.0174
G01 X-28.6627 Y-15.9144
G01 X-28.7981 Y-15.7477
G01 X-28.9056 Y-15.6486
G01 X-29.0835 Y-15.5284
G01 X-29.2151 Y-15.4648
G01 X-29.4202 Y-15.4014
G01 X-29.5806 Y-15.3776
G01 X-29.7954 Y-15.3787
G01 X-29.9145 Y-15.3959
G01 X-30.0159 Y-15.4204
G01 X-30.1686 Y-15.4751
G01 X-30.3575 Y-15.5773
G01 X-30.4544 Y-15.6486
G01 X-30.5323 Y-15.7181
G01 X-30.6382 Y-15.8343
G01 X-30.7027 Y-15.9225
G01 X-30.7596 Y-16.0174
G01 X-30.8115 Y-16.1260
G01 X-30.8474 Y-16.2240
G01 X-30.8868 Y-16.3813
G01 X-30.9013 Y-16.4846
G01 X-30.9067 Y-16.6049
G01 X-30.9013 Y-16.7154
G01 X-30.8841 Y-16.8345
G01 X-30.8553 Y-16.9514
G01 X-30.8192 Y-17.0545
G01 X-30.7642 Y-17.1740
G01 X-30.7113 Y-17.2639
G01 X-30.6071 Y-17.4025
G01 X-30.6071 Y-19.3975
G01 X-30.6973 Y-19.5144
G01 X-30.7714 Y-19.6404
G01 X-30.8490 Y-19.8286
G01 X-30.8866 Y-19.9800
G01 X-30.9715 Y-19.9510
G01 X-31.0698 Y-19.9404
G01 X-31.2058 Y-19.9544
G01 X-31.2929 Y-19.9785
G01 X-31.2929 Y-17.4025
G01 X-31.2027 Y-17.2856
G01 X-31.1404 Y-17.1826
G01 X-31.0848 Y-17.0649
G01 X-31.0404 Y-16.9359
G01 X-31.0017 Y-16.7410
G01 X-30.9935 Y-16.6160
G01 X-30.9996 Y-16.4749
G01 X-31.0214 Y-16.3402
G01 X-31.0790 Y-16.1501
G01 X-31.1404 Y-16.0174
G01 X-31.2588 Y-15.8382
G01 X-31.3560 Y-15.7291
G01 X-31.5213 Y-15.5920
G01 X-31.6460 Y-15.5158
G01 X-31.8440 Y-15.4326
G01 X-32.0013 Y-15.3932
G01 X-32.1046 Y-15.3787
G01 X-32.2249 Y-15.3733
G01 X-32.3451 Y-15.3796
G01 X-32.4641 Y-15.3978
G01 X-32.5714 Y-15.4247
G01 X-32.6849 Y-15.4648
G01 X-32.7940 Y-15.5158
G01 X-32.8881 Y-15.5713
G01 X-32.9944 Y-15.6486
G01 X-33.0840 Y-15.7291
G01 X-33.1652 Y-15.8180
G01 X-33.2280 Y-15.9013
G01 X-33.3114 Y-16.0404
G01 X-33.3552 Y-16.1351
G01 X-33.3996 Y-16.2641
G01 X-33.4383 Y-16.4590
G01 X-33.4463 Y-16.5791
G01 X-33.4413 Y-16.7154
G01 X-33.4222 Y-16.8441
G01 X-33.3874 Y-16.9760
G01 X-33.3092 Y-17.1640
G01 X-33.2373 Y-17.2856
G01 X-33.1471 Y-17.4025
G01 X-33.1471 Y-20.0360
G01 X-33.1840 Y-20.0729
G01 X-35.5541 Y-20.0729
G01 X-35.4360 Y-19.9709
G01 X-35.3388 Y-19.8618
G01 X-35.2259 Y-19.6923
G01 X-35.1590 Y-19.5499
G01 X-35.1014 Y-19.3598
G01 X-35.0787 Y-19.2154
G01 X-35.0776 Y-19.0006
G01 X-35.1002 Y-18.8450
G01 X-35.1590 Y-18.6501
G01 X-35.2204 Y-18.5174
G01 X-35.3388 Y-18.3382
G01 X-35.4360 Y-18.2291
G01 X-35.5382 Y-18.1388
G01 X-35.7174 Y-18.0204
G01 X-35.8501 Y-17.9590
G01 X-36.0559 Y-17.8978
G01 X-36.1846 Y-17.8787
G01 X-36.3209 Y-17.8737
G01 X-36.5187 Y-17.8932
G01 X-36.6359 Y-17.9204
G01 X-36.7649 Y-17.9648
G01 X-36.8826 Y-18.0204
G01 X-36.9856 Y-18.0827
G01 X-37.1025 Y-18.1729
G01 X-39.4754 Y-18.1729
G01 X-39.6053 Y-18.0691
G01 X-39.7077 Y-18.0059
G01 X-39.8260 Y-17.9485
G01 X-39.9286 Y-17.9110
G01 X-40.0559 Y-17.8778
G01 X-40.1749 Y-17.8596
G01 X-40.2951 Y-17.8533
G01 X-40.4154 Y-17.8587
G01 X-40.5441 Y-17.8778
G01 X-40.6608 Y-17.9075
G01 X-40.7740 Y-17.9485
G01 X-40.8826 Y-18.0004
G01 X-40.9856 Y-18.0627
G01 X-41.0820 Y-18.1348
G01 X-41.1709 Y-18.2160
G01 X-41.2729 Y-18.3341
G01 X-41.2729 Y-9.6659
G01 X-41.2271 Y-9.7225
G01 X-41.2268 Y-10.2129
G01 X-41.2101 Y-10.3760
G01 X-41.1583 Y-10.5502
G01 X-41.0735 Y-10.7109
G01 X-40.9611 Y-10.8498
G01 X-40.1462 Y-11.6645
G01 X-40.0109 Y-11.7735
G01 X-39.9327 Y-11.8198
G01 X-39.8352 Y-11.8640
G01 X-39.6760 Y-11.9101
G01 X-39.5080 Y-11.9270
G01 X-35.0271 Y-11.9239
G01 X-35.0270 Y-12.5025
G01 X-35.0200 Y-12.6117
G01 X-34.9927 Y-12.7489
G01 X-34.9623 Y-12.8398
G01 X-34.9198 Y-12.9327
G01 X-34.8680 Y-13.0191
G01 X-34.7572 Y-13.1538
G01 X-33.3498 Y-14.5611
G01 X-33.2109 Y-14.6735
G01 X-33.0502 Y-14.7583
G01 X-32.8857 Y-14.8082
G01 X-32.7080 Y-14.8270
G01 X-28.7923 Y-14.8271
G01 X-28.7404 Y-14.9219
G01 X-28.6680 Y-15.0134
G01 X-28.5917 Y-15.0831
G01 X-28.4983 Y-15.1445
G01 X-28.4145 Y-15.1828
G01 X-28.3022 Y-15.2147
G01 X-28.2204 Y-15.2251
G01 X-28.0671 Y-15.2268
G01 X-28.0671 Y-15.7975
G01 X-28.1573 Y-15.9144
G01 X-28.2196 Y-16.0174
G01 X-28.2715 Y-16.1260
G01 X-28.3125 Y-16.2392
G01 X-28.3422 Y-16.3559
G01 X-28.3604 Y-16.4749
G01 X-28.3667 Y-16.5951
G01 X-28.3608 Y-16.7210
G00 X-28.3608 Y-16.7210
G01 F60.00
G01 Z-0.1000
G01 F120.00
G01 X-28.3667 Y-16.5951
G01 X-28.3604 Y-16.4749
G01 X-28.3422 Y-16.3559
G01 X-28.3125 Y-16.2392
G01 X-28.2715 Y-16.1260
G01 X-28.2196 Y-16.0174
G01 X-28.1573 Y-15.9144
G01 X-28.0671 Y-15.7975
G01 X-28.0671 Y-15.2268
G01 X-28.2204 Y-15.2251
G01 X-28.3022 Y-15.2147
G01 X-28.4145 Y-15.1828
G01 X-28.4983 Y-15.1445
G01 X-28.5917 Y-15.0831
G01 X-28.6680 Y-15.0134
G01 X-28.7404 Y-14.9219
G01 X-28.7923 Y-14.8271
G01 X-32.7080 Y-14.8270
G01 X-32.8857 Y-14.8082
G01 X-33.0502 Y-14.7583
G01 X-33.2109 Y-14.6735
G01 X-33.3498 Y-14.5611
G01 X-34.7572 Y-13.1538
G01 X-34.8680 Y-13.0191
G01 X-34.9198 Y-12.9327
G01 X-34.9623 Y-12.8398
G01 X-34.9927 Y-12.7489
G01 X-35.0200 Y-12.6117
G01 X-35.0270 Y-12.5025
G01 X-35.0271 Y-11.9239
G01 X-39.5080 Y-11.9270
G01 X-39.6760 Y-11.9101
G01 X-39.8352 Y-11.8640
G01 X-39.9327 Y-11.8198
G01 X-40.0109 Y-11.7735
G01 X-40.1462 Y-11.6645
G01 X-40.9611 Y-10.8498
G01 X-41.0735 Y-10.7109
G01 X-41.1583 Y-10.5502
G01 X-41.2101 Y-10.3760
G01 X-41.2268 Y-10.2129
G01 X-41.2271 Y-9.7225
G01 X-41.2729 Y-9.6659
G01 X-41.2729 Y-18.3341
G01 X-41.1709 Y-18.2160
G01 X-41.0820 Y-18.1348
G01 X-40.9856 Y-18.0627
G01 X-40.8826 Y-18.0004
G01 X-40.7740 Y-17.9485
G01 X-40.6608 Y-17.9075
G01 X-40.5441 Y-17.8778
G01 X-40.4154 Y-17.8587
G01 X-40.2951 Y-17.8533
G01 X-40.1749 Y-17.8596
G01 X-40.0559 Y-17.8778
G01 X-39.9286 Y-17.9110
G01 X-39.8260 Y-17.9485
G01 X-39.7077 Y-18.0059
G01 X-39.6053 Y-18.0691
G01 X-39.4754 Y-18.1729
G01 X-37.1025 Y-18.1729
G01 X-36.9856 Y-18.0827
G01 X-36.8826 Y-18.0204
G01 X-36.7649 Y-17.9648
G01 X-36.6359 Y-17.9204
G01 X-36.5187 Y-17.8932
G01 X-36.3209 Y-17.8737
G01 X-36.1846 Y-17.8787
G01 X-36.0559 Y-17.8978
G01 X-35.8501 Y-17.9590
G01 X-35.7174 Y-18.0204
G01 X-35.5382 Y-18.1388
G01 X-35.4360 Y-18.2291
G01 X-35.3388 Y-18.3382
G01 X-35.2204 Y-18.5174
G01 X-35.1590 Y-18.6501
G01 X-35.1002 Y-18.8450
G01 X-35.0776 Y-19.0006
G01 X-35.0787 Y-19.2154
G01 X-35.1014 Y-19.3598
G01 X-35.1590 Y-19.5499
G01 X-35.2259 Y-19.6923
G01 X-35.3388 Y-19.8618
G01 X-35.4360 Y-19.9709
G01 X-35.5541 Y-20.0729
G01 X-33.1840 Y-20.0729
G01 X-33.1471 Y-20.0360
G01 X-33.1471 Y-17.4025
G01 X-33.2373 Y-17.2856
G01 X-33.3092 Y-17.1640
G01 X-33.3874 Y-16.9760
G01 X-33.4222 Y-16.8441
G01 X-33.4413 Y-16.7154
G01 X-33.4463 Y-16.5791
G01 X-33.4383 Y-16.4590
G01 X-33.3996 Y-16.2641
G01 X-33.3552 Y-16.1351
G01 X-33.3114 Y-16.0404
G01 X-33.2280 Y-15.9013
G01 X-33.1652 Y-15.8180
G01 X-33.0840 Y-15.7291
G01 X-32.9944 Y-15.6486
G01 X-32.8881 Y-15.5713
G01 X-32.7940 Y-15.5158
G01 X-32.6849 Y-15.4648
G01 X-32.5714 Y-15.4247
G01 X-32.4641 Y-15.3978
G01 X-32.3451 Y-15.3796
G01 X-32.2249 Y-15.3733
G01 X-32.1046 Y-15.3787
G01 X-32.0013 Y-15.3932
G01 X-31.8440 Y-15.4326
G01 X-31.6460 Y-15.5158
G01 X-31.5213 Y-15.5920
G01 X-31.3560 Y-15.7291
G01 X-31.2588 Y-15.8382
G01 X-31.1404 Y-16.0174
G01 X-31.0790 Y-16.1501
G01 X-31.0214 Y-16.3402
G01 X-30.9996 Y-16.4749
G01 X-30.9935 Y-16.6160
G01 X-31.0017 Y-16.7410
G01 X-31.0404 Y-16.9359
G01 X-31.0848 Y-17.0649
G01 X-31.1404 Y-17.1826
G01 X-31.2027 Y-17.2856
G01 X-31.2929 Y-17.4025
G01 X-31.2929 Y-19.9785
G01 X-31.2058 Y-19.9544
G01 X-31.0698 Y-19.9404
G01 X-30.9715 Y-19.9510
G01 X-30.8866 Y-19.9800
G01 X-30.8490 Y-19.8286
G01 X-30.7714 Y-19.6404
G01 X-30.6973 Y-19.5144
G01 X-30.6071 Y-19.3975
G01 X-30.6071 Y-17.4025
G01 X-30.7113 Y-17.2639
G01 X-30.7642 Y-17.1740
G01 X-30.8192 Y-17.0545
G01 X-30.8553 Y-16.9514
G01 X-30.8841 Y-16.8345
G01 X-30.9013 Y-16.7154
G01 X-30.9067 Y-16.6049
G01 X-30.9013 Y-16.4846
G01 X-30.8868 Y-16.3813
G01 X-30.8474 Y-16.2240
G01 X-30.8115 Y-16.1260
G01 X-30.7596 Y-16.0174
G01 X-30.7027 Y-15.9225
G01 X-30.6382 Y-15.8343
G01 X-30.5323 Y-15.7181
G01 X-30.4544 Y-15.6486
G01 X-30.3575 Y-15.5773
G01 X-30.1686 Y-15.4751
G01 X-30.0159 Y-15.4204
G01 X-29.9145 Y-15.3959
G01 X-29.7954 Y-15.3787
G01 X-29.5806 Y-15.3776
G01 X-29.4202 Y-15.4014
G01 X-29.2151 Y-15.4648
G01 X-29.0835 Y-15.5284
G01 X-28.9056 Y-15.6486
G01 X-28.7981 Y-15.7477
G01 X-28.6627 Y-15.9144
G01 X-28.6004 Y-16.0174
G01 X-28.5551 Y-16.1114
G01 X-28.5004 Y-16.2641
G01 X-28.4759 Y-16.3655
G01 X-28.4587 Y-16.4846
G01 X-28.4533 Y-16.6049
G01 X-28.4592 Y-16.7208
G01 X-28.3608 Y-16.7210
G00 Z2.0000
G00 X-30.9500 Y-17.3324
G01 F60.00
G01 Z-0.0250
G01 F120.00
G01 X-30.8471 Y-17.4871
G01 X-30.8471 Y-19.3129
G01 X-30.9684 Y-19.4991
G01 X-31.0517 Y-19.6826
G01 X-31.0529 Y-17.4871
G01 X-30.9500 Y-17.3324
G00 X-30.9500 Y-17.3324
G01 F60.00
G01 Z-0.0500
G01 F120.00
G01 X-31.0529 Y-17.4871
G01 X-31.0517 Y-19.6826
G01 X-30.9684 Y-19.4991
G01 X-30.8471 Y-19.3129
G01 X-30.8471 Y-17.4871
G01 X-30.9500 Y-17.3324
G00 X-30.9500 Y-17.3324
G01 F60.00
G01 Z-0.0750
G01 F120.00
G01 X-30.8471 Y-17.4871
G01 X-30.8471 Y-19.3129
G01 X-30.9684 Y-19.4991
G01 X-31.0517 Y-19.6826
G01 X-31.0529 Y-17.4871
G01 X-30.9500 Y-17.3324
G00 X-30.9500 Y-17.3324
G01 F60.00
G01 Z-0.1000
G01 F120.00
G01 X-31.0529 Y-17.4871
G01 X-31.0517 Y-19.6826
G01 X-30.9684 Y-19.4991
G01 X-30.8471 Y-19.3129
G01 X-30.8471 Y-17.4871
G01 X-30.9500 Y-17.3324
G00 Z2.0000
G00 X-31.1065 Y-15.3071
G01 F60.00
G01 Z-0.0250
G01 F120.00
G01 X-30.7935 Y-15.3071
G01 X-30.9500 Y-15.4611
G01 X-31.1065 Y-15.3071
G00 X-31.1065 Y-15.3071
G01 F60.00
G01 Z-0.0500
G01 F120.00
G01 X-30.9500 Y-15.4611
G01 X-30.7935 Y-15.3071
G01 X-31.1065 Y-15.3071
G00 X-31.1065 Y-15.3071
G01 F60.00
G01 Z-0.0750
G01 F120.00
G01 X-30.7935 Y-15.3071
G01 X-30.9500 Y-15.4611
G01 X-31.1065 Y-15.3071
G00 X-31.1065 Y-15.3071
G01 F60.00
G01 Z-0.1000
G01 F120.00
G01 X-30.9500 Y-15.4611
G01 X-30.7935 Y-15.3071
G01 X-31.1065 Y-15.3071
G00 Z2.0000
G00 X-32.9329 Y-11.5175
G01 F60.00
G01 Z-0.0250
G01 F120.00
G01 X-32.1441 Y-12.2990
G01 X-32.0443 Y-12.3730
G01 X-31.9406 Y-12.4342
G01 X-31.8366 Y-12.4822
G01 X-31.7072 Y-12.5255
G01 X-31.5440 Y-12.5578
G01 X-31.4110 Y-12.5669
G01 X-28.7862 Y-12.5671
G01 X-28.8675 Y-12.6495
G01 X-28.9313 Y-12.7319
G01 X-32.2166 Y-12.7329
G01 X-32.9329 Y-12.0166
G01 X-32.9329 Y-11.5175
G00 X-32.9329 Y-11.5175
G01 F60.00
G01 Z-0.0500
G01 F120.00
G01 X-32.9329 Y-12.0166
G01 X-32.2166 Y-12.7329
G01 X-28.9313 Y-12.7319
G01 X-28.8675 Y-12.6495
G01 X-28.7862 Y-12.5671
G01 X-31.4110 Y-12.5669
G01 X-31.5440 Y-12.5578
G01 X-31.7072 Y-12.5255
G01 X-31.8366 Y-12.4822
G01 X-31.9406 Y-12.4342
G01 X-32.0443 Y-12.3730
G01 X-32.1441 Y-12.2990
G01 X-32.9329 Y-11.5175
G00 X-32.9329 Y-11.5175
G01 F60.00
G01 Z-0.0750
G01 F120.00
G01 X-32.1441 Y-12.2990
G01 X-32.0443 Y-12.3730
G01 X-31.9406 Y-12.4342
G01 X-31.8366 Y-12.4822
G01 X-31.7072 Y-12.5255
G01 X-31.5440 Y-12.5578
G01 X-31.4110 Y-12.5669
G01 X-28.7862 Y-12.5671
G01 X-28.8675 Y-12.6495
G01 X-28.9313 Y-12.7319
G01 X-32.2166 Y-12.7329
G01 X-32.9329 Y-12.0166
G01 X-32.9329 Y-11.5175
G00 X-32.9329 Y-11.5175
G01 F60.00
G01 Z-0.1000
G01 F120.00
G01 X-32.9329 Y-12.0166
G01 X-32.2166 Y-12.7329
G01 X-28.9313 Y-12.7319
G01 X-28.8675 Y-12.6495
G01 X-28.7862 Y-12.5671
G01 X-31.4110 Y-12.5669
G01 X-31.5440 Y-12.5578
G01 X-31.7072 Y-12.5255
G01 X-31.8366 Y-12.4822
G01 X-31.9406 Y-12.4342
G01 X-32.0443 Y-12.3730
G01 X-32.1441 Y-12.2990
G01 X-32.9329 Y-11.5175
G00 Z2.0000
G00 X-30.4408 Y-10.2329
G01 F60.00
G01 Z-0.0250
G01 F120.00
G01 X-30.9166 Y-10.2329
G01 X-31.0529 Y-10.0966
G01 X-31.0529 Y-9.8671
G01 X-30.9500 Y-9.7124
G01 X-30.8292 Y-9.8910
G01 X-30.7206 Y-10.0137
G01 X-30.6021 Y-10.1206
G01 X-30.4408 Y-10.2329
G00 X-30.4408 Y-10.2329
G01 F60.00
G01 Z-0.0500
G01 F120.00
G01 X-30.6021 Y-10.1206
G01 X-30.7206 Y-10.0137
G01 X-30.8292 Y-9.8910
G01 X-30.9500 Y-9.7124
G01 X-31.0529 Y-9.8671
G01 X-31.0529 Y-10.0966
G01 X-30.9166 Y-10.2329
G01 X-30.4408 Y-10.2329
G00 X-30.4408 Y-10.2329
G01 F60.00
G01 Z-0.0750
G01 F120.00
G01 X-30.9166 Y-10.2329
G01 X-31.0529 Y-10.0966
G01 X-31.0529 Y-9.8671
G01 X-30.9500 Y-9.7124
G01 X-30.8292 Y-9.8910
G01 X-30.7206 Y-10.0137
G01 X-30.6021 Y-10.1206
G01 X-30.4408 Y-10.2329
G00 X-30.4408 Y-10.2329
G01 F60.00
G01 Z-0.1000
G01 F120.00
G01 X-30.6021 Y-10.1206
G01 X-30.7206 Y-10.0137
G01 X-30.8292 Y-9.8910
G01 X-30.9500 Y-9.7124
G01 X-31.0529 Y-9.8671
G01 X-31.0529 Y-10.0966
G01 X-30.9166 Y-10.2329
G01 X-30.4408 Y-10.2329
G00 Z2.0000
G00 X-30.9500 Y-8.2476
G01 F60.00
G01 Z-0.0250
G01 F120.00
G01 X-31.0032 Y-8.1610
G01 X-31.0723 Y-8.0671
G01 X-30.8471 Y-8.0671
G01 X-30.8471 Y-8.0929
G01 X-30.9500 Y-8.2476
G00 X-30.9500 Y-8.2476
G01 F60.00
G01 Z-0.0500
G01 F120.00
G01 X-30.8471 Y-8.0929
G01 X-30.8471 Y-8.0671
G01 X-31.0723 Y-8.0671
G01 X-30.9500 Y-8.2476
G00 X-30.9500 Y-8.2476
G01 F60.00
G01 Z-0.0750
G01 F120.00
G01 X-31.0032 Y-8.1610
G01 X-31.0723 Y-8.0671
G01 X-30.8471 Y-8.0671
G01 X-30.8471 Y-8.0929
G01 X-30.9500 Y-8.2476
G00 X-30.9500 Y-8.2476
G01 F60.00
G01 Z-0.1000
G01 F120.00
G01 X-30.8471 Y-8.0929
G01 X-30.8471 Y-8.0671
G01 X-31.0723 Y-8.0671
G01 X-30.9500 Y-8.2476
G00 Z2.0000
G00 X-32.6364 Y-7.8271
G01 F60.00
G01 Z-0.0250
G01 F120.00
G01 X-32.7940 Y-7.8958
G01 X-32.9147 Y-7.9691
G01 X-33.0723 Y-8.0981
G01 X-33.1729 Y-8.2075
G01 X-33.1729 Y-7.8271
G01 X-32.6364 Y-7.8271
G00 X-32.6364 Y-7.8271
G01 F60.00
G01 Z-0.0500
G01 F120.00
G01 X-33.1729 Y-7.8271
G01 X-33.1729 Y-8.2075
G01 X-33.0723 Y-8.0981
G01 X-32.9147 Y-7.9691
G01 X-32.7940 Y-7.8958
G01 X-32.6364 Y-7.8271
G00 X-32.6364 Y-7.8271
G01 F60.00
G01 Z-0.0750
G01 F120.00
G01 X-32.7940 Y-7.8958
G01 X-32.9147 Y-7.9691
G01 X-33.0723 Y-8.0981
G01 X-33.1729 Y-8.2075
G01 X-33.1729 Y-7.8271
G01 X-32.6364 Y-7.8271
G00 X-32.6364 Y-7.8271
G01 F60.00
G01 Z-0.1000
G01 F120.00
G01 X-33.1729 Y-7.8271
G01 X-33.1729 Y-8.2075
G01 X-33.0723 Y-8.0981
G01 X-32.9147 Y-7.9691
G01 X-32.7940 Y-7.8958
G01 X-32.6364 Y-7.8271
G00 Z2.0000
G00 X-29.2998 Y-5.9671
G01 F60.00
G01 Z-0.0250
G01 F120.00
G01 X-28.8834 Y-5.9671
G01 X-28.3071 Y-6.5434
G01 X-28.3071 Y-8.0929
G01 X-28.4100 Y-8.2476
G01 X-28.5129 Y-8.0929
G01 X-28.5166 Y-7.1304
G01 X-28.5407 Y-6.9680
G01 X-28.5978 Y-6.7834
G01 X-28.6669 Y-6.6414
G01 X-28.7848 Y-6.4714
G01 X-29.1786 Y-6.0710
G01 X-29.2998 Y-5.9671
G00 X-29.2998 Y-5.9671
G01 F60.00
G01 Z-0.0500
G01 F120.00
G01 X-29.1786 Y-6.0710
G01 X-28.7848 Y-6.4714
G01 X-28.6669 Y-6.6414
G01 X-28.5978 Y-6.7834
G01 X-28.5407 Y-6.9680
G01 X-28.5166 Y-7.1304
G01 X-28.5129 Y-8.0929
G01 X-28.4100 Y-8.2476
G01 X-28.3071 Y-8.0929
G01 X-28.3071 Y-6.5434
G01 X-28.8834 Y-5.9671
G01 X-29.2998 Y-5.9671
G00 X-29.2998 Y-5.9671
G01 F60.00
G01 Z-0.0750
G01 F120.00
G01 X-28.8834 Y-5.9671
G01 X-28.3071 Y-6.5434
G01 X-28.3071 Y-8.0929
G01 X-28.4100 Y-8.2476
G01 X-28.5129 Y-8.0929
G01 X-28.5166 Y-7.1304
G01 X-28.5407 Y-6.9680
G01 X-28.5978 Y-6.7834
G01 X-28.6669 Y-6.6414
G01 X-28.7848 Y-6.4714
G01 X-29.1786 Y-6.0710
G01 X-29.2998 Y-5.9671
G00 X-29.2998 Y-5.9671
G01 F60.00
G01 Z-0.1000
G01 F120.00
G01 X-29.1786 Y-6.0710
G01 X-28.7848 Y-6.4714
G01 X-28.6669 Y-6.6414
G01 X-28.5978 Y-6.7834
G01 X-28.5407 Y-6.9680
G01 X-28.5166 Y-7.1304
G01 X-28.5129 Y-8.0929
G01 X-28.4100 Y-8.2476
G01 X-28.3071 Y-8.0929
G01 X-28.3071 Y-6.5434
G01 X-28.8834 Y-5.9671
G01 X-29.2998 Y-5.9671
G00 Z2.0000
G00 X-26.3668 Y-5.1827
G01 F60.00
G01 Z-0.0250
G01 F120.00
G01 X-27.4825 Y-4.0671
G01 X-26.4834 Y-4.0671
G01 X-26.3668 Y-4.1837
G01 X-26.3668 Y-5.1827
G01 X-26.6068 Y-4.3071
G01 X-26.6068 Y-4.6033
G01 X-26.9031 Y-4.3071
G01 X-26.6068 Y-4.3071
G00 X-26.6068 Y-4.3071
G01 F60.00
G01 Z-0.0500
G01 F120.00
G01 X-26.9031 Y-4.3071
G01 X-26.6068 Y-4.6033
G01 X-26.6068 Y-4.3071
G01 X-26.3668 Y-5.1827
G01 X-26.3668 Y-4.1837
G01 X-26.4834 Y-4.0671
G01 X-27.4825 Y-4.0671
G01 X-26.3668 Y-5.1827
G00 X-26.3668 Y-5.1827
G01 F60.00
G01 Z-0.0750
G01 F120.00
G01 X-27.4825 Y-4.0671
G01 X-26.4834 Y-4.0671
G01 X-26.3668 Y-4.1837
G01 X-26.3668 Y-5.1827
G01 X-26.6068 Y-4.3071
G01 X-26.6068 Y-4.6033
G01 X-26.9031 Y-4.3071
G01 X-26.6068 Y-4.3071
G00 X-26.6068 Y-4.3071
G01 F60.00
G01 Z-0.1000
G01 F120.00
G01 X-26.9031 Y-4.3071
G01 X-26.6068 Y-4.6033
G01 X-26.6068 Y-4.3071
G01 X-26.3668 Y-5.1827
G01 X-26.3668 Y-4.1837
G01 X-26.4834 Y-4.0671
G01 X-27.4825 Y-4.0671
G01 X-26.3668 Y-5.1827
G00 Z2.0000
G00 X-26.4021 Y-1.0225
G01 F60.00
G01 Z-0.0250
G01 F120.00
G01 X-26.4712 Y-1.1242
G01 X-26.5254 Y-1.2329
G01 X-26.5644 Y-1.3471
G01 X-26.5956 Y-1.4929
G01 X-32.6531 Y-1.4929
G01 X-26.4021 Y-1.0225
G00 X-26.4021 Y-1.0225
G01 F60.00
G01 Z-0.0500
G01 F120.00
G01 X-32.6531 Y-1.4929
G01 X-26.5956 Y-1.4929
G01 X-26.5644 Y-1.3471
G01 X-26.5254 Y-1.2329
G01 X-26.4712 Y-1.1242
G01 X-26.4021 Y-1.0225
G00 X-26.4021 Y-1.0225
G01 F60.00
G01 Z-0.0750
G01 F120.00
G01 X-26.4712 Y-1.1242
G01 X-26.5254 Y-1.2329
G01 X-26.5644 Y-1.3471
G01 X-26.5956 Y-1.4929
G01 X-32.6531 Y-1.4929
G01 X-26.4021 Y-1.0225
G00 X-26.4021 Y-1.0225
G01 F60.00
G01 Z-0.1000
G01 F120.00
G01 X-32.6531 Y-1.4929
G01 X-26.5956 Y-1.4929
G01 X-26.5644 Y-1.3471
G01 X-26.5254 Y-1.2329
G01 X-26.4712 Y-1.1242
G01 X-26.4021 Y-1.0225
G00 Z2.0000
G00 X-28.4100 Y-9.7124
G01 F60.00
G01 Z-0.0250
G01 F120.00
G01 X-28.3535 Y-9.8038
G01 X-28.2596 Y-9.9272
G01 X-28.1695 Y-10.0247
G01 X-28.0417 Y-10.1362
G01 X-28.1761 Y-10.2329
G01 X-28.9192 Y-10.2329
G01 X-28.7579 Y-10.1206
G01 X-28.6394 Y-10.0137
G01 X-28.5308 Y-9.8910
G01 X-28.4100 Y-9.7124
G00 X-28.4100 Y-9.7124
G01 F60.00
G01 Z-0.0500
G01 F120.00
G01 X-28.5308 Y-9.8910
G01 X-28.6394 Y-10.0137
G01 X-28.7579 Y-10.1206
G01 X-28.9192 Y-10.2329
G01 X-28.1761 Y-10.2329
G01 X-28.0417 Y-10.1362
G01 X-28.1695 Y-10.0247
G01 X-28.2596 Y-9.9272
G01 X-28.3535 Y-9.8038
G01 X-28.4100 Y-9.7124
G00 X-28.4100 Y-9.7124
G01 F60.00
G01 Z-0.0750
G01 F120.00
G01 X-28.3535 Y-9.8038
G01 X-28.2596 Y-9.9272
G01 X-28.1695 Y-10.0247
G01 X-28.0417 Y-10.1362
G01 X-28.1761 Y-10.2329
G01 X-28.9192 Y-10.2329
G01 X-28.7579 Y-10.1206
G01 X-28.6394 Y-10.0137
G01 X-28.5308 Y-9.8910
G01 X-28.4100 Y-9.7124
G00 X-28.4100 Y-9.7124
G01 F60.00
G01 Z-0.1000
G01 F120.00
G01 X-28.5308 Y-9.8910
G01 X-28.6394 Y-10.0137
G01 X-28.7579 Y-10.1206
G01 X-28.9192 Y-10.2329
G01 X-28.1761 Y-10.2329
G01 X-28.0417 Y-10.1362
G01 X-28.1695 Y-10.0247
G01 X-28.2596 Y-9.9272
G01 X-28.3535 Y-9.8038
G01 X-28.4100 Y-9.7124
G00 Z2.0000
G00 X-26.3330 Y-10.2047
G01 F60.00
G01 Z-0.0250
G01 F120.00
G01 X-26.2057 Y-10.1107
G01 X-26.0856 Y-9.9992
G01 X-25.9878 Y-9.8871
G01 X-25.8700 Y-9.7124
G01 X-25.7492 Y-9.8910
G01 X-25.6357 Y-10.0186
G01 X-25.7870 Y-10.0544
G01 X-25.9416 Y-10.1217
G01 X-26.0134 Y-10.1655
G01 X-26.0361 Y-10.1816
G01 X-26.0582 Y-10.1979
G01 X-26.0644 Y-10.2027
G01 X-26.0732 Y-10.2096
G01 X-26.0778 Y-10.2132
G01 X-26.2000 Y-10.3331
G01 X-26.3330 Y-10.2047
G01 X-24.6875 Y-10.2030
G01 X-24.7003 Y-10.2599
G01 X-24.8170 Y-10.2483
G01 X-25.5000 Y-10.2482
G01 X-25.6368 Y-10.2622
G01 X-25.7441 Y-10.2939
G01 X-25.8373 Y-10.3384
G01 X-25.9331 Y-10.4050
G01 X-26.0095 Y-10.4798
G01 X-26.0714 Y-10.5625
G01 X-26.1233 Y-10.6615
G01 X-26.1532 Y-10.7487
G01 X-26.1730 Y-10.8538
G01 X-26.1768 Y-11.8751
G01 X-26.2232 Y-11.8732
G01 X-26.2234 Y-10.9121
G01 X-26.2334 Y-10.8088
G01 X-26.2538 Y-10.7239
G01 X-26.2832 Y-10.6468
G01 X-26.3261 Y-10.5667
G01 X-26.4249 Y-10.4430
G01 X-26.4872 Y-10.3889
G01 X-26.5627 Y-10.3384
G01 X-26.6989 Y-10.2788
G01 X-26.7838 Y-10.2584
G01 X-26.8871 Y-10.2484
G01 X-27.5775 Y-10.2482
G01 X-27.6621 Y-10.2540
G01 X-27.7761 Y-10.2788
G01 X-27.8897 Y-10.3259
G01 X-27.9917 Y-10.3919
G01 X-28.0783 Y-10.4729
G01 X-31.0160 Y-10.4729
G01 X-31.2929 Y-10.1960
G01 X-31.2929 Y-9.7825
G01 X-31.2027 Y-9.6656
G01 X-31.1286 Y-9.5396
G01 X-31.0526 Y-9.3560
G01 X-31.0159 Y-9.2145
G01 X-30.9987 Y-9.0954
G01 X-30.9933 Y-8.9751
G01 X-30.9996 Y-8.8549
G01 X-31.0178 Y-8.7359
G01 X-31.0526 Y-8.6040
G01 X-31.1286 Y-8.4204
G01 X-31.1973 Y-8.3025
G01 X-31.2821 Y-8.1895
G01 X-31.4259 Y-8.0454
G01 X-31.5344 Y-7.9627
G01 X-31.6460 Y-7.8958
G01 X-31.8036 Y-7.8271
G01 X-30.6071 Y-7.8271
G01 X-30.6071 Y-8.1775
G01 X-30.6973 Y-8.2944
G01 X-30.7692 Y-8.4160
G01 X-30.8474 Y-8.6040
G01 X-30.8822 Y-8.7359
G01 X-30.9004 Y-8.8549
G01 X-30.9067 Y-8.9751
G01 X-30.9013 Y-9.0954
G01 X-30.8841 Y-9.2145
G01 X-30.8525 Y-9.3408
G01 X-30.8049 Y-9.4686
G01 X-30.7113 Y-9.6439
G01 X-30.6314 Y-9.7544
G01 X-30.5440 Y-9.8509
G01 X-30.4418 Y-9.9412
G01 X-30.2765 Y-10.0516
G01 X-30.1686 Y-10.1049
G01 X-30.0408 Y-10.1525
G01 X-29.9241 Y-10.1822
G01 X-29.7954 Y-10.2013
G01 X-29.6751 Y-10.2067
G01 X-29.5549 Y-10.2004
G01 X-29.4359 Y-10.1822
G01 X-29.3192 Y-10.1525
G01 X-29.1914 Y-10.1049
G01 X-29.0974 Y-10.0596
G01 X-28.9813 Y-9.9880
G01 X-28.8277 Y-9.8619
G01 X-28.7454 Y-9.7741
G01 X-28.6627 Y-9.6656
G01 X-28.6004 Y-9.5626
G01 X-28.5485 Y-9.4540
G01 X-28.5075 Y-9.3408
G01 X-28.4759 Y-9.2145
G01 X-28.4587 Y-9.0954
G01 X-28.4533 Y-8.9751
G01 X-28.4610 Y-8.8438
G01 X-28.5004 Y-8.6441
G01 X-28.5485 Y-8.5060
G01 X-28.5958 Y-8.4060
G01 X-28.6513 Y-8.3119
G01 X-28.7529 Y-8.1775
G01 X-28.7559 Y-7.1500
G01 X-28.7754 Y-7.0187
G01 X-28.8255 Y-6.8607
G01 X-28.8980 Y-6.7227
G01 X-28.9738 Y-6.6197
G01 X-29.3445 Y-6.2445
G01 X-29.4245 Y-6.1735
G01 X-29.5587 Y-6.0848
G01 X-29.7110 Y-6.0194
G01 X-29.8349 Y-5.9880
G01 X-29.9920 Y-5.9730
G01 X-33.6185 Y-5.9734
G01 X-33.7602 Y-5.9872
G01 X-33.8738 Y-6.0144
G01 X-34.0183 Y-6.0730
G01 X-34.1191 Y-6.1320
G01 X-34.2498 Y-6.2389
G01 X-34.8135 Y-6.8081
G01 X-34.9198 Y-6.9673
G01 X-34.9583 Y-7.0498
G01 X-34.9927 Y-7.1511
G01 X-35.0200 Y-7.2883
G01 X-35.0270 Y-7.3920
G01 X-35.0271 Y-9.6160
G01 X-35.4840 Y-10.0729
G01 X-35.8296 Y-10.0729
G01 X-35.7035 Y-10.0116
G01 X-35.5382 Y-9.9012
G01 X-35.4360 Y-9.8109
G01 X-35.3486 Y-9.7144
G01 X-35.2687 Y-9.6039
G01 X-35.1751 Y-9.4286
G01 X-35.1247 Y-9.2914
G01 X-35.0932 Y-9.1587
G01 X-35.0776 Y-9.0394
G01 X-35.0776 Y-8.8406
G01 X-35.0959 Y-8.7055
G01 X-35.1217 Y-8.5993
G01 X-35.1648 Y-8.4751
G01 X-35.2204 Y-8.3574
G01 X-35.2827 Y-8.2544
G01 X-35.3729 Y-8.1375
G01 X-35.3729 Y-7.2240
G01 X-34.1719 Y-6.0230
G01 X-34.0050 Y-5.9998
G01 X-33.8992 Y-5.9725
G01 X-33.7951 Y-5.9352
G01 X-33.6860 Y-5.8842
G01 X-33.5919 Y-5.8287
G01 X-33.4575 Y-5.7271
G01 X-28.7840 Y-5.7271
G01 X-28.0671 Y-6.4440
G01 X-28.0671 Y-8.1775
G01 X-28.1713 Y-8.3161
G01 X-28.2242 Y-8.4060
G01 X-28.2792 Y-8.5255
G01 X-28.3153 Y-8.6286
G01 X-28.3441 Y-8.7455
G01 X-28.3604 Y-8.8549
G01 X-28.3667 Y-8.9751
G01 X-28.3613 Y-9.0954
G01 X-28.3468 Y-9.1987
G01 X-28.3074 Y-9.3560
G01 X-28.2715 Y-9.4540
G01 X-28.2196 Y-9.5626
G01 X-28.1012 Y-9.7418
G01 X-28.0040 Y-9.8509
G01 X-27.9018 Y-9.9412
G01 X-27.7323 Y-10.0541
G01 X-27.5945 Y-10.1192
G01 X-27.3998 Y-10.1786
G01 X-27.2651 Y-10.2004
G01 X-27.1191 Y-10.2063
G01 X-26.9213 Y-10.1868
G01 X-26.7792 Y-10.1525
G01 X-26.6514 Y-10.1049
G01 X-26.4761 Y-10.0113
G01 X-26.3580 Y-9.9252
G01 X-26.2581 Y-9.8323
G01 X-26.1320 Y-9.6787
G01 X-26.0604 Y-9.5626
G01 X-25.9990 Y-9.4299
G01 X-25.9414 Y-9.2398
G01 X-25.9187 Y-9.0954
G01 X-25.9137 Y-8.9591
G01 X-25.9340 Y-8.7565
G01 X-25.9710 Y-8.6086
G01 X-26.0486 Y-8.4204
G01 X-26.1227 Y-8.2944
G01 X-26.2129 Y-8.1775
G01 X-26.2130 Y-6.0520
G01 X-26.2280 Y-5.8949
G01 X-26.2578 Y-5.7756
G01 X-26.3327 Y-5.6048
G01 X-26.4105 Y-5.4884
G01 X-26.4717 Y-5.4178
G01 X-27.7445 Y-4.1445
G01 X-27.8284 Y-4.0705
G01 X-27.9673 Y-3.9802
G01 X-28.1110 Y-3.9194
G01 X-28.2349 Y-3.8880
G01 X-28.3815 Y-3.8734
G01 X-33.4575 Y-3.8729
G01 X-33.5141 Y-3.8271
G01 X-26.3840 Y-3.8271
G01 X-26.1268 Y-4.0842
G01 X-26.1260 Y-7.9511
G01 X-26.1158 Y-8.0220
G01 X-26.0841 Y-8.1315
G01 X-26.0249 Y-8.2456
G01 X-25.9779 Y-8.2997
G01 X-25.8920 Y-8.3746
G01 X-25.8356 Y-8.4126
G01 X-25.7774 Y-8.4397
G01 X-25.7772 Y-8.6353
G01 X-25.8183 Y-8.8390
G01 X-25.8267 Y-8.9751
G01 X-25.8183 Y-9.1210
G01 X-25.7783 Y-9.3207
G01 X-25.7249 Y-9.4686
G01 X-25.6227 Y-9.6575
G01 X-25.5514 Y-9.7544
G01 X-25.4819 Y-9.8323
G01 X-25.3744 Y-9.9314
G01 X-25.1965 Y-10.0516
G01 X-25.0649 Y-10.1152
G01 X-24.9608 Y-10.1525
G01 X-24.8550 Y-10.1798
G01 X-24.6875 Y-10.2030
G00 X-24.6875 Y-10.2030
G01 F60.00
G01 Z-0.0500
G01 F120.00
G01 X-24.8550 Y-10.1798
G01 X-24.9608 Y-10.1525
G01 X-25.0649 Y-10.1152
G01 X-25.1965 Y-10.0516
G01 X-25.3744 Y-9.9314
G01 X-25.4819 Y-9.8323
G01 X-25.5514 Y-9.7544
G01 X-25.6227 Y-9.6575
G01 X-25.7249 Y-9.4686
G01 X-25.7783 Y-9.3207
G01 X-25.8183 Y-9.1210
G01 X-25.8267 Y-8.9751
G01 X-25.8183 Y-8.8390
G01 X-25.7772 Y-8.6353
G01 X-25.7774 Y-8.4397
G01 X-25.8356 Y-8.4126
G01 X-25.8920 Y-8.3746
G01 X-25.9779 Y-8.2997
G01 X-26.0249 Y-8.2456
G01 X-26.0841 Y-8.1315
G01 X-26.1158 Y-8.0220
G01 X-26.1260 Y-7.9511
G01 X-26.1268 Y-4.0842
G01 X-26.3840 Y-3.8271
G01 X-33.5141 Y-3.8271
G01 X-33.4575 Y-3.8729
G01 X-28.3815 Y-3.8734
G01 X-28.2349 Y-3.8880
G01 X-28.1110 Y-3.9194
G01 X-27.9673 Y-3.9802
G01 X-27.8284 Y-4.0705
G01 X-27.7445 Y-4.1445
G01 X-26.4717 Y-5.4178
G01 X-26.4105 Y-5.4884
G01 X-26.3327 Y-5.6048
G01 X-26.2578 Y-5.7756
G01 X-26.2280 Y-5.8949
G01 X-26.2130 Y-6.0520
G01 X-26.2129 Y-8.1775
G01 X-26.1227 Y-8.2944
G01 X-26.0486 Y-8.4204
G01 X-25.9710 Y-8.6086
G01 X-25.9340 Y-8.7565
G01 X-25.9137 Y-8.9591
G01 X-25.9187 Y-9.0954
G01 X-25.9414 Y-9.2398
G01 X-25.9990 Y-9.4299
G01 X-26.0604 Y-9.5626
G01 X-26.1320 Y-9.6787
G01 X-26.2581 Y-9.8323
G01 X-26.3580 Y-9.9252
G01 X-26.4761 Y-10.0113
G01 X-26.6514 Y-10.1049
G01 X-26.7792 Y-10.1525
G01 X-26.9213 Y-10.1868
G01 X-27.1191 Y-10.2063
G01 X-27.2651 Y-10.2004
G01 X-27.3998 Y-10.1786
G01 X-27.5945 Y-10.1192
G01 X-27.7323 Y-10.0541
G01 X-27.9018 Y-9.9412
G01 X-28.0040 Y-9.8509
G01 X-28.1012 Y-9.7418
G01 X-28.2196 Y-9.5626
G01 X-28.2715 Y-9.4540
G01 X-28.3074 Y-9.3560
G01 X-28.3468 Y-9.1987
G01 X-28.3613 Y-9.0954
G01 X-28.3667 Y-8.9751
G01 X-28.3604 Y-8.8549
G01 X-28.3441 Y-8.7455
G01 X-28.3153 Y-8.6286
G01 X-28.2792 Y-8.5255
G01 X-28.2242 Y-8.4060
G01 X-28.1713 Y-8.3161
G01 X-28.0671 Y-8.1775
G01 X-28.0671 Y-6.4440
G01 X-28.7840 Y-5.7271
G01 X-33.4575 Y-5.7271
G01 X-33.5919 Y-5.8287
G01 X-33.6860 Y-5.8842
G01 X-33.7951 Y-5.9352
G01 X-33.8992 Y-5.9725
G01 X-34.0050 Y-5.9998
G01 X-34.1719 Y-6.0230
G01 X-35.3729 Y-7.2240
G01 X-35.3729 Y-8.1375
G01 X-35.2827 Y-8.2544
G01 X-35.2204 Y-8.3574
G01 X-35.1648 Y-8.4751
G01 X-35.1217 Y-8.5993
G01 X-35.0959 Y-8.7055
G01 X-35.0776 Y-8.8406
G01 X-35.0776 Y-9.0394
G01 X-35.0932 Y-9.1587
G01 X-35.1247 Y-9.2914
G01 X-35.1751 Y-9.4286
G01 X-35.2687 Y-9.6039
G01 X-35.3486 Y-9.7144
G01 X-35.4360 Y-9.8109
G01 X-35.5382 Y-9.9012
G01 X-35.7035 Y-10.0116
G01 X-35.8296 Y-10.0729
G01 X-35.4840 Y-10.0729
G01 X-35.0271 Y-9.6160
G01 X-35.0270 Y-7.3920
G01 X-35.0200 Y-7.2883
G01 X-34.9927 Y-7.1511
G01 X-34.9583 Y-7.0498
G01 X-34.9198 Y-6.9673
G01 X-34.8135 Y-6.8081
G01 X-34.2498 Y-6.2389
G01 X-34.1191 Y-6.1320
G01 X-34.0183 Y-6.0730
G01 X-33.8738 Y-6.0144
G01 X-33.7602 Y-5.9872
G01 X-33.6185 Y-5.9734
G01 X-29.9920 Y-5.9730
G01 X-29.8349 Y-5.9880
G01 X-29.7110 Y-6.0194
G01 X-29.5587 Y-6.0848
G01 X-29.4245 Y-6.1735
G01 X-29.3445 Y-6.2445
G01 X-28.9738 Y-6.6197
G01 X-28.8980 Y-6.7227
G01 X-28.8255 Y-6.8607
G01 X-28.7754 Y-7.0187
G01 X-28.7559 Y-7.1500
G01 X-28.7529 Y-8.1775
G01 X-28.6513 Y-8.3119
G01 X-28.5958 Y-8.4060
G01 X-28.5485 Y-8.5060
G01 X-28.5004 Y-8.6441
G01 X-28.4610 Y-8.8438
G01 X-28.4533 Y-8.9751
G01 X-28.4587 Y-9.0954
G01 X-28.4759 Y-9.2145
G01 X-28.5075 Y-9.3408
G01 X-28.5485 Y-9.4540
G01 X-28.6004 Y-9.5626
G01 X-28.6627 Y-9.6656
G01 X-28.7454 Y-9.7741
G01 X-28.8277 Y-9.8619
G01 X-28.9813 Y-9.9880
G01 X-29.0974 Y-10.0596
G01 X-29.1914 Y-10.1049
G01 X-29.3192 Y-10.1525
G01 X-29.4359 Y-10.1822
G01 X-29.5549 Y-10.2004
G01 X-29.6751 Y-10.2067
G01 X-29.7954 Y-10.2013
G01 X-29.9241 Y-10.1822
G01 X-30.0408 Y-10.1525
G01 X-30.1686 Y-10.1049
G01 X-30.2765 Y-10.0516
G01 X-30.4418 Y-9.9412
G01 X-30.5440 Y-9.8509
G01 X-30.6314 Y-9.7544
G01 X-30.7113 Y-9.6439
G01 X-30.8049 Y-9.4686
G01 X-30.8525 Y-9.3408
G01 X-30.8841 Y-9.2145
G01 X-30.9013 Y-9.0954
G01 X-30.9067 Y-8.9751
G01 X-30.9004 Y-8.8549
G01 X-30.8822 Y-8.7359
G01 X-30.8474 Y-8.6040
G01 X-30.7692 Y-8.4160
G01 X-30.6973 Y-8.2944
G01 X-30.6071 Y-8.1775
G01 X-30.6071 Y-7.8271
G01 X-31.8036 Y-7.8271
G01 X-31.6460 Y-7.8958
G01 X-31.5344 Y-7.9627
G01 X-31.4259 Y-8.0454
G01 X-31.2821 Y-8.1895
G01 X-31.1973 Y-8.3025
G01 X-31.1286 Y-8.4204
G01 X-31.0526 Y-8.6040
G01 X-31.0178 Y-8.7359
G01 X-30.9996 Y-8.8549
G01 X-30.9933 Y-8.9751
G01 X-30.9987 Y-9.0954
G01 X-31.0159 Y-9.2145
G01 X-31.0526 Y-9.3560
G01 X-31.1286 Y-9.5396
G01 X-31.2027 Y-9.6656
G01 X-31.2929 Y-9.7825
G01 X-31.2929 Y-10.1960
G01 X-31.0160 Y-10.4729
G01 X-28.0783 Y-10.4729
G01 X-27.9917 Y-10.3919
G01 X-27.8897 Y-10.3259
G01 X-27.7761 Y-10.2788
G01 X-27.6621 Y-10.2540
G01 X-27.5775 Y-10.2482
G01 X-26.8871 Y-10.2484
G01 X-26.7838 Y-10.2584
G01 X-26.6989 Y-10.2788
G01 X-26.5627 Y-10.3384
G01 X-26.4872 Y-10.3889
G01 X-26.4249 Y-10.4430
G01 X-26.3261 Y-10.5667
G01 X-26.2832 Y-10.6468
G01 X-26.2538 Y-10.7239
G01 X-26.2334 Y-10.8088
G01 X-26.2234 Y-10.9121
G01 X-26.2232 Y-11.8732
G01 X-26.1768 Y-11.8751
G01 X-26.1730 Y-10.8538
G01 X-26.1532 Y-10.7487
G01 X-26.1233 Y-10.6615
G01 X-26.0714 Y-10.5625
G01 X-26.0095 Y-10.4798
G01 X-25.9331 Y-10.4050
G01 X-25.8373 Y-10.3384
G01 X-25.7441 Y-10.2939
G01 X-25.6368 Y-10.2622
G01 X-25.5000 Y-10.2482
G01 X-24.8170 Y-10.2483
G01 X-24.7003 Y-10.2599
G01 X-24.6875 Y-10.2030
G01 X-26.3330 Y-10.2047
G01 X-26.2000 Y-10.3331
G01 X-26.0778 Y-10.2132
G01 X-26.0732 Y-10.2096
G01 X-26.0644 Y-10.2027
G01 X-26.0582 Y-10.1979
G01 X-26.0361 Y-10.1816
G01 X-26.0134 Y-10.1655
G01 X-25.9416 Y-10.1217
G01 X-25.7870 Y-10.0544
G01 X-25.6357 Y-10.0186
G01 X-25.7492 Y-9.8910
G01 X-25.8700 Y-9.7124
G01 X-25.9878 Y-9.8871
G01 X-26.0856 Y-9.9992
G01 X-26.2057 Y-10.1107
G01 X-26.3330 Y-10.2047
G00 X-26.3330 Y-10.2047
G01 F60.00
G01 Z-0.0750
G01 F120.00
G01 X-26.2057 Y-10.1107
G01 X-26.0856 Y-9.9992
G01 X-25.9878 Y-9.8871
G01 X-25.8700 Y-9.7124
G01 X-25.7492 Y-9.8910
G01 X-25.6357 Y-10.0186
G01 X-25.7870 Y-10.0544
G01 X-25.9416 Y-10.1217
G01 X-26.0134 Y-10.1655
G01 X-26.0361 Y-10.1816
G01 X-26.0582 Y-10.1979
G01 X-26.0644 Y-10.2027
G01 X-26.0732 Y-10.2096
G01 X-26.0778 Y-10.2132
G01 X-26.2000 Y-10.3331
G01 X-26.3330 Y-10.2047
G01 X-24.6875 Y-10.2030
G01 X-24.7003 Y-10.2599
G01 X-24.8170 Y-10.2483
G01 X-25.5000 Y-10.2482
G01 X-25.6368 Y-10.2622
G01 X-25.7441 Y-10.2939
G01 X-25.8373 Y-10.3384
G01 X-25.9331 Y-10.4050
G01 X-26.0095 Y-10.4798
G01 X-26.0714 Y-10.5625
G01 X-26.1233 Y-10.6615
G01 X-26.1532 Y-10.7487
G01 X-26.1730 Y-10.8538
G01 X-26.1768 Y-11.8751
G01 X-26.2232 Y-11.8732
G01 X-26.2234 Y-10.9121
G01 X-26.2334 Y-10.8088
G01 X-26.2538 Y-10.7239
G01 X-26.2832 Y-10.6468
G01 X-26.3261 Y-10.5667
G01 X-26.4249 Y-10.4430
G01 X-26.4872 Y-10.3889
G01 X-26.5627 Y-10.3384
G01 X-26.6989 Y-10.2788
G01 X-26.7838 Y-10.2584
G01 X-26.8871 Y-10.2484
G01 X-27.5775 Y-10.2482
G01 X-27.6621 Y-10.2540
G01 X-27.7761 Y-10.2788
G01 X-27.8897 Y-10.3259
G01 X-27.9917 Y-10.3919
G01 X-28.0783 Y-10.4729
G01 X-31.0160 Y-10.4729
G01 X-31.2929 Y-10.1960
G01 X-31.2929 Y-9.7825
G01 X-31.2027 Y-9.6656
G01 X-31.1286 Y-9.5396
G01 X-31.0526 Y-9.3560
G01 X-31.0159 Y-9.2145
G01 X-30.9987 Y-9.0954
G01 X-30.9933 Y-8.9751
G01 X-30.9996 Y-8.8549
G01 X-31.0178 Y-8.7359
G01 X-31.0526 Y-8.6040
G01 X-31.1286 Y-8.4204
G01 X-31.1973 Y-8.3025
G01 X-31.2821 Y-8.1895
G01 X-31.4259 Y-8.0454
G01 X-31.5344 Y-7.9627
G01 X-31.6460 Y-7.8958
G01 X-31.8036 Y-7.8271
G01 X-30.6071 Y-7.8271
G01 X-30.6071 Y-8.1775
G01 X-30.6973 Y-8.2944
G01 X-30.7692 Y-8.4160
G01 X-30.8474 Y-8.6040
G01 X-30.8822 Y-8.7359
G01 X-30.9004 Y-8.8549
G01 X-30.9067 Y-8.9751
G01 X-30.9013 Y-9.0954
G01 X-30.8841 Y-9.2145
G01 X-30.8525 Y-9.3408
G01 X-30.8049 Y-9.4686
G01 X-30.7113 Y-9.6439
G01 X-30.6314 Y-9.7544
G01 X-30.5440 Y-9.8509
G01 X-30.4418 Y-9.9412
G01 X-30.2765 Y-10.0516
G01 X-30.1686 Y-10.1049
G01 X-30.0408 Y-10.1525
G01 X-29.9241 Y-10.1822
G01 X-29.7954 Y-10.2013
G01 X-29.6751 Y-10.2067
G01 X-29.5549 Y-10.2004
G01 X-29.4359 Y-10.1822
G01 X-29.3192 Y-10.1525
G01 X-29.1914 Y-10.1049
G01 X-29.0974 Y-10.0596
G01 X-28.9813 Y-9.9880
G01 X-28.8277 Y-9.8619
G01 X-28.7454 Y-9.7741
G01 X-28.6627 Y-9.6656
G01 X-28.6004 Y-9.5626
G01 X-28.5485 Y-9.4540
G01 X-28.5075 Y-9.3408
G01 X-28.4759 Y-9.2145
G01 X-28.4587 Y-9.0954
G01 X-28.4533 Y-8.9751
G01 X-28.4610 Y-8.8438
G01 X-28.5004 Y-8.6441
G01 X-28.5485 Y-8.5060
G01 X-28.5958 Y-8.4060
G01 X-28.6513 Y-8.3119
G01 X-28.7529 Y-8.1775
G01 X-28.7559 Y-7.1500
G01 X-28.7754 Y-7.0187
G01 X-28.8255 Y-6.8607
G01 X-28.8980 Y-6.7227
G01 X-28.9738 Y-6.6197
G01 X-29.3445 Y-6.2445
G01 X-29.4245 Y-6.1735
G01 X-29.5587 Y-6.0848
G01 X-29.7110 Y-6.0194
G01 X-29.8349 Y-5.9880
G01 X-29.9920 Y-5.9730
G01 X-33.6185 Y-5.9734
G01 X-33.7602 Y-5.9872
G01 X-33.8738 Y-6.0144
G01 X-34.0183 Y-6.0730
G01 X-34.1191 Y-6.1320
G01 X-34.2498 Y-6.2389
G01 X-34.8135 Y-6.8081
G01 X-34.9198 Y-6.9673
G01 X-34.9583 Y-7.0498
G01 X-34.9927 Y-7.1511
G01 X-35.0200 Y-7.2883
G01 X-35.0270 Y-7.3920
G01 X-35.0271 Y-9.6160
G01 X-35.4840 Y-10.0729
G01 X-35.8296 Y-10.0729
G01 X-35.7035 Y-10.0116
G01 X-35.5382 Y-9.9012
G01 X-35.4360 Y-9.8109
G01 X-35.3486 Y-9.7144
G01 X-35.2687 Y-9.6039
G01 X-35.1751 Y-9.4286
G01 X-35.1247 Y-9.2914
G01 X-35.0932 Y-9.1587
G01 X-35.0776 Y-9.0394
G01 X-35.0776 Y-8.8406
G01 X-35.0959 Y-8.7055
G01 X-35.1217 Y-8.5993
G01 X-35.1648 Y-8.4751
G01 X-35.2204 Y-8.3574
G01 X-35.2827 Y-8.2544
G01 X-35.3729 Y-8.1375
G01 X-35.3729 Y-7.2240
G01 X-34.1719 Y-6.0230
G01 X-34.0050 Y-5.9998
G01 X-33.8992 Y-5.9725
G01 X-33.7951 Y-5.9352
G01 X-33.6860 Y-5.8842
G01 X-33.5919 Y-5.8287
G01 X-33.4575 Y-5.7271
G01 X-28.7840 Y-5.7271
G01 X-28.0671 Y-6.4440
G01 X-28.0671 Y-8.1775
G01 X-28.1713 Y-8.3161
G01 X-28.2242 Y-8.4060
G01 X-28.2792 Y-8.5255
G01 X-28.3153 Y-8.6286
G01 X-28.3441 Y-8.7455
G01 X-28.3604 Y-8.8549
G01 X-28.3667 Y-8.9751
G01 X-28.3613 Y-9.0954
G01 X-28.3468 Y-9.1987
G01 X-28.3074 Y-9.3560
G01 X-28.2715 Y-9.4540
G01 X-28.2196 Y-9.5626
G01 X-28.1012 Y-9.7418
G01 X-28.0040 Y-9.8509
G01 X-27.9018 Y-9.9412
G01 X-27.7323 Y-10.0541
G01 X-27.5945 Y-10.1192
G01 X-27.3998 Y-10.1786
G01 X-27.2651 Y-10.2004
G01 X-27.1191 Y-10.2063
G01 X-26.9213 Y-10.1868
G01 X-26.7792 Y-10.1525
G01 X-26.6514 Y-10.1049
G01 X-26.4761 Y-10.0113
G01 X-26.3580 Y-9.9252
G01 X-26.2581 Y-9.8323
G01 X-26.1320 Y-9.6787
G01 X-26.0604 Y-9.5626
G01 X-25.9990 Y-9.4299
G01 X-25.9414 Y-9.2398
G01 X-25.9187 Y-9.0954
G01 X-25.9137 Y-8.9591
G01 X-25.9340 Y-8.7565
G01 X-25.9710 Y-8.6086
G01 X-26.0486 Y-8.4204
G01 X-26.1227 Y-8.2944
G01 X-26.2129 Y-8.1775
G01 X-26.2130 Y-6.0520
G01 X-26.2280 Y-5.8949
G01 X-26.2578 Y-5.7756
G01 X-26.3327 Y-5.6048
G01 X-26.4105 Y-5.4884
G01 X-26.4717 Y-5.4178
G01 X-27.7445 Y-4.1445
G01 X-27.8284 Y-4.0705
G01 X-27.9673 Y-3.9802
G01 X-28.1110 Y-3.9194
G01 X-28.2349 Y-3.8880
G01 X-28.3815 Y-3.8734
G01 X-33.4575 Y-3.8729
G01 X-33.5141 Y-3.8271
G01 X-26.3840 Y-3.8271
G01 X-26.1268 Y-4.0842
G01 X-26.1260 Y-7.9511
G01 X-26.1158 Y-8.0220
G01 X-26.0841 Y-8.1315
G01 X-26.0249 Y-8.2456
G01 X-25.9779 Y-8.2997
G01 X-25.8920 Y-8.3746
G01 X-25.8356 Y-8.4126
G01 X-25.7774 Y-8.4397
G01 X-25.7772 Y-8.6353
G01 X-25.8183 Y-8.8390
G01 X-25.8267 Y-8.9751
G01 X-25.8183 Y-9.1210
G01 X-25.7783 Y-9.3207
G01 X-25.7249 Y-9.4686
G01 X-25.6227 Y-9.6575
G01 X-25.5514 Y-9.7544
G01 X-25.4819 Y-9.8323
G01 X-25.3744 Y-9.9314
G01 X-25.1965 Y-10.0516
G01 X-25.0649 Y-10.1152
G01 X-24.9608 Y-10.1525
G01 X-24.8550 Y-10.1798
G01 X-24.6875 Y-10.2030
G00 X-24.6875 Y-10.2030
G01 F60.00
G01 Z-0.1000
G01 F120.00
G01 X-24.8550 Y-10.1798
G01 X-24.9608 Y-10.1525
G01 X-25.0649 Y-10.1152
G01 X-25.1965 Y-10.0516
G01 X-25.3744 Y-9.9314
G01 X-25.4819 Y-9.8323
G01 X-25.5514 Y-9.7544
G01 X-25.6227 Y-9.6575
G01 X-25.7249 Y-9.4686
G01 X-25.7783 Y-9.3207
G01 X-25.8183 Y-9.1210
G01 X-25.8267 Y-8.9751
G01 X-25.8183 Y-8.8390
G01 X-25.7772 Y-8.6353
G01 X-25.7774 Y-8.4397
G01 X-25.8356 Y-8.4126
G01 X-25.8920 Y-8.3746
G01 X-25.9779 Y-8.2997
G01 X-26.0249 Y-8.2456
G01 X-26.0841 Y-8.1315
G01 X-26.1158 Y-8.0220
G01 X-26.1260 Y-7.9511
G01 X-26.1268 Y-4.0842
G01 X-26.3840 Y-3.8271
G01 X-33.5141 Y-3.8271
G01 X-33.4575 Y-3.8729
G01 X-28.3815 Y-3.8734
G01 X-28.2349 Y-3.8880
G01 X-28.1110 Y-3.9194
G01 X-27.9673 Y-3.9802
G01 X-27.8284 Y-4.0705
G01 X-27.7445 Y-4.1445
G01 X-26.4717 Y-5.4178
G01 X-26.4105 Y-5.4884
G01 X-26.3327 Y-5.6048
G01 X-26.2578 Y-5.7756
G01 X-26.2280 Y-5.8949
G01 X-26.2130 Y-6.0520
G01 X-26.2129 Y-8.1775
G01 X-26.1227 Y-8.2944
G01 X-26.0486 Y-8.4204
G01 X-25.9710 Y-8.6086
G01 X-25.9340 Y-8.7565
G01 X-25.9137 Y-8.9591
G01 X-25.9187 Y-9.0954
G01 X-25.9414 Y-9.2398
G01 X-25.9990 Y-9.4299
G01 X-26.0604 Y-9.5626
G01 X-26.1320 Y-9.6787
G01 X-26.2581 Y-9.8323
G01 X-26.3580 Y-9.9252
G01 X-26.4761 Y-10.0113
G01 X-26.6514 Y-10.1049
G01 X-26.7792 Y-10.1525
G01 X-26.9213 Y-10.1868
G01 X-27.1191 Y-10.2063
G01 X-27.2651 Y-10.2004
G01 X-27.3998 Y-10.1786
G01 X-27.5945 Y-10.1192
G01 X-27.7323 Y-10.0541
G01 X-27.9018 Y-9.9412
G01 X-28.0040 Y-9.8509
G01 X-28.1012 Y-9.7418
G01 X-28.2196 Y-9.5626
G01 X-28.2715 Y-9.4540
G01 X-28.3074 Y-9.3560
G01 X-28.3468 Y-9.1987
G01 X-28.3613 Y-9.0954
G01 X-28.3667 Y-8.9751
G01 X-28.3604 Y-8.8549
G01 X-28.3441 Y-8.7455
G01 X-28.3153 Y-8.6286
G01 X-28.2792 Y-8.5255
G01 X-28.2242 Y-8.4060
G01 X-28.1713 Y-8.3161
G01 X-28.0671 Y-8.1775
G01 X-28.0671 Y-6.4440
G01 X-28.7840 Y-5.7271
G01 X-33.4575 Y-5.7271
G01 X-33.5919 Y-5.8287
G01 X-33.6860 Y-5.8842
G01 X-33.7951 Y-5.9352
G01 X-33.8992 Y-5.9725
G01 X-34.0050 Y-5.9998
G01 X-34.1719 Y-6.0230
G01 X-35.3729 Y-7.2240
G01 X-35.3729 Y-8.1375
G01 X-35.2827 Y-8.2544
G01 X-35.2204 Y-8.3574
G01 X-35.1648 Y-8.4751
G01 X-35.1217 Y-8.5993
G01 X-35.0959 Y-8.7055
G01 X-35.0776 Y-8.8406
G01 X-35.0776 Y-9.0394
G01 X-35.0932 Y-9.1587
G01 X-35.1247 Y-9.2914
G01 X-35.1751 Y-9.4286
G01 X-35.2687 Y-9.6039
G01 X-35.3486 Y-9.7144
G01 X-35.4360 Y-9.8109
G01 X-35.5382 Y-9.9012
G01 X-35.7035 Y-10.0116
G01 X-35.8296 Y-10.0729
G01 X-35.4840 Y-10.0729
G01 X-35.0271 Y-9.6160
G01 X-35.0270 Y-7.3920
G01 X-35.0200 Y-7.2883
G01 X-34.9927 Y-7.1511
G01 X-34.9583 Y-7.0498
G01 X-34.9198 Y-6.9673
G01 X-34.8135 Y-6.8081
G01 X-34.2498 Y-6.2389
G01 X-34.1191 Y-6.1320
G01 X-34.0183 Y-6.0730
G01 X-33.8738 Y-6.0144
G01 X-33.7602 Y-5.9872
G01 X-33.6185 Y-5.9734
G01 X-29.9920 Y-5.9730
G01 X-29.8349 Y-5.9880
G01 X-29.7110 Y-6.0194
G01 X-29.5587 Y-6.0848
G01 X-29.4245 Y-6.1735
G01 X-29.3445 Y-6.2445
G01 X-28.9738 Y-6.6197
G01 X-28.8980 Y-6.7227
G01 X-28.8255 Y-6.8607
G01 X-28.7754 Y-7.0187
G01 X-28.7559 Y-7.1500
G01 X-28.7529 Y-8.1775
G01 X-28.6513 Y-8.3119
G01 X-28.5958 Y-8.4060
G01 X-28.5485 Y-8.5060
G01 X-28.5004 Y-8.6441
G01 X-28.4610 Y-8.8438
G01 X-28.4533 Y-8.9751
G01 X-28.4587 Y-9.0954
G01 X-28.4759 Y-9.2145
G01 X-28.5075 Y-9.3408
G01 X-28.5485 Y-9.4540
G01 X-28.6004 Y-9.5626
G01 X-28.6627 Y-9.6656
G01 X-28.7454 Y-9.7741
G01 X-28.8277 Y-9.8619
G01 X-28.9813 Y-9.9880
G01 X-29.0974 Y-10.0596
G01 X-29.1914 Y-10.1049
G01 X-29.3192 Y-10.1525
G01 X-29.4359 Y-10.1822
G01 X-29.5549 Y-10.2004
G01 X-29.6751 Y-10.2067
G01 X-29.7954 Y-10.2013
G01 X-29.9241 Y-10.1822
G01 X-30.0408 Y-10.1525
G01 X-30.1686 Y-10.1049
G01 X-30.2765 Y-10.0516
G01 X-30.4418 Y-9.9412
G01 X-30.5440 Y-9.8509
G01 X-30.6314 Y-9.7544
G01 X-30.7113 Y-9.6439
G01 X-30.8049 Y-9.4686
G01 X-30.8525 Y-9.3408
G01 X-30.8841 Y-9.2145
G01 X-30.9013 Y-9.0954
G01 X-30.9067 Y-8.9751
G01 X-30.9004 Y-8.8549
G01 X-30.8822 Y-8.7359
G01 X-30.8474 Y-8.6040
G01 X-30.7692 Y-8.4160
G01 X-30.6973 Y-8.2944
G01 X-30.6071 Y-8.1775
G01 X-30.6071 Y-7.8271
G01 X-31.8036 Y-7.8271
G01 X-31.6460 Y-7.8958
G01 X-31.5344 Y-7.9627
G01 X-31.4259 Y-8.0454
G01 X-31.2821 Y-8.1895
G01 X-31.1973 Y-8.3025
G01 X-31.1286 Y-8.4204
G01 X-31.0526 Y-8.6040
G01 X-31.0178 Y-8.7359
G01 X-30.9996 Y-8.8549
G01 X-30.9933 Y-8.9751
G01 X-30.9987 Y-9.0954
G01 X-31.0159 Y-9.2145
G01 X-31.0526 Y-9.3560
G01 X-31.1286 Y-9.5396
G01 X-31.2027 Y-9.6656
G01 X-31.2929 Y-9.7825
G01 X-31.2929 Y-10.1960
G01 X-31.0160 Y-10.4729
G01 X-28.0783 Y-10.4729
G01 X-27.9917 Y-10.3919
G01 X-27.8897 Y-10.3259
G01 X-27.7761 Y-10.2788
G01 X-27.6621 Y-10.2540
G01 X-27.5775 Y-10.2482
G01 X-26.8871 Y-10.2484
G01 X-26.7838 Y-10.2584
G01 X-26.6989 Y-10.2788
G01 X-26.5627 Y-10.3384
G01 X-26.4872 Y-10.3889
G01 X-26.4249 Y-10.4430
G01 X-26.3261 Y-10.5667
G01 X-26.2832 Y-10.6468
G01 X-26.2538 Y-10.7239
G01 X-26.2334 Y-10.8088
G01 X-26.2234 Y-10.9121
G01 X-26.2232 Y-11.8732
G01 X-26.1768 Y-11.8751
G01 X-26.1730 Y-10.8538
G01 X-26.1532 Y-10.7487
G01 X-26.1233 Y-10.6615
G01 X-26.0714 Y-10.5625
G01 X-26.0095 Y-10.4798
G01 X-25.9331 Y-10.4050
G01 X-25.8373 Y-10.3384
G01 X-25.7441 Y-10.2939
G01 X-25.6368 Y-10.2622
G01 X-25.5000 Y-10.2482
G01 X-24.8170 Y-10.2483
G01 X-24.7003 Y-10.2599
G01 X-24.6875 Y-10.2030
G01 X-26.3330 Y-10.2047
G01 X-26.2000 Y-10.3331
G01 X-26.0778 Y-10.2132
G01 X-26.0732 Y-10.2096
G01 X-26.0644 Y-10.2027
G01 X-26.0582 Y-10.1979
G01 X-26.0361 Y-10.1816
G01 X-26.0134 Y-10.1655
G01 X-25.9416 Y-10.1217
G01 X-25.7870 Y-10.0544
G01 X-25.6357 Y-10.0186
G01 X-25.7492 Y-9.8910
G01 X-25.8700 Y-9.7124
G01 X-25.9878 Y-9.8871
G01 X-26.0856 Y-9.9992
G01 X-26.2057 Y-10.1107
G01 X-26.3330 Y-10.2047
G00 Z2.0000
G00 X-25.2401 Y-12.5518
G01 F60.00
G01 Z-0.0250
G01 F120.00
G01 X-24.7796 Y-12.5501
G01 X-24.6219 Y-12.5205
G01 X-24.6055 Y-12.5732
G01 X-25.0685 Y-12.5736
G01 X-25.2261 Y-12.5967
G01 X-25.2401 Y-12.5518
G00 X-25.2401 Y-12.5518
G01 F60.00
G01 Z-0.0500
G01 F120.00
G01 X-25.2261 Y-12.5967
G01 X-25.0685 Y-12.5736
G01 X-24.6055 Y-12.5732
G01 X-24.6219 Y-12.5205
G01 X-24.7796 Y-12.5501
G01 X-25.2401 Y-12.5518
G00 X-25.2401 Y-12.5518
G01 F60.00
G01 Z-0.0750
G01 F120.00
G01 X-24.7796 Y-12.5501
G01 X-24.6219 Y-12.5205
G01 X-24.6055 Y-12.5732
G01 X-25.0685 Y-12.5736
G01 X-25.2261 Y-12.5967
G01 X-25.2401 Y-12.5518
G00 X-25.2401 Y-12.5518
G01 F60.00
G01 Z-0.1000
G01 F120.00
G01 X-25.2261 Y-12.5967
G01 X-25.0685 Y-12.5736
G01 X-24.6055 Y-12.5732
G01 X-24.6219 Y-12.5205
G01 X-24.7796 Y-12.5501
G01 X-25.2401 Y-12.5518
G00 Z2.0000
G00 X-27.1608 Y-12.5518
G01 F60.00
G01 Z-0.0250
G01 F120.00
G01 X-27.1753 Y-12.5964
G01 X-27.2629 Y-12.5790
G01 X-27.3420 Y-12.5733
G01 X-28.1750 Y-12.5732
G01 X-28.2573 Y-12.5784
G01 X-28.3513 Y-12.5968
G01 X-28.4897 Y-12.6509
G01 X-28.6081 Y-12.7300
G01 X-28.7111 Y-12.8372
G01 X-28.7923 Y-12.9729
G01 X-32.3160 Y-12.9729
G01 X-33.1729 Y-12.1160
G01 X-33.1729 Y-9.7525
G01 X-33.1471 Y-9.7825
G01 X-33.1420 Y-10.6757
G01 X-33.1056 Y-10.8538
G01 X-33.0352 Y-11.0213
G01 X-32.9788 Y-11.1122
G01 X-32.8845 Y-11.2262
G01 X-32.0498 Y-12.0611
G01 X-31.9191 Y-12.1680
G01 X-31.7739 Y-12.2480
G01 X-31.6738 Y-12.2856
G01 X-31.5857 Y-12.3082
G01 X-31.4080 Y-12.3270
G01 X-28.0783 Y-12.3271
G01 X-28.0005 Y-12.4012
G01 X-27.9123 Y-12.4616
G01 X-27.8294 Y-12.5021
G01 X-27.7275 Y-12.5342
G01 X-27.5879 Y-12.5516
G01 X-27.1608 Y-12.5518
G00 X-27.1608 Y-12.5518
G01 F60.00
G01 Z-0.0500
G01 F120.00
G01 X-27.5879 Y-12.5516
G01 X-27.7275 Y-12.5342
G01 X-27.8294 Y-12.5021
G01 X-27.9123 Y-12.4616
G01 X-28.0005 Y-12.4012
G01 X-28.0783 Y-12.3271
G01 X-31.4080 Y-12.3270
G01 X-31.5857 Y-12.3082
G01 X-31.6738 Y-12.2856
G01 X-31.7739 Y-12.2480
G01 X-31.9191 Y-12.1680
G01 X-32.0498 Y-12.0611
G01 X-32.8845 Y-11.2262
G01 X-32.9788 Y-11.1122
G01 X-33.0352 Y-11.0213
G01 X-33.1056 Y-10.8538
G01 X-33.1420 Y-10.6757
G01 X-33.1471 Y-9.7825
G01 X-33.1729 Y-9.7525
G01 X-33.1729 Y-12.1160
G01 X-32.3160 Y-12.9729
G01 X-28.7923 Y-12.9729
G01 X-28.7111 Y-12.8372
G01 X-28.6081 Y-12.7300
G01 X-28.4897 Y-12.6509
G01 X-28.3513 Y-12.5968
G01 X-28.2573 Y-12.5784
G01 X-28.1750 Y-12.5732
G01 X-27.3420 Y-12.5733
G01 X-27.2629 Y-12.5790
G01 X-27.1753 Y-12.5964
G01 X-27.1608 Y-12.5518
G00 X-27.1608 Y-12.5518
G01 F60.00
G01 Z-0.0750
G01 F120.00
G01 X-27.1753 Y-12.5964
G01 X-27.2629 Y-12.5790
G01 X-27.3420 Y-12.5733
G01 X-28.1750 Y-12.5732
G01 X-28.2573 Y-12.5784
G01 X-28.3513 Y-12.5968
G01 X-28.4897 Y-12.6509
G01 X-28.6081 Y-12.7300
G01 X-28.7111 Y-12.8372
G01 X-28.7923 Y-12.9729
G01 X-32.3160 Y-12.9729
G01 X-33.1729 Y-12.1160
G01 X-33.1729 Y-9.7525
G01 X-33.1471 Y-9.7825
G01 X-33.1420 Y-10.6757
G01 X-33.1056 Y-10.8538
G01 X-33.0352 Y-11.0213
G01 X-32.9788 Y-11.1122
G01 X-32.8845 Y-11.2262
G01 X-32.0498 Y-12.0611
G01 X-31.9191 Y-12.1680
G01 X-31.7739 Y-12.2480
G01 X-31.6738 Y-12.2856
G01 X-31.5857 Y-12.3082
G01 X-31.4080 Y-12.3270
G01 X-28.0783 Y-12.3271
G01 X-28.0005 Y-12.4012
G01 X-27.9123 Y-12.4616
G01 X-27.8294 Y-12.5021
G01 X-27.7275 Y-12.5342
G01 X-27.5879 Y-12.5516
G01 X-27.1608 Y-12.5518
G00 X-27.1608 Y-12.5518
G01 F60.00
G01 Z-0.1000
G01 F120.00
G01 X-27.5879 Y-12.5516
G01 X-27.7275 Y-12.5342
G01 X-27.8294 Y-12.5021
G01 X-27.9123 Y-12.4616
G01 X-28.0005 Y-12.4012
G01 X-28.0783 Y-12.3271
G01 X-31.4080 Y-12.3270
G01 X-31.5857 Y-12.3082
G01 X-31.6738 Y-12.2856
G01 X-31.7739 Y-12.2480
G01 X-31.9191 Y-12.1680
G01 X-32.0498 Y-12.0611
G01 X-32.8845 Y-11.2262
G01 X-32.9788 Y-11.1122
G01 X-33.0352 Y-11.0213
G01 X-33.1056 Y-10.8538
G01 X-33.1420 Y-10.6757
G01 X-33.1471 Y-9.7825
G01 X-33.1729 Y-9.7525
G01 X-33.1729 Y-12.1160
G01 X-32.3160 Y-12.9729
G01 X-28.7923 Y-12.9729
G01 X-28.7111 Y-12.8372
G01 X-28.6081 Y-12.7300
G01 X-28.4897 Y-12.6509
G01 X-28.3513 Y-12.5968
G01 X-28.2573 Y-12.5784
G01 X-28.1750 Y-12.5732
G01 X-27.3420 Y-12.5733
G01 X-27.2629 Y-12.5790
G01 X-27.1753 Y-12.5964
G01 X-27.1608 Y-12.5518
G00 Z2.0000
G00 X-38.1446 Y-15.0494
G01 F60.00
G01 Z-0.0250
G01 F120.00
G01 X-37.8702 Y-15.0471
G01 X-38.1446 Y-15.0494
G01 X-38.3828 Y-15.2911
G01 X-38.3864 Y-14.8071
G01 X-37.1279 Y-14.8071
G01 X-36.9324 Y-15.0430
G01 X-37.1527 Y-15.0828
G01 X-37.4030 Y-15.1444
G01 X-37.5964 Y-15.2036
G01 X-37.8316 Y-15.2896
G01 X-38.3828 Y-15.2911
G01 X-38.6210 Y-15.5318
G01 X-38.6281 Y-14.5670
G01 X-37.0067 Y-14.5671
G01 X-36.8881 Y-14.7247
G01 X-36.7718 Y-14.8628
G01 X-36.4094 Y-15.2352
G01 X-36.7363 Y-15.2581
G01 X-37.0982 Y-15.3166
G01 X-37.4425 Y-15.4059
G01 X-37.7850 Y-15.5298
G01 X-38.6210 Y-15.5318
G01 X-38.8699 Y-14.3270
G01 X-36.8804 Y-14.3271
G01 X-36.7077 Y-14.5660
G01 X-36.5368 Y-14.7647
G01 X-35.7959 Y-15.5093
G01 X-35.9893 Y-15.4867
G01 X-36.2222 Y-15.4743
G01 X-36.3983 Y-15.4749
G01 X-36.6253 Y-15.4879
G01 X-36.9512 Y-15.5323
G01 X-37.2261 Y-15.5941
G01 X-37.4579 Y-15.6635
G01 X-37.7365 Y-15.7700
G01 X-38.8137 Y-15.7723
G01 X-38.8642 Y-15.7497
G01 X-38.8699 Y-14.3270
G01 X-39.1109 Y-14.0870
G01 X-36.7472 Y-14.0871
G01 X-36.6588 Y-14.2269
G01 X-36.5588 Y-14.3658
G01 X-36.3684 Y-14.5932
G01 X-35.4336 Y-15.5321
G01 X-35.5118 Y-15.8070
G01 X-35.7446 Y-15.7596
G01 X-36.0408 Y-15.7234
G01 X-36.3217 Y-15.7133
G01 X-36.6178 Y-15.7282
G01 X-36.9203 Y-15.7706
G01 X-37.1911 Y-15.8330
G01 X-37.4776 Y-15.9253
G01 X-37.6851 Y-16.0099
G01 X-38.8669 Y-16.0124
G01 X-39.1081 Y-15.9105
G01 X-39.1109 Y-14.0870
G01 X-39.3512 Y-13.8470
G01 X-36.6082 Y-13.8471
G01 X-36.4424 Y-14.1181
G01 X-36.3320 Y-14.2672
G01 X-36.2350 Y-14.3829
G01 X-36.1187 Y-14.5077
G01 X-35.1565 Y-15.4699
G01 X-35.2532 Y-15.7634
G01 X-35.2987 Y-15.9497
G01 X-35.3272 Y-16.1076
G01 X-35.6224 Y-16.0273
G01 X-35.8866 Y-15.9811
G01 X-36.1045 Y-15.9600
G01 X-36.3974 Y-15.9552
G01 X-36.6806 Y-15.9766
G01 X-37.0043 Y-16.0335
G01 X-37.3015 Y-16.1173
G01 X-37.4814 Y-16.1835
G01 X-37.6315 Y-16.2498
G01 X-38.9205 Y-16.2525
G01 X-39.1180 Y-16.1637
G01 X-39.3479 Y-16.0808
G01 X-39.3512 Y-13.8470
G01 X-39.5916 Y-13.6051
G01 X-36.4597 Y-13.6071
G01 X-36.3831 Y-13.7584
G01 X-36.2835 Y-13.9243
G01 X-36.1700 Y-14.0842
G01 X-36.0686 Y-14.2088
G01 X-35.9482 Y-14.3387
G01 X-34.8732 Y-15.4137
G01 X-34.9821 Y-15.6953
G01 X-35.0518 Y-15.9464
G01 X-35.1021 Y-16.2262
G01 X-35.1216 Y-16.4432
G01 X-35.4244 Y-16.3283
G01 X-35.7169 Y-16.2523
G01 X-36.0225 Y-16.2065
G01 X-36.3285 Y-16.1934
G01 X-36.6235 Y-16.2114
G01 X-36.9426 Y-16.2655
G01 X-37.2357 Y-16.3486
G01 X-37.4068 Y-16.4122
G01 X-37.5773 Y-16.4897
G01 X-38.9758 Y-16.4926
G01 X-39.2547 Y-16.3681
G01 X-39.4353 Y-16.3049
G01 X-39.5876 Y-16.2628
G01 X-39.5916 Y-13.6051
G01 X-39.8320 Y-13.3431
G01 X-39.6926 Y-13.3591
G01 X-39.5119 Y-13.3670
G01 X-36.3024 Y-13.3671
G01 X-36.2213 Y-13.5495
G01 X-36.1426 Y-13.6952
G01 X-36.0375 Y-13.8594
G01 X-35.9043 Y-14.0319
G01 X-35.7785 Y-14.1690
G01 X-34.5832 Y-15.3644
G01 X-34.6767 Y-15.5627
G01 X-34.7456 Y-15.7454
G01 X-34.7895 Y-15.8877
G01 X-34.8367 Y-16.0860
G01 X-34.8675 Y-16.2821
G01 X-34.8806 Y-16.4289
G01 X-34.8866 Y-16.6255
G01 X-34.8754 Y-16.8461
G01 X-35.0352 Y-16.7523
G01 X-35.1973 Y-16.6726
G01 X-35.4706 Y-16.5658
G01 X-35.7706 Y-16.4863
G01 X-36.0734 Y-16.4430
G01 X-36.2846 Y-16.4333
G01 X-36.4770 Y-16.4397
G01 X-36.6227 Y-16.4531
G01 X-36.8153 Y-16.4835
G01 X-37.0101 Y-16.5299
G01 X-37.1493 Y-16.5726
G01 X-37.3337 Y-16.6418
G01 X-37.5236 Y-16.7307
G01 X-39.0343 Y-16.7327
G01 X-39.2524 Y-16.6277
G01 X-39.4493 Y-16.5531
G01 X-39.6038 Y-16.5062
G01 X-39.8273 Y-16.4557
G01 X-39.8320 Y-13.3431
G01 X-40.0724 Y-13.0484
G01 X-39.9270 Y-13.0837
G01 X-39.7841 Y-13.1076
G01 X-39.5323 Y-13.1267
G01 X-36.1325 Y-13.1271
G01 X-36.0616 Y-13.3222
G01 X-35.9700 Y-13.5135
G01 X-35.8617 Y-13.6919
G01 X-35.7335 Y-13.8622
G01 X-35.6080 Y-14.0001
G01 X-34.2837 Y-15.3244
G01 X-34.3632 Y-15.4617
G01 X-34.4335 Y-15.6063
G01 X-34.5270 Y-15.8480
G01 X-34.5976 Y-16.1142
G01 X-34.6366 Y-16.3787
G01 X-34.6465 Y-16.6310
G01 X-34.6256 Y-16.9155
G01 X-34.5989 Y-17.0793
G01 X-34.5604 Y-17.2402
G01 X-34.4715 Y-17.5052
G01 X-34.6025 Y-17.3659
G01 X-34.7711 Y-17.2154
G01 X-34.9465 Y-17.0858
G01 X-35.1323 Y-16.9727
G01 X-35.3465 Y-16.8685
G01 X-35.5329 Y-16.7981
G01 X-35.7506 Y-16.7368
G01 X-35.9036 Y-16.7064
G01 X-36.0879 Y-16.6826
G01 X-36.3093 Y-16.6733
G01 X-36.5246 Y-16.6837
G01 X-36.7249 Y-16.7110
G01 X-36.9330 Y-16.7578
G01 X-37.0752 Y-16.8010
G01 X-37.2566 Y-16.8698
G01 X-37.4651 Y-16.9713
G01 X-39.0972 Y-16.9728
G01 X-39.3434 Y-16.8498
G01 X-39.5740 Y-16.7644
G01 X-39.8203 Y-16.7011
G01 X-40.0709 Y-16.6641
G01 X-40.0724 Y-13.0484
G01 X-40.3126 Y-12.7025
G01 X-40.1055 Y-12.7869
G01 X-39.9274 Y-12.8376
G01 X-39.7320 Y-12.8725
G01 X-39.5592 Y-12.8858
G01 X-35.9468 Y-12.8871
G01 X-35.8880 Y-13.1023
G01 X-35.7917 Y-13.3354
G01 X-35.6810 Y-13.5301
G01 X-35.5556 Y-13.7009
G01 X-35.4359 Y-13.8328
G01 X-33.9721 Y-15.2930
G01 X-34.0538 Y-15.4089
G01 X-34.1546 Y-15.5807
G01 X-34.2358 Y-15.7525
G01 X-34.2951 Y-15.9113
G01 X-34.3700 Y-16.2014
G01 X-34.3955 Y-16.3786
G01 X-34.4058 Y-16.5490
G01 X-34.3931 Y-16.8426
G01 X-34.3668 Y-17.0160
G01 X-34.3289 Y-17.1767
G01 X-34.2373 Y-17.4441
G01 X-34.1088 Y-17.7006
G01 X-34.1073 Y-19.1129
G01 X-34.1133 Y-19.1129
G01 X-34.1219 Y-18.9059
G01 X-34.1452 Y-18.7299
G01 X-34.2132 Y-18.4465
G01 X-34.2767 Y-18.2704
G01 X-34.3494 Y-18.1123
G01 X-34.5092 Y-17.8456
G01 X-34.6141 Y-17.7073
G01 X-34.7343 Y-17.5735
G01 X-34.8688 Y-17.4472
G01 X-34.9637 Y-17.3697
G01 X-35.1015 Y-17.2710
G01 X-35.2648 Y-17.1738
G01 X-35.4444 Y-17.0876
G01 X-35.6006 Y-17.0287
G01 X-35.8332 Y-16.9639
G01 X-36.0390 Y-16.9292
G01 X-36.2600 Y-16.9138
G01 X-36.4479 Y-16.9188
G01 X-36.7066 Y-16.9514
G01 X-36.9416 Y-17.0095
G01 X-37.1610 Y-17.0900
G01 X-37.4005 Y-17.2112
G01 X-39.1633 Y-17.2129
G01 X-39.2866 Y-17.1423
G01 X-39.4376 Y-17.0706
G01 X-39.6918 Y-16.9796
G01 X-39.8628 Y-16.9374
G01 X-40.0268 Y-16.9108
G01 X-40.3110 Y-16.8933
G01 X-40.3126 Y-12.7025
G01 X-40.5527 Y-12.2666
G01 X-40.3675 Y-12.3996
G01 X-40.2603 Y-12.4610
G01 X-40.1244 Y-12.5241
G01 X-39.9884 Y-12.5729
G01 X-39.8698 Y-12.6046
G01 X-39.6404 Y-12.6409
G01 X-39.5011 Y-12.6470
G01 X-35.7404 Y-12.6471
G01 X-35.7045 Y-12.8705
G01 X-35.6729 Y-12.9884
G01 X-35.6252 Y-13.1216
G01 X-35.5263 Y-13.3229
G01 X-35.4634 Y-13.4240
G01 X-35.3790 Y-13.5376
G01 X-35.2670 Y-13.6623
G01 X-33.8590 Y-15.0703
G01 X-33.7486 Y-15.1700
G01 X-33.6306 Y-15.2589
G01 X-33.7354 Y-15.3780
G01 X-33.8438 Y-15.5262
G01 X-33.9339 Y-15.6767
G01 X-34.0097 Y-15.8342
G01 X-34.0775 Y-16.0176
G01 X-34.1185 Y-16.1710
G01 X-34.1612 Y-16.4587
G01 X-34.1667 Y-16.6064
G01 X-34.1594 Y-16.7683
G01 X-34.1171 Y-17.0347
G01 X-34.0780 Y-17.1810
G01 X-34.0167 Y-17.3495
G01 X-33.9419 Y-17.5081
G01 X-33.8671 Y-17.6370
G01 X-33.8671 Y-19.3529
G01 X-34.3704 Y-19.3529
G01 X-34.3585 Y-19.2369
G01 X-34.3543 Y-19.0503
G01 X-34.3649 Y-18.8882
G01 X-34.3979 Y-18.6865
G01 X-34.4403 Y-18.5246
G01 X-34.5033 Y-18.3505
G01 X-34.5801 Y-18.1879
G01 X-34.6690 Y-18.0373
G01 X-34.7837 Y-17.8791
G01 X-34.8886 Y-17.7598
G01 X-35.1023 Y-17.5658
G01 X-35.2324 Y-17.4722
G01 X-35.3879 Y-17.3801
G01 X-35.5491 Y-17.3039
G01 X-35.7133 Y-17.2438
G01 X-35.9096 Y-17.1928
G01 X-36.0911 Y-17.1645
G01 X-36.2818 Y-17.1534
G01 X-36.4428 Y-17.1589
G01 X-36.6706 Y-17.1889
G01 X-36.8867 Y-17.2438
G01 X-37.0911 Y-17.3217
G01 X-37.2134 Y-17.3808
G01 X-37.3370 Y-17.4529
G01 X-39.2312 Y-17.4529
G01 X-39.3866 Y-17.3608
G01 X-39.5491 Y-17.2839
G01 X-39.7246 Y-17.2203
G01 X-39.8844 Y-17.1784
G01 X-40.0867 Y-17.1451
G01 X-40.2496 Y-17.1343
G01 X-40.4369 Y-17.1385
G01 X-40.5509 Y-17.1501
G01 X-40.5527 Y-12.2666
G01 X-40.7929 Y-11.6969
G01 X-40.4632 Y-12.0251
G01 X-40.3708 Y-12.1049
G01 X-40.2546 Y-12.1873
G01 X-40.1372 Y-12.2543
G01 X-39.9969 Y-12.3160
G01 X-39.8165 Y-12.3706
G01 X-39.6714 Y-12.3963
G01 X-39.5007 Y-12.4070
G01 X-35.5071 Y-12.4071
G01 X-35.4971 Y-12.6656
G01 X-35.4772 Y-12.7880
G01 X-35.4423 Y-12.9216
G01 X-35.3969 Y-13.0457
G01 X-35.3385 Y-13.1676
G01 X-35.2671 Y-13.2858
G01 X-35.1907 Y-13.3888
G01 X-35.0955 Y-13.4944
G01 X-33.6667 Y-14.9220
G01 X-33.5796 Y-14.9981
G01 X-33.4677 Y-15.0790
G01 X-33.3511 Y-15.1473
G01 X-33.2106 Y-15.2109
G01 X-33.3947 Y-15.3624
G01 X-33.5113 Y-15.4846
G01 X-33.6297 Y-15.6380
G01 X-33.7095 Y-15.7673
G01 X-33.7915 Y-15.9342
G01 X-33.8510 Y-16.0971
G01 X-33.8930 Y-16.2622
G01 X-33.9190 Y-16.4376
G01 X-33.9267 Y-16.5951
G01 X-33.9193 Y-16.7595
G01 X-33.8965 Y-16.9195
G01 X-33.8641 Y-17.0568
G01 X-33.7795 Y-17.2925
G01 X-33.7187 Y-17.4166
G01 X-33.6271 Y-17.5658
G01 X-33.6271 Y-19.5929
G01 X-34.6660 Y-19.5929
G01 X-34.6251 Y-19.4282
G01 X-34.6010 Y-19.2624
G01 X-34.5933 Y-19.0951
G01 X-34.6020 Y-18.9278
G01 X-34.6270 Y-18.7622
G01 X-34.6682 Y-18.5999
G01 X-34.7251 Y-18.4423
G01 X-34.7971 Y-18.2911
G01 X-34.8836 Y-18.1477
G01 X-34.9838 Y-18.0135
G01 X-35.0966 Y-17.8897
G01 X-35.2211 Y-17.7776
G01 X-35.3559 Y-17.6782
G01 X-35.4998 Y-17.5925
G01 X-35.6514 Y-17.5213
G01 X-35.8093 Y-17.4653
G01 X-35.9805 Y-17.4235
G01 X-36.1712 Y-17.3985
G01 X-36.3445 Y-17.3943
G01 X-36.4722 Y-17.4020
G01 X-36.5935 Y-17.4191
G01 X-36.7823 Y-17.4628
G01 X-36.9486 Y-17.5213
G01 X-37.1089 Y-17.5971
G01 X-37.2658 Y-17.6929
G01 X-39.3066 Y-17.6929
G01 X-39.4808 Y-17.5828
G01 X-39.6396 Y-17.5062
G01 X-39.8121 Y-17.4445
G01 X-39.9988 Y-17.4003
G01 X-40.1771 Y-17.3781
G01 X-40.3049 Y-17.3733
G01 X-40.4273 Y-17.3784
G01 X-40.6195 Y-17.4035
G01 X-40.7929 Y-17.4460
G01 X-40.7929 Y-11.6969
G01 X-41.0329 Y-11.1175
G01 X-40.3242 Y-11.8263
G01 X-40.2319 Y-11.9089
G01 X-40.1232 Y-11.9863
G01 X-39.9739 Y-12.0662
G01 X-39.8435 Y-12.1153
G01 X-39.7171 Y-12.1466
G01 X-39.6095 Y-12.1619
G01 X-39.5015 Y-12.1670
G01 X-35.2671 Y-12.1671
G01 X-35.2663 Y-12.5312
G01 X-35.2424 Y-12.7382
G01 X-35.2153 Y-12.8435
G01 X-35.1740 Y-12.9565
G01 X-35.1240 Y-13.0596
G01 X-35.0515 Y-13.1751
G01 X-34.9280 Y-13.3224
G01 X-33.5174 Y-14.7329
G01 X-33.3728 Y-14.8533
G01 X-33.2406 Y-14.9342
G01 X-33.1366 Y-14.9822
G01 X-33.0072 Y-15.0255
G01 X-32.8469 Y-15.0574
G01 X-32.7218 Y-15.0667
G01 X-28.9320 Y-15.0671
G01 X-28.8155 Y-15.2058
G01 X-28.7482 Y-15.2654
G01 X-28.6634 Y-15.3257
G01 X-28.4981 Y-15.4078
G01 X-28.4124 Y-15.4353
G01 X-28.3071 Y-15.4569
G01 X-28.3071 Y-15.7129
G01 X-28.4100 Y-15.8676
G01 X-28.5278 Y-15.6929
G01 X-28.6276 Y-15.5786
G01 X-28.7457 Y-15.4693
G01 X-28.8835 Y-15.3686
G01 X-29.0888 Y-15.2581
G01 X-29.2333 Y-15.2031
G01 X-29.3987 Y-15.1605
G01 X-29.5689 Y-15.1379
G01 X-29.7941 Y-15.1380
G01 X-29.9710 Y-15.1624
G01 X-30.1011 Y-15.1950
G01 X-30.2108 Y-15.2331
G01 X-30.3671 Y-15.3041
G01 X-30.5217 Y-15.3992
G01 X-30.6143 Y-15.4693
G01 X-30.7095 Y-15.5553
G01 X-30.8292 Y-15.6890
G01 X-30.9500 Y-15.8676
G01 X-31.0660 Y-15.6953
G01 X-31.1622 Y-15.5843
G01 X-31.2812 Y-15.4731
G01 X-31.3871 Y-15.3929
G01 X-31.5243 Y-15.3088
G01 X-31.6542 Y-15.2468
G01 X-31.7989 Y-15.1950
G01 X-31.9445 Y-15.1594
G01 X-32.0870 Y-15.1393
G01 X-32.2498 Y-15.1339
G01 X-32.3963 Y-15.1443
G01 X-32.6142 Y-15.1876
G01 X-32.7713 Y-15.2408
G01 X-32.9019 Y-15.3014
G01 X-33.0308 Y-15.3777
G01 X-33.1467 Y-15.4631
G01 X-33.2537 Y-15.5594
G01 X-33.3507 Y-15.6657
G01 X-33.4423 Y-15.7892
G01 X-33.5159 Y-15.9129
G01 X-33.5770 Y-16.0432
G01 X-33.6266 Y-16.1846
G01 X-33.6606 Y-16.3245
G01 X-33.6821 Y-16.4889
G01 X-33.6867 Y-16.6049
G01 X-33.6792 Y-16.7487
G01 X-33.6576 Y-16.8910
G01 X-33.6250 Y-17.0211
G01 X-33.5770 Y-17.1568
G01 X-33.5186 Y-17.2819
G01 X-33.4455 Y-17.4059
G01 X-33.3871 Y-17.4871
G01 X-33.3871 Y-19.8329
G01 X-35.0303 Y-19.8329
G01 X-34.9491 Y-19.6712
G01 X-34.8978 Y-19.5305
G01 X-34.8605 Y-19.3813
G01 X-34.8385 Y-19.2219
G01 X-34.8340 Y-19.0673
G01 X-34.8558 Y-18.8461
G01 X-34.8934 Y-18.6846
G01 X-34.9430 Y-18.5432
G01 X-35.0088 Y-18.4043
G01 X-35.0975 Y-18.2607
G01 X-35.2402 Y-18.0865
G01 X-35.3469 Y-17.9856
G01 X-35.4762 Y-17.8865
G01 X-35.6043 Y-17.8088
G01 X-35.7432 Y-17.7430
G01 X-35.8982 Y-17.6896
G01 X-36.0461 Y-17.6558
G01 X-36.2702 Y-17.6339
G01 X-36.4330 Y-17.6393
G01 X-36.5813 Y-17.6605
G01 X-36.7305 Y-17.6978
G01 X-36.8814 Y-17.7536
G01 X-37.0174 Y-17.8210
G01 X-37.1871 Y-17.9329
G01 X-39.3862 Y-17.9329
G01 X-39.4810 Y-17.8632
G01 X-39.5894 Y-17.7971
G01 X-39.7692 Y-17.7131
G01 X-39.8789 Y-17.6750
G01 X-40.0187 Y-17.6405
G01 X-40.1513 Y-17.6208
G01 X-40.2751 Y-17.6137
G01 X-40.4656 Y-17.6228
G01 X-40.5813 Y-17.6405
G01 X-40.6971 Y-17.6684
G01 X-40.8658 Y-17.7268
G01 X-41.0329 Y-17.8103
G01 X-41.0329 Y-11.1175
G00 X-41.0329 Y-11.1175
G01 F60.00
G01 Z-0.0500
G01 F120.00
G01 X-41.0329 Y-17.8103
G01 X-40.8658 Y-17.7268
G01 X-40.6971 Y-17.6684
G01 X-40.5813 Y-17.6405
G01 X-40.4656 Y-17.6228
G01 X-40.2751 Y-17.6137
G01 X-40.1513 Y-17.6208
G01 X-40.0187 Y-17.6405
G01 X-39.8789 Y-17.6750
G01 X-39.7692 Y-17.7131
G01 X-39.5894 Y-17.7971
G01 X-39.4810 Y-17.8632
G01 X-39.3862 Y-17.9329
G01 X-37.1871 Y-17.9329
G01 X-37.0174 Y-17.8210
G01 X-36.8814 Y-17.7536
G01 X-36.7305 Y-17.6978
G01 X-36.5813 Y-17.6605
G01 X-36.4330 Y-17.6393
G01 X-36.2702 Y-17.6339
G01 X-36.0461 Y-17.6558
G01 X-35.8982 Y-17.6896
G01 X-35.7432 Y-17.7430
G01 X-35.6043 Y-17.8088
G01 X-35.4762 Y-17.8865
G01 X-35.3469 Y-17.9856
G01 X-35.2402 Y-18.0865
G01 X-35.0975 Y-18.2607
G01 X-35.0088 Y-18.4043
G01 X-34.9430 Y-18.5432
G01 X-34.8934 Y-18.6846
G01 X-34.8558 Y-18.8461
G01 X-34.8340 Y-19.0673
G01 X-34.8385 Y-19.2219
G01 X-34.8605 Y-19.3813
G01 X-34.8978 Y-19.5305
G01 X-34.9491 Y-19.6712
G01 X-35.0303 Y-19.8329
G01 X-33.3871 Y-19.8329
G01 X-33.3871 Y-17.4871
G01 X-33.4455 Y-17.4059
G01 X-33.5186 Y-17.2819
G01 X-33.5770 Y-17.1568
G01 X-33.6250 Y-17.0211
G01 X-33.6576 Y-16.8910
G01 X-33.6792 Y-16.7487
G01 X-33.6867 Y-16.6049
G01 X-33.6821 Y-16.4889
G01 X-33.6606 Y-16.3245
G01 X-33.6266 Y-16.1846
G01 X-33.5770 Y-16.0432
G01 X-33.5159 Y-15.9129
G01 X-33.4423 Y-15.7892
G01 X-33.3507 Y-15.6657
G01 X-33.2537 Y-15.5594
G01 X-33.1467 Y-15.4631
G01 X-33.0308 Y-15.3777
G01 X-32.9019 Y-15.3014
G01 X-32.7713 Y-15.2408
G01 X-32.6142 Y-15.1876
G01 X-32.3963 Y-15.1443
G01 X-32.2498 Y-15.1339
G01 X-32.0870 Y-15.1393
G01 X-31.9445 Y-15.1594
G01 X-31.7989 Y-15.1950
G01 X-31.6542 Y-15.2468
G01 X-31.5243 Y-15.3088
G01 X-31.3871 Y-15.3929
G01 X-31.2812 Y-15.4731
G01 X-31.1622 Y-15.5843
G01 X-31.0660 Y-15.6953
G01 X-30.9500 Y-15.8676
G01 X-30.8292 Y-15.6890
G01 X-30.7095 Y-15.5553
G01 X-30.6143 Y-15.4693
G01 X-30.5217 Y-15.3992
G01 X-30.3671 Y-15.3041
G01 X-30.2108 Y-15.2331
G01 X-30.1011 Y-15.1950
G01 X-29.9710 Y-15.1624
G01 X-29.7941 Y-15.1380
G01 X-29.5689 Y-15.1379
G01 X-29.3987 Y-15.1605
G01 X-29.2333 Y-15.2031
G01 X-29.0888 Y-15.2581
G01 X-28.8835 Y-15.3686
G01 X-28.7457 Y-15.4693
G01 X-28.6276 Y-15.5786
G01 X-28.5278 Y-15.6929
G01 X-28.4100 Y-15.8676
G01 X-28.3071 Y-15.7129
G01 X-28.3071 Y-15.4569
G01 X-28.4124 Y-15.4353
G01 X-28.4981 Y-15.4078
G01 X-28.6634 Y-15.3257
G01 X-28.7482 Y-15.2654
G01 X-28.8155 Y-15.2058
G01 X-28.9320 Y-15.0671
G01 X-32.7218 Y-15.0667
G01 X-32.8469 Y-15.0574
G01 X-33.0072 Y-15.0255
G01 X-33.1366 Y-14.9822
G01 X-33.2406 Y-14.9342
G01 X-33.3728 Y-14.8533
G01 X-33.5174 Y-14.7329
G01 X-34.9280 Y-13.3224
G01 X-35.0515 Y-13.1751
G01 X-35.1240 Y-13.0596
G01 X-35.1740 Y-12.9565
G01 X-35.2153 Y-12.8435
G01 X-35.2424 Y-12.7382
G01 X-35.2663 Y-12.5312
G01 X-35.2671 Y-12.1671
G01 X-39.5015 Y-12.1670
G01 X-39.6095 Y-12.1619
G01 X-39.7171 Y-12.1466
G01 X-39.8435 Y-12.1153
G01 X-39.9739 Y-12.0662
G01 X-40.1232 Y-11.9863
G01 X-40.2319 Y-11.9089
G01 X-40.3242 Y-11.8263
G01 X-41.0329 Y-11.1175
G01 X-40.7929 Y-11.6969
G01 X-40.7929 Y-17.4460
G01 X-40.6195 Y-17.4035
G01 X-40.4273 Y-17.3784
G01 X-40.3049 Y-17.3733
G01 X-40.1771 Y-17.3781
G01 X-39.9988 Y-17.4003
G01 X-39.8121 Y-17.4445
G01 X-39.6396 Y-17.5062
G01 X-39.4808 Y-17.5828
G01 X-39.3066 Y-17.6929
G01 X-37.2658 Y-17.6929
G01 X-37.1089 Y-17.5971
G01 X-36.9486 Y-17.5213
G01 X-36.7823 Y-17.4628
G01 X-36.5935 Y-17.4191
G01 X-36.4722 Y-17.4020
G01 X-36.3445 Y-17.3943
G01 X-36.1712 Y-17.3985
G01 X-35.9805 Y-17.4235
G01 X-35.8093 Y-17.4653
G01 X-35.6514 Y-17.5213
G01 X-35.4998 Y-17.5925
G01 X-35.3559 Y-17.6782
G01 X-35.2211 Y-17.7776
G01 X-35.0966 Y-17.8897
G01 X-34.9838 Y-18.0135
G01 X-34.8836 Y-18.1477
G01 X-34.7971 Y-18.2911
G01 X-34.7251 Y-18.4423
G01 X-34.6682 Y-18.5999
G01 X-34.6270 Y-18.7622
G01 X-34.6020 Y-18.9278
G01 X-34.5933 Y-19.0951
G01 X-34.6010 Y-19.2624
G01 X-34.6251 Y-19.4282
G01 X-34.6660 Y-19.5929
G01 X-33.6271 Y-19.5929
G01 X-33.6271 Y-17.5658
G01 X-33.7187 Y-17.4166
G01 X-33.7795 Y-17.2925
G01 X-33.8641 Y-17.0568
G01 X-33.8965 Y-16.9195
G01 X-33.9193 Y-16.7595
G01 X-33.9267 Y-16.5951
G01 X-33.9190 Y-16.4376
G01 X-33.8930 Y-16.2622
G01 X-33.8510 Y-16.0971
G01 X-33.7915 Y-15.9342
G01 X-33.7095 Y-15.7673
G01 X-33.6297 Y-15.6380
G01 X-33.5113 Y-15.4846
G01 X-33.3947 Y-15.3624
G01 X-33.2106 Y-15.2109
G01 X-33.3511 Y-15.1473
G01 X-33.4677 Y-15.0790
G01 X-33.5796 Y-14.9981
G01 X-33.6667 Y-14.9220
G01 X-35.0955 Y-13.4944
G01 X-35.1907 Y-13.3888
G01 X-35.2671 Y-13.2858
G01 X-35.3385 Y-13.1676
G01 X-35.3969 Y-13.0457
G01 X-35.4423 Y-12.9216
G01 X-35.4772 Y-12.7880
G01 X-35.4971 Y-12.6656
G01 X-35.5071 Y-12.4071
G01 X-39.5007 Y-12.4070
G01 X-39.6714 Y-12.3963
G01 X-39.8165 Y-12.3706
G01 X-39.9969 Y-12.3160
G01 X-40.1372 Y-12.2543
G01 X-40.2546 Y-12.1873
G01 X-40.3708 Y-12.1049
G01 X-40.4632 Y-12.0251
G01 X-40.7929 Y-11.6969
G01 X-40.5527 Y-12.2666
G01 X-40.5509 Y-17.1501
G01 X-40.4369 Y-17.1385
G01 X-40.2496 Y-17.1343
G01 X-40.0867 Y-17.1451
G01 X-39.8844 Y-17.1784
G01 X-39.7246 Y-17.2203
G01 X-39.5491 Y-17.2839
G01 X-39.3866 Y-17.3608
G01 X-39.2312 Y-17.4529
G01 X-37.3370 Y-17.4529
G01 X-37.2134 Y-17.3808
G01 X-37.0911 Y-17.3217
G01 X-36.8867 Y-17.2438
G01 X-36.6706 Y-17.1889
G01 X-36.4428 Y-17.1589
G01 X-36.2818 Y-17.1534
G01 X-36.0911 Y-17.1645
G01 X-35.9096 Y-17.1928
G01 X-35.7133 Y-17.2438
G01 X-35.5491 Y-17.3039
G01 X-35.3879 Y-17.3801
G01 X-35.2324 Y-17.4722
G01 X-35.1023 Y-17.5658
G01 X-34.8886 Y-17.7598
G01 X-34.7837 Y-17.8791
G01 X-34.6690 Y-18.0373
G01 X-34.5801 Y-18.1879
G01 X-34.5033 Y-18.3505
G01 X-34.4403 Y-18.5246
G01 X-34.3979 Y-18.6865
G01 X-34.3649 Y-18.8882
G01 X-34.3543 Y-19.0503
G01 X-34.3585 Y-19.2369
G01 X-34.3704 Y-19.3529
G01 X-33.8671 Y-19.3529
G01 X-33.8671 Y-17.6370
G01 X-33.9419 Y-17.5081
G01 X-34.0167 Y-17.3495
G01 X-34.0780 Y-17.1810
G01 X-34.1171 Y-17.0347
G01 X-34.1594 Y-16.7683
G01 X-34.1667 Y-16.6064
G01 X-34.1612 Y-16.4587
G01 X-34.1185 Y-16.1710
G01 X-34.0775 Y-16.0176
G01 X-34.0097 Y-15.8342
G01 X-33.9339 Y-15.6767
G01 X-33.8438 Y-15.5262
G01 X-33.7354 Y-15.3780
G01 X-33.6306 Y-15.2589
G01 X-33.7486 Y-15.1700
G01 X-33.8590 Y-15.0703
G01 X-35.2670 Y-13.6623
G01 X-35.3790 Y-13.5376
G01 X-35.4634 Y-13.4240
G01 X-35.5263 Y-13.3229
G01 X-35.6252 Y-13.1216
G01 X-35.6729 Y-12.9884
G01 X-35.7045 Y-12.8705
G01 X-35.7404 Y-12.6471
G01 X-39.5011 Y-12.6470
G01 X-39.6404 Y-12.6409
G01 X-39.8698 Y-12.6046
G01 X-39.9884 Y-12.5729
G01 X-40.1244 Y-12.5241
G01 X-40.2603 Y-12.4610
G01 X-40.3675 Y-12.3996
G01 X-40.5527 Y-12.2666
G01 X-40.3126 Y-12.7025
G01 X-40.3110 Y-16.8933
G01 X-40.0268 Y-16.9108
G01 X-39.8628 Y-16.9374
G01 X-39.6918 Y-16.9796
G01 X-39.4376 Y-17.0706
G01 X-39.2866 Y-17.1423
G01 X-39.1633 Y-17.2129
G01 X-37.4005 Y-17.2112
G01 X-37.1610 Y-17.0900
G01 X-36.9416 Y-17.0095
G01 X-36.7066 Y-16.9514
G01 X-36.4479 Y-16.9188
G01 X-36.2600 Y-16.9138
G01 X-36.0390 Y-16.9292
G01 X-35.8332 Y-16.9639
G01 X-35.6006 Y-17.0287
G01 X-35.4444 Y-17.0876
G01 X-35.2648 Y-17.1738
G01 X-35.1015 Y-17.2710
G01 X-34.9637 Y-17.3697
G01 X-34.8688 Y-17.4472
G01 X-34.7343 Y-17.5735
G01 X-34.6141 Y-17.7073
G01 X-34.5092 Y-17.8456
G01 X-34.3494 Y-18.1123
G01 X-34.2767 Y-18.2704
G01 X-34.2132 Y-18.4465
G01 X-34.1452 Y-18.7299
G01 X-34.1219 Y-18.9059
G01 X-34.1133 Y-19.1129
G01 X-34.1073 Y-19.1129
G01 X-34.1088 Y-17.7006
G01 X-34.2373 Y-17.4441
G01 X-34.3289 Y-17.1767
G01 X-34.3668 Y-17.0160
G01 X-34.3931 Y-16.8426
G01 X-34.4058 Y-16.5490
G01 X-34.3955 Y-16.3786
G01 X-34.3700 Y-16.2014
G01 X-34.2951 Y-15.9113
G01 X-34.2358 Y-15.7525
G01 X-34.1546 Y-15.5807
G01 X-34.0538 Y-15.4089
G01 X-33.9721 Y-15.2930
G01 X-35.4359 Y-13.8328
G01 X-35.5556 Y-13.7009
G01 X-35.6810 Y-13.5301
G01 X-35.7917 Y-13.3354
G01 X-35.8880 Y-13.1023
G01 X-35.9468 Y-12.8871
G01 X-39.5592 Y-12.8858
G01 X-39.7320 Y-12.8725
G01 X-39.9274 Y-12.8376
G01 X-40.1055 Y-12.7869
G01 X-40.3126 Y-12.7025
G01 X-40.0724 Y-13.0484
G01 X-40.0709 Y-16.6641
G01 X-39.8203 Y-16.7011
G01 X-39.5740 Y-16.7644
G01 X-39.3434 Y-16.8498
G01 X-39.0972 Y-16.9728
G01 X-37.4651 Y-16.9713
G01 X-37.2566 Y-16.8698
G01 X-37.0752 Y-16.8010
G01 X-36.9330 Y-16.7578
G01 X-36.7249 Y-16.7110
G01 X-36.5246 Y-16.6837
G01 X-36.3093 Y-16.6733
G01 X-36.0879 Y-16.6826
G01 X-35.9036 Y-16.7064
G01 X-35.7506 Y-16.7368
G01 X-35.5329 Y-16.7981
G01 X-35.3465 Y-16.8685
G01 X-35.1323 Y-16.9727
G01 X-34.9465 Y-17.0858
G01 X-34.7711 Y-17.2154
G01 X-34.6025 Y-17.3659
G01 X-34.4715 Y-17.5052
G01 X-34.5604 Y-17.2402
G01 X-34.5989 Y-17.0793
G01 X-34.6256 Y-16.9155
G01 X-34.6465 Y-16.6310
G01 X-34.6366 Y-16.3787
G01 X-34.5976 Y-16.1142
G01 X-34.5270 Y-15.8480
G01 X-34.4335 Y-15.6063
G01 X-34.3632 Y-15.4617
G01 X-34.2837 Y-15.3244
G01 X-35.6080 Y-14.0001
G01 X-35.7335 Y-13.8622
G01 X-35.8617 Y-13.6919
G01 X-35.9700 Y-13.5135
G01 X-36.0616 Y-13.3222
G01 X-36.1325 Y-13.1271
G01 X-39.5323 Y-13.1267
G01 X-39.7841 Y-13.1076
G01 X-39.9270 Y-13.0837
G01 X-40.0724 Y-13.0484
G01 X-39.8320 Y-13.3431
G01 X-39.8273 Y-16.4557
G01 X-39.6038 Y-16.5062
G01 X-39.4493 Y-16.5531
G01 X-39.2524 Y-16.6277
G01 X-39.0343 Y-16.7327
G01 X-37.5236 Y-16.7307
G01 X-37.3337 Y-16.6418
G01 X-37.1493 Y-16.5726
G01 X-37.0101 Y-16.5299
G01 X-36.8153 Y-16.4835
G01 X-36.6227 Y-16.4531
G01 X-36.4770 Y-16.4397
G01 X-36.2846 Y-16.4333
G01 X-36.0734 Y-16.4430
G01 X-35.7706 Y-16.4863
G01 X-35.4706 Y-16.5658
G01 X-35.1973 Y-16.6726
G01 X-35.0352 Y-16.7523
G01 X-34.8754 Y-16.8461
G01 X-34.8866 Y-16.6255
G01 X-34.8806 Y-16.4289
G01 X-34.8675 Y-16.2821
G01 X-34.8367 Y-16.0860
G01 X-34.7895 Y-15.8877
G01 X-34.7456 Y-15.7454
G01 X-34.6767 Y-15.5627
G01 X-34.5832 Y-15.3644
G01 X-35.7785 Y-14.1690
G01 X-35.9043 Y-14.0319
G01 X-36.0375 Y-13.8594
G01 X-36.1426 Y-13.6952
G01 X-36.2213 Y-13.5495
G01 X-36.3024 Y-13.3671
G01 X-39.5119 Y-13.3670
G01 X-39.6926 Y-13.3591
G01 X-39.8320 Y-13.3431
G01 X-39.5916 Y-13.6051
G01 X-39.5876 Y-16.2628
G01 X-39.4353 Y-16.3049
G01 X-39.2547 Y-16.3681
G01 X-38.9758 Y-16.4926
G01 X-37.5773 Y-16.4897
G01 X-37.4068 Y-16.4122
G01 X-37.2357 Y-16.3486
G01 X-36.9426 Y-16.2655
G01 X-36.6235 Y-16.2114
G01 X-36.3285 Y-16.1934
G01 X-36.0225 Y-16.2065
G01 X-35.7169 Y-16.2523
G01 X-35.4244 Y-16.3283
G01 X-35.1216 Y-16.4432
G01 X-35.1021 Y-16.2262
G01 X-35.0518 Y-15.9464
G01 X-34.9821 Y-15.6953
G01 X-34.8732 Y-15.4137
G01 X-35.9482 Y-14.3387
G01 X-36.0686 Y-14.2088
G01 X-36.1700 Y-14.0842
G01 X-36.2835 Y-13.9243
G01 X-36.3831 Y-13.7584
G01 X-36.4597 Y-13.6071
G01 X-39.5916 Y-13.6051
G01 X-39.3512 Y-13.8470
G01 X-39.3479 Y-16.0808
G01 X-39.1180 Y-16.1637
G01 X-38.9205 Y-16.2525
G01 X-37.6315 Y-16.2498
G01 X-37.4814 Y-16.1835
G01 X-37.3015 Y-16.1173
G01 X-37.0043 Y-16.0335
G01 X-36.6806 Y-15.9766
G01 X-36.3974 Y-15.9552
G01 X-36.1045 Y-15.9600
G01 X-35.8866 Y-15.9811
G01 X-35.6224 Y-16.0273
G01 X-35.3272 Y-16.1076
G01 X-35.2987 Y-15.9497
G01 X-35.2532 Y-15.7634
G01 X-35.1565 Y-15.4699
G01 X-36.1187 Y-14.5077
G01 X-36.2350 Y-14.3829
G01 X-36.3320 Y-14.2672
G01 X-36.4424 Y-14.1181
G01 X-36.6082 Y-13.8471
G01 X-39.3512 Y-13.8470
G01 X-39.1109 Y-14.0870
G01 X-39.1081 Y-15.9105
G01 X-38.8669 Y-16.0124
G01 X-37.6851 Y-16.0099
G01 X-37.4776 Y-15.9253
G01 X-37.1911 Y-15.8330
G01 X-36.9203 Y-15.7706
G01 X-36.6178 Y-15.7282
G01 X-36.3217 Y-15.7133
G01 X-36.0408 Y-15.7234
G01 X-35.7446 Y-15.7596
G01 X-35.5118 Y-15.8070
G01 X-35.4336 Y-15.5321
G01 X-36.3684 Y-14.5932
G01 X-36.5588 Y-14.3658
G01 X-36.6588 Y-14.2269
G01 X-36.7472 Y-14.0871
G01 X-39.1109 Y-14.0870
G01 X-38.8699 Y-14.3270
G01 X-38.8642 Y-15.7497
G01 X-38.8137 Y-15.7723
G01 X-37.7365 Y-15.7700
G01 X-37.4579 Y-15.6635
G01 X-37.2261 Y-15.5941
G01 X-36.9512 Y-15.5323
G01 X-36.6253 Y-15.4879
G01 X-36.3983 Y-15.4749
G01 X-36.2222 Y-15.4743
G01 X-35.9893 Y-15.4867
G01 X-35.7959 Y-15.5093
G01 X-36.5368 Y-14.7647
G01 X-36.7077 Y-14.5660
G01 X-36.8804 Y-14.3271
G01 X-38.8699 Y-14.3270
G01 X-38.6210 Y-15.5318
G01 X-37.7850 Y-15.5298
G01 X-37.4425 Y-15.4059
G01 X-37.0982 Y-15.3166
G01 X-36.7363 Y-15.2581
G01 X-36.4094 Y-15.2352
G01 X-36.7718 Y-14.8628
G01 X-36.8881 Y-14.7247
G01 X-37.0067 Y-14.5671
G01 X-38.6281 Y-14.5670
G01 X-38.6210 Y-15.5318
G01 X-38.3828 Y-15.2911
G01 X-37.8316 Y-15.2896
G01 X-37.5964 Y-15.2036
G01 X-37.4030 Y-15.1444
G01 X-37.1527 Y-15.0828
G01 X-36.9324 Y-15.0430
G01 X-37.1279 Y-14.8071
G01 X-38.3864 Y-14.8071
G01 X-38.3828 Y-15.2911
G01 X-38.1446 Y-15.0494
G01 X-37.8702 Y-15.0471
G01 X-38.1446 Y-15.0494
G00 X-38.1446 Y-15.0494
G01 F60.00
G01 Z-0.0750
G01 F120.00
G01 X-37.8702 Y-15.0471
G01 X-38.1446 Y-15.0494
G01 X-38.3828 Y-15.2911
G01 X-38.3864 Y-14.8071
G01 X-37.1279 Y-14.8071
G01 X-36.9324 Y-15.0430
G01 X-37.1527 Y-15.0828
G01 X-37.4030 Y-15.1444
G01 X-37.5964 Y-15.2036
G01 X-37.8316 Y-15.2896
G01 X-38.3828 Y-15.2911
G01 X-38.6210 Y-15.5318
G01 X-38.6281 Y-14.5670
G01 X-37.0067 Y-14.5671
G01 X-36.8881 Y-14.7247
G01 X-36.7718 Y-14.8628
G01 X-36.4094 Y-15.2352
G01 X-36.7363 Y-15.2581
G01 X-37.0982 Y-15.3166
G01 X-37.4425 Y-15.4059
G01 X-37.7850 Y-15.5298
G01 X-38.6210 Y-15.5318
G01 X-38.8699 Y-14.3270
G01 X-36.8804 Y-14.3271
G01 X-36.7077 Y-14.5660
G01 X-36.5368 Y-14.7647
G01 X-35.7959 Y-15.5093
G01 X-35.9893 Y-15.4867
G01 X-36.2222 Y-15.4743
G01 X-36.3983 Y-15.4749
G01 X-36.6253 Y-15.4879
G01 X-36.9512 Y-15.5323
G01 X-37.2261 Y-15.5941
G01 X-37.4579 Y-15.6635
G01 X-37.7365 Y-15.7700
G01 X-38.8137 Y-15.7723
G01 X-38.8642 Y-15.7497
G01 X-38.8699 Y-14.3270
G01 X-39.1109 Y-14.0870
G01 X-36.7472 Y-14.0871
G01 X-36.6588 Y-14.2269
G01 X-36.5588 Y-14.3658
G01 X-36.3684 Y-14.5932
G01 X-35.4336 Y-15.5321
G01 X-35.5118 Y-15.8070
G01 X-35.7446 Y-15.7596
G01 X-36.0408 Y-15.7234
G01 X-36.3217 Y-15.7133
G01 X-36.6178 Y-15.7282
G01 X-36.9203 Y-15.7706
G01 X-37.1911 Y-15.8330
G01 X-37.4776 Y-15.9253
G01 X-37.6851 Y-16.0099
G01 X-38.8669 Y-16.0124
G01 X-39.1081 Y-15.9105
G01 X-39.1109 Y-14.0870
G01 X-39.3512 Y-13.8470
G01 X-36.6082 Y-13.8471
G01 X-36.4424 Y-14.1181
G01 X-36.3320 Y-14.2672
G01 X-36.2350 Y-14.3829
G01 X-36.1187 Y-14.5077
G01 X-35.1565 Y-15.4699
G01 X-35.2532 Y-15.7634
G01 X-35.2987 Y-15.9497
G01 X-35.3272 Y-16.1076
G01 X-35.6224 Y-16.0273
G01 X-35.8866 Y-15.9811
G01 X-36.1045 Y-15.9600
G01 X-36.3974 Y-15.9552
G01 X-36.6806 Y-15.9766
G01 X-37.0043 Y-16.0335
G01 X-37.3015 Y-16.1173
G01 X-37.4814 Y-16.1835
G01 X-37.6315 Y-16.2498
G01 X-38.9205 Y-16.2525
G01 X-39.1180 Y-16.1637
G01 X-39.3479 Y-16.0808
G01 X-39.3512 Y-13.8470
G01 X-39.5916 Y-13.6051
G01 X-36.4597 Y-13.6071
G01 X-36.3831 Y-13.7584
G01 X-36.2835 Y-13.9243
G01 X-36.1700 Y-14.0842
G01 X-36.0686 Y-14.2088
G01 X-35.9482 Y-14.3387
G01 X-34.8732 Y-15.4137
G01 X-34.9821 Y-15.6953
G01 X-35.0518 Y-15.9464
G01 X-35.1021 Y-16.2262
G01 X-35.1216 Y-16.4432
G01 X-35.4244 Y-16.3283
G01 X-35.7169 Y-16.2523
G01 X-36.0225 Y-16.2065
G01 X-36.3285 Y-16.1934
G01 X-36.6235 Y-16.2114
G01 X-36.9426 Y-16.2655
G01 X-37.2357 Y-16.3486
G01 X-37.4068 Y-16.4122
G01 X-37.5773 Y-16.4897
G01 X-38.9758 Y-16.4926
G01 X-39.2547 Y-16.3681
G01 X-39.4353 Y-16.3049
G01 X-39.5876 Y-16.2628
G01 X-39.5916 Y-13.6051
G01 X-39.8320 Y-13.3431
G01 X-39.6926 Y-13.3591
G01 X-39.5119 Y-13.3670
G01 X-36.3024 Y-13.3671
G01 X-36.2213 Y-13.5495
G01 X-36.1426 Y-13.6952
G01 X-36.0375 Y-13.8594
G01 X-35.9043 Y-14.0319
G01 X-35.7785 Y-14.1690
G01 X-34.5832 Y-15.3644
G01 X-34.6767 Y-15.5627
G01 X-34.7456 Y-15.7454
G01 X-34.7895 Y-15.8877
G01 X-34.8367 Y-16.0860
G01 X-34.8675 Y-16.2821
G01 X-34.8806 Y-16.4289
G01 X-34.8866 Y-16.6255
G01 X-34.8754 Y-16.8461
G01 X-35.0352 Y-16.7523
G01 X-35.1973 Y-16.6726
G01 X-35.4706 Y-16.5658
G01 X-35.7706 Y-16.4863
G01 X-36.0734 Y-16.4430
G01 X-36.2846 Y-16.4333
G01 X-36.4770 Y-16.4397
G01 X-36.6227 Y-16.4531
G01 X-36.8153 Y-16.4835
G01 X-37.0101 Y-16.5299
G01 X-37.1493 Y-16.5726
G01 X-37.3337 Y-16.6418
G01 X-37.5236 Y-16.7307
G01 X-39.0343 Y-16.7327
G01 X-39.2524 Y-16.6277
G01 X-39.4493 Y-16.5531
G01 X-39.6038 Y-16.5062
G01 X-39.8273 Y-16.4557
G01 X-39.8320 Y-13.3431
G01 X-40.0724 Y-13.0484
G01 X-39.9270 Y-13.0837
G01 X-39.7841 Y-13.1076
G01 X-39.5323 Y-13.1267
G01 X-36.1325 Y-13.1271
G01 X-36.0616 Y-13.3222
G01 X-35.9700 Y-13.5135
G01 X-35.8617 Y-13.6919
G01 X-35.7335 Y-13.8622
G01 X-35.6080 Y-14.0001
G01 X-34.2837 Y-15.3244
G01 X-34.3632 Y-15.4617
G01 X-34.4335 Y-15.6063
G01 X-34.5270 Y-15.8480
G01 X-34.5976 Y-16.1142
G01 X-34.6366 Y-16.3787
G01 X-34.6465 Y-16.6310
G01 X-34.6256 Y-16.9155
G01 X-34.5989 Y-17.0793
G01 X-34.5604 Y-17.2402
G01 X-34.4715 Y-17.5052
G01 X-34.6025 Y-17.3659
G01 X-34.7711 Y-17.2154
G01 X-34.9465 Y-17.0858
G01 X-35.1323 Y-16.9727
G01 X-35.3465 Y-16.8685
G01 X-35.5329 Y-16.7981
G01 X-35.7506 Y-16.7368
G01 X-35.9036 Y-16.7064
G01 X-36.0879 Y-16.6826
G01 X-36.3093 Y-16.6733
G01 X-36.5246 Y-16.6837
G01 X-36.7249 Y-16.7110
G01 X-36.9330 Y-16.7578
G01 X-37.0752 Y-16.8010
G01 X-37.2566 Y-16.8698
G01 X-37.4651 Y-16.9713
G01 X-39.0972 Y-16.9728
G01 X-39.3434 Y-16.8498
G01 X-39.5740 Y-16.7644
G01 X-39.8203 Y-16.7011
G01 X-40.0709 Y-16.6641
G01 X-40.0724 Y-13.0484
G01 X-40.3126 Y-12.7025
G01 X-40.1055 Y-12.7869
G01 X-39.9274 Y-12.8376
G01 X-39.7320 Y-12.8725
G01 X-39.5592 Y-12.8858
G01 X-35.9468 Y-12.8871
G01 X-35.8880 Y-13.1023
G01 X-35.7917 Y-13.3354
G01 X-35.6810 Y-13.5301
G01 X-35.5556 Y-13.7009
G01 X-35.4359 Y-13.8328
G01 X-33.9721 Y-15.2930
G01 X-34.0538 Y-15.4089
G01 X-34.1546 Y-15.5807
G01 X-34.2358 Y-15.7525
G01 X-34.2951 Y-15.9113
G01 X-34.3700 Y-16.2014
G01 X-34.3955 Y-16.3786
G01 X-34.4058 Y-16.5490
G01 X-34.3931 Y-16.8426
G01 X-34.3668 Y-17.0160
G01 X-34.3289 Y-17.1767
G01 X-34.2373 Y-17.4441
G01 X-34.1088 Y-17.7006
G01 X-34.1073 Y-19.1129
G01 X-34.1133 Y-19.1129
G01 X-34.1219 Y-18.9059
G01 X-34.1452 Y-18.7299
G01 X-34.2132 Y-18.4465
G01 X-34.2767 Y-18.2704
G01 X-34.3494 Y-18.1123
G01 X-34.5092 Y-17.8456
G01 X-34.6141 Y-17.7073
G01 X-34.7343 Y-17.5735
G01 X-34.8688 Y-17.4472
G01 X-34.9637 Y-17.3697
G01 X-35.1015 Y-17.2710
G01 X-35.2648 Y-17.1738
G01 X-35.4444 Y-17.0876
G01 X-35.6006 Y-17.0287
G01 X-35.8332 Y-16.9639
G01 X-36.0390 Y-16.9292
G01 X-36.2600 Y-16.9138
G01 X-36.4479 Y-16.9188
G01 X-36.7066 Y-16.9514
G01 X-36.9416 Y-17.0095
G01 X-37.1610 Y-17.0900
G01 X-37.4005 Y-17.2112
G01 X-39.1633 Y-17.2129
G01 X-39.2866 Y-17.1423
G01 X-39.4376 Y-17.0706
G01 X-39.6918 Y-16.9796
G01 X-39.8628 Y-16.9374
G01 X-40.0268 Y-16.9108
G01 X-40.3110 Y-16.8933
G01 X-40.3126 Y-12.7025
G01 X-40.5527 Y-12.2666
G01 X-40.3675 Y-12.3996
G01 X-40.2603 Y-12.4610
G01 X-40.1244 Y-12.5241
G01 X-39.9884 Y-12.5729
G01 X-39.8698 Y-12.6046
G01 X-39.6404 Y-12.6409
G01 X-39.5011 Y-12.6470
G01 X-35.7404 Y-12.6471
G01 X-35.7045 Y-12.8705
G01 X-35.6729 Y-12.9884
G01 X-35.6252 Y-13.1216
G01 X-35.5263 Y-13.3229
G01 X-35.4634 Y-13.4240
G01 X-35.3790 Y-13.5376
G01 X-35.2670 Y-13.6623
G01 X-33.8590 Y-15.0703
G01 X-33.7486 Y-15.1700
G01 X-33.6306 Y-15.2589
G01 X-33.7354 Y-15.3780
G01 X-33.8438 Y-15.5262
G01 X-33.9339 Y-15.6767
G01 X-34.0097 Y-15.8342
G01 X-34.0775 Y-16.0176
G01 X-34.1185 Y-16.1710
G01 X-34.1612 Y-16.4587
G01 X-34.1667 Y-16.6064
G01 X-34.1594 Y-16.7683
G01 X-34.1171 Y-17.0347
G01 X-34.0780 Y-17.1810
G01 X-34.0167 Y-17.3495
G01 X-33.9419 Y-17.5081
G01 X-33.8671 Y-17.6370
G01 X-33.8671 Y-19.3529
G01 X-34.3704 Y-19.3529
G01 X-34.3585 Y-19.2369
G01 X-34.3543 Y-19.0503
G01 X-34.3649 Y-18.8882
G01 X-34.3979 Y-18.6865
G01 X-34.4403 Y-18.5246
G01 X-34.5033 Y-18.3505
G01 X-34.5801 Y-18.1879
G01 X-34.6690 Y-18.0373
G01 X-34.7837 Y-17.8791
G01 X-34.8886 Y-17.7598
G01 X-35.1023 Y-17.5658
G01 X-35.2324 Y-17.4722
G01 X-35.3879 Y-17.3801
G01 X-35.5491 Y-17.3039
G01 X-35.7133 Y-17.2438
G01 X-35.9096 Y-17.1928
G01 X-36.0911 Y-17.1645
G01 X-36.2818 Y-17.1534
G01 X-36.4428 Y-17.1589
G01 X-36.6706 Y-17.1889
G01 X-36.8867 Y-17.2438
G01 X-37.0911 Y-17.3217
G01 X-37.2134 Y-17.3808
G01 X-37.3370 Y-17.4529
G01 X-39.2312 Y-17.4529
G01 X-39.3866 Y-17.3608
G01 X-39.5491 Y-17.2839
G01 X-39.7246 Y-17.2203
G01 X-39.8844 Y-17.1784
G01 X-40.0867 Y-17.1451
G01 X-40.2496 Y-17.1343
G01 X-40.4369 Y-17.1385
G01 X-40.5509 Y-17.1501
G01 X-40.5527 Y-12.2666
G01 X-40.7929 Y-11.6969
G01 X-40.4632 Y-12.0251
G01 X-40.3708 Y-12.1049
G01 X-40.2546 Y-12.1873
G01 X-40.1372 Y-12.2543
G01 X-39.9969 Y-12.3160
G01 X-39.8165 Y-12.3706
G01 X-39.6714 Y-12.3963
G01 X-39.5007 Y-12.4070
G01 X-35.5071 Y-12.4071
G01 X-35.4971 Y-12.6656
G01 X-35.4772 Y-12.7880
G01 X-35.4423 Y-12.9216
G01 X-35.3969 Y-13.0457
G01 X-35.3385 Y-13.1676
G01 X-35.2671 Y-13.2858
G01 X-35.1907 Y-13.3888
G01 X-35.0955 Y-13.4944
G01 X-33.6667 Y-14.9220
G01 X-33.5796 Y-14.9981
G01 X-33.4677 Y-15.0790
G01 X-33.3511 Y-15.1473
G01 X-33.2106 Y-15.2109
G01 X-33.3947 Y-15.3624
G01 X-33.5113 Y-15.4846
G01 X-33.6297 Y-15.6380
G01 X-33.7095 Y-15.7673
G01 X-33.7915 Y-15.9342
G01 X-33.8510 Y-16.0971
G01 X-33.8930 Y-16.2622
G01 X-33.9190 Y-16.4376
G01 X-33.9267 Y-16.5951
G01 X-33.9193 Y-16.7595
G01 X-33.8965 Y-16.9195
G01 X-33.8641 Y-17.0568
G01 X-33.7795 Y-17.2925
G01 X-33.7187 Y-17.4166
G01 X-33.6271 Y-17.5658
G01 X-33.6271 Y-19.5929
G01 X-34.6660 Y-19.5929
G01 X-34.6251 Y-19.4282
G01 X-34.6010 Y-19.2624
G01 X-34.5933 Y-19.0951
G01 X-34.6020 Y-18.9278
G01 X-34.6270 Y-18.7622
G01 X-34.6682 Y-18.5999
G01 X-34.7251 Y-18.4423
G01 X-34.7971 Y-18.2911
G01 X-34.8836 Y-18.1477
G01 X-34.9838 Y-18.0135
G01 X-35.0966 Y-17.8897
G01 X-35.2211 Y-17.7776
G01 X-35.3559 Y-17.6782
G01 X-35.4998 Y-17.5925
G01 X-35.6514 Y-17.5213
G01 X-35.8093 Y-17.4653
G01 X-35.9805 Y-17.4235
G01 X-36.1712 Y-17.3985
G01 X-36.3445 Y-17.3943
G01 X-36.4722 Y-17.4020
G01 X-36.5935 Y-17.4191
G01 X-36.7823 Y-17.4628
G01 X-36.9486 Y-17.5213
G01 X-37.1089 Y-17.5971
G01 X-37.2658 Y-17.6929
G01 X-39.3066 Y-17.6929
G01 X-39.4808 Y-17.5828
G01 X-39.6396 Y-17.5062
G01 X-39.8121 Y-17.4445
G01 X-39.9988 Y-17.4003
G01 X-40.1771 Y-17.3781
G01 X-40.3049 Y-17.3733
G01 X-40.4273 Y-17.3784
G01 X-40.6195 Y-17.4035
G01 X-40.7929 Y-17.4460
G01 X-40.7929 Y-11.6969
G01 X-41.0329 Y-11.1175
G01 X-40.3242 Y-11.8263
G01 X-40.2319 Y-11.9089
G01 X-40.1232 Y-11.9863
G01 X-39.9739 Y-12.0662
G01 X-39.8435 Y-12.1153
G01 X-39.7171 Y-12.1466
G01 X-39.6095 Y-12.1619
G01 X-39.5015 Y-12.1670
G01 X-35.2671 Y-12.1671
G01 X-35.2663 Y-12.5312
G01 X-35.2424 Y-12.7382
G01 X-35.2153 Y-12.8435
G01 X-35.1740 Y-12.9565
G01 X-35.1240 Y-13.0596
G01 X-35.0515 Y-13.1751
G01 X-34.9280 Y-13.3224
G01 X-33.5174 Y-14.7329
G01 X-33.3728 Y-14.8533
G01 X-33.2406 Y-14.9342
G01 X-33.1366 Y-14.9822
G01 X-33.0072 Y-15.0255
G01 X-32.8469 Y-15.0574
G01 X-32.7218 Y-15.0667
G01 X-28.9320 Y-15.0671
G01 X-28.8155 Y-15.2058
G01 X-28.7482 Y-15.2654
G01 X-28.6634 Y-15.3257
G01 X-28.4981 Y-15.4078
G01 X-28.4124 Y-15.4353
G01 X-28.3071 Y-15.4569
G01 X-28.3071 Y-15.7129
G01 X-28.4100 Y-15.8676
G01 X-28.5278 Y-15.6929
G01 X-28.6276 Y-15.5786
G01 X-28.7457 Y-15.4693
G01 X-28.8835 Y-15.3686
G01 X-29.0888 Y-15.2581
G01 X-29.2333 Y-15.2031
G01 X-29.3987 Y-15.1605
G01 X-29.5689 Y-15.1379
G01 X-29.7941 Y-15.1380
G01 X-29.9710 Y-15.1624
G01 X-30.1011 Y-15.1950
G01 X-30.2108 Y-15.2331
G01 X-30.3671 Y-15.3041
G01 X-30.5217 Y-15.3992
G01 X-30.6143 Y-15.4693
G01 X-30.7095 Y-15.5553
G01 X-30.8292 Y-15.6890
G01 X-30.9500 Y-15.8676
G01 X-31.0660 Y-15.6953
G01 X-31.1622 Y-15.5843
G01 X-31.2812 Y-15.4731
G01 X-31.3871 Y-15.3929
G01 X-31.5243 Y-15.3088
G01 X-31.6542 Y-15.2468
G01 X-31.7989 Y-15.1950
G01 X-31.9445 Y-15.1594
G01 X-32.0870 Y-15.1393
G01 X-32.2498 Y-15.1339
G01 X-32.3963 Y-15.1443
G01 X-32.6142 Y-15.1876
G01 X-32.7713 Y-15.2408
G01 X-32.9019 Y-15.3014
G01 X-33.0308 Y-15.3777
G01 X-33.1467 Y-15.4631
G01 X-33.2537 Y-15.5594
G01 X-33.3507 Y-15.6657
G01 X-33.4423 Y-15.7892
G01 X-33.5159 Y-15.9129
G01 X-33.5770 Y-16.0432
G01 X-33.6266 Y-16.1846
G01 X-33.6606 Y-16.3245
G01 X-33.6821 Y-16.4889
G01 X-33.6867 Y-16.6049
G01 X-33.6792 Y-16.7487
G01 X-33.6576 Y-16.8910
G01 X-33.6250 Y-17.0211
G01 X-33.5770 Y-17.1568
G01 X-33.5186 Y-17.2819
G01 X-33.4455 Y-17.4059
G01 X-33.3871 Y-17.4871
G01 X-33.3871 Y-19.8329
G01 X-35.0303 Y-19.8329
G01 X-34.9491 Y-19.6712
G01 X-34.8978 Y-19.5305
G01 X-34.8605 Y-19.3813
G01 X-34.8385 Y-19.2219
G01 X-34.8340 Y-19.0673
G01 X-34.8558 Y-18.8461
G01 X-34.8934 Y-18.6846
G01 X-34.9430 Y-18.5432
G01 X-35.0088 Y-18.4043
G01 X-35.0975 Y-18.2607
G01 X-35.2402 Y-18.0865
G01 X-35.3469 Y-17.9856
G01 X-35.4762 Y-17.8865
G01 X-35.6043 Y-17.8088
G01 X-35.7432 Y-17.7430
G01 X-35.8982 Y-17.6896
G01 X-36.0461 Y-17.6558
G01 X-36.2702 Y-17.6339
G01 X-36.4330 Y-17.6393
G01 X-36.5813 Y-17.6605
G01 X-36.7305 Y-17.6978
G01 X-36.8814 Y-17.7536
G01 X-37.0174 Y-17.8210
G01 X-37.1871 Y-17.9329
G01 X-39.3862 Y-17.9329
G01 X-39.4810 Y-17.8632
G01 X-39.5894 Y-17.7971
G01 X-39.7692 Y-17.7131
G01 X-39.8789 Y-17.6750
G01 X-40.0187 Y-17.6405
G01 X-40.1513 Y-17.6208
G01 X-40.2751 Y-17.6137
G01 X-40.4656 Y-17.6228
G01 X-40.5813 Y-17.6405
G01 X-40.6971 Y-17.6684
G01 X-40.8658 Y-17.7268
G01 X-41.0329 Y-17.8103
G01 X-41.0329 Y-11.1175
G00 X-41.0329 Y-11.1175
G01 F60.00
G01 Z-0.1000
G01 F120.00
G01 X-41.0329 Y-17.8103
G01 X-40.8658 Y-17.7268
G01 X-40.6971 Y-17.6684
G01 X-40.5813 Y-17.6405
G01 X-40.4656 Y-17.6228
G01 X-40.2751 Y-17.6137
G01 X-40.1513 Y-17.6208
G01 X-40.0187 Y-17.6405
G01 X-39.8789 Y-17.6750
G01 X-39.7692 Y-17.7131
G01 X-39.5894 Y-17.7971
G01 X-39.4810 Y-17.8632
G01 X-39.3862 Y-17.9329
G01 X-37.1871 Y-17.9329
G01 X-37.0174 Y-17.8210
G01 X-36.8814 Y-17.7536
G01 X-36.7305 Y-17.6978
G01 X-36.5813 Y-17.6605
G01 X-36.4330 Y-17.6393
G01 X-36.2702 Y-17.6339
G01 X-36.0461 Y-17.6558
G01 X-35.8982 Y-17.6896
G01 X-35.7432 Y-17.7430
G01 X-35.6043 Y-17.8088
G01 X-35.4762 Y-17.8865
G01 X-35.3469 Y-17.9856
G01 X-35.2402 Y-18.0865
G01 X-35.0975 Y-18.2607
G01 X-35.0088 Y-18.4043
G01 X-34.9430 Y-18.5432
G01 X-34.8934 Y-18.6846
G01 X-34.8558 Y-18.8461
G01 X-34.8340 Y-19.0673
G01 X-34.8385 Y-19.2219
G01 X-34.8605 Y-19.3813
G01 X-34.8978 Y-19.5305
G01 X-34.9491 Y-19.6712
G01 X-35.0303 Y-19.8329
G01 X-33.3871 Y-19.8329
G01 X-33.3871 Y-17.4871
G01 X-33.4455 Y-17.4059
G01 X-33.5186 Y-17.2819
G01 X-33.5770 Y-17.1568
G01 X-33.6250 Y-17.0211
G01 X-33.6576 Y-16.8910
G01 X-33.6792 Y-16.7487
G01 X-33.6867 Y-16.6049
G01 X-33.6821 Y-16.4889
G01 X-33.6606 Y-16.3245
G01 X-33.6266 Y-16.1846
G01 X-33.5770 Y-16.0432
G01 X-33.5159 Y-15.9129
G01 X-33.4423 Y-15.7892
G01 X-33.3507 Y-15.6657
G01 X-33.2537 Y-15.5594
G01 X-33.1467 Y-15.4631
G01 X-33.0308 Y-15.3777
G01 X-32.9019 Y-15.3014
G01 X-32.7713 Y-15.2408
G01 X-32.6142 Y-15.1876
G01 X-32.3963 Y-15.1443
G01 X-32.2498 Y-15.1339
G01 X-32.0870 Y-15.1393
G01 X-31.9445 Y-15.1594
G01 X-31.7989 Y-15.1950
G01 X-31.6542 Y-15.2468
G01 X-31.5243 Y-15.3088
G01 X-31.3871 Y-15.3929
G01 X-31.2812 Y-15.4731
G01 X-31.1622 Y-15.5843
G01 X-31.0660 Y-15.6953
G01 X-30.9500 Y-15.8676
G01 X-30.8292 Y-15.6890
G01 X-30.7095 Y-15.5553
G01 X-30.6143 Y-15.4693
G01 X-30.5217 Y-15.3992
G01 X-30.3671 Y-15.3041
G01 X-30.2108 Y-15.2331
G01 X-30.1011 Y-15.1950
G01 X-29.9710 Y-15.1624
G01 X-29.7941 Y-15.1380
G01 X-29.5689 Y-15.1379
G01 X-29.3987 Y-15.1605
G01 X-29.2333 Y-15.2031
G01 X-29.0888 Y-15.2581
G01 X-28.8835 Y-15.3686
G01 X-28.7457 Y-15.4693
G01 X-28.6276 Y-15.5786
G01 X-28.5278 Y-15.6929
G01 X-28.4100 Y-15.8676
G01 X-28.3071 Y-15.7129
G01 X-28.3071 Y-15.4569
G01 X-28.4124 Y-15.4353
G01 X-28.4981 Y-15.4078
G01 X-28.6634 Y-15.3257
G01 X-28.7482 Y-15.2654
G01 X-28.8155 Y-15.2058
G01 X-28.9320 Y-15.0671
G01 X-32.7218 Y-15.0667
G01 X-32.8469 Y-15.0574
G01 X-33.0072 Y-15.0255
G01 X-33.1366 Y-14.9822
G01 X-33.2406 Y-14.9342
G01 X-33.3728 Y-14.8533
G01 X-33.5174 Y-14.7329
G01 X-34.9280 Y-13.3224
G01 X-35.0515 Y-13.1751
G01 X-35.1240 Y-13.0596
G01 X-35.1740 Y-12.9565
G01 X-35.2153 Y-12.8435
G01 X-35.2424 Y-12.7382
G01 X-35.2663 Y-12.5312
G01 X-35.2671 Y-12.1671
G01 X-39.5015 Y-12.1670
G01 X-39.6095 Y-12.1619
G01 X-39.7171 Y-12.1466
G01 X-39.8435 Y-12.1153
G01 X-39.9739 Y-12.0662
G01 X-40.1232 Y-11.9863
G01 X-40.2319 Y-11.9089
G01 X-40.3242 Y-11.8263
G01 X-41.0329 Y-11.1175
G01 X-40.7929 Y-11.6969
G01 X-40.7929 Y-17.4460
G01 X-40.6195 Y-17.4035
G01 X-40.4273 Y-17.3784
G01 X-40.3049 Y-17.3733
G01 X-40.1771 Y-17.3781
G01 X-39.9988 Y-17.4003
G01 X-39.8121 Y-17.4445
G01 X-39.6396 Y-17.5062
G01 X-39.4808 Y-17.5828
G01 X-39.3066 Y-17.6929
G01 X-37.2658 Y-17.6929
G01 X-37.1089 Y-17.5971
G01 X-36.9486 Y-17.5213
G01 X-36.7823 Y-17.4628
G01 X-36.5935 Y-17.4191
G01 X-36.4722 Y-17.4020
G01 X-36.3445 Y-17.3943
G01 X-36.1712 Y-17.3985
G01 X-35.9805 Y-17.4235
G01 X-35.8093 Y-17.4653
G01 X-35.6514 Y-17.5213
G01 X-35.4998 Y-17.5925
G01 X-35.3559 Y-17.6782
G01 X-35.2211 Y-17.7776
G01 X-35.0966 Y-17.8897
G01 X-34.9838 Y-18.0135
G01 X-34.8836 Y-18.1477
G01 X-34.7971 Y-18.2911
G01 X-34.7251 Y-18.4423
G01 X-34.6682 Y-18.5999
G01 X-34.6270 Y-18.7622
G01 X-34.6020 Y-18.9278
G01 X-34.5933 Y-19.0951
