(G-CODE GENERATED BY FLATCAM vUnstable - www.flatcam.org - Version Date: 2021/2/7)

(Name: electronic_flasher_relay_0.8mm.drl_cnc)
(Type: G-code from Excellon)
(Units: MM)

(Created on Thursday, 21 July 2022 at 09:54)

(This preprocessor is the default preprocessor used by FlatCAM.)
(It is made to work with MACH3 compatible motion controllers.)


(TOOLS DIAMETER: )
(Tool: 1 -> Dia: 0.8000999999999999)

(FEEDRATE Z: )
(Tool: 1 -> Feedrate: 300)

(FEEDRATE RAPIDS: )
(Tool: 1 -> Feedrate Rapids: 1500)

(Z_CUT: )
(Tool: 1 -> Z_Cut: -2.0)

(Tools Offset: )
(Tool: 1 -> Offset Z: 0.0)

(Z_MOVE: )
(Tool: 1 -> Z_Move: 2.0)

(Z Start: None mm)
(Z End: 15 mm)
(X,Y End: None mm)
(Steps per circle: 16)
(Preprocessor Excellon: default)

(X range:  -40.6997 ...  -10.6591  mm)
(Y range:  -23.1407 ...   -3.9205  mm)

(Spindle Speed: 300 RPM)
G21
G90
G94

G01 F300.00
G00 Z2.0000
M03 S300
G00 X-11.0592 Y-17.6606
G01 Z-2.0000
G01 Z0
G00 Z2.0000
G00 X-11.0592 Y-20.2006
G01 Z-2.0000
G01 Z0
G00 Z2.0000
G00 X-11.0592 Y-22.7406
G01 Z-2.0000
G01 Z0
G00 Z2.0000
G00 X-19.5199 Y-20.2006
G01 Z-2.0000
G01 Z0
G00 Z2.0000
G00 X-20.5003 Y-14.4805
G01 Z-2.0000
G01 Z0
G00 Z2.0000
G00 X-24.5999 Y-16.5989
G01 Z-2.0000
G01 Z0
G00 Z2.0000
G00 X-27.1399 Y-16.5989
G01 Z-2.0000
G01 Z0
G00 Z2.0000
G00 X-29.6799 Y-16.5989
G01 Z-2.0000
G01 Z0
G00 Z2.0000
G00 X-32.2199 Y-16.5989
G01 Z-2.0000
G01 Z0
G00 Z2.0000
G00 X-29.6799 Y-20.2006
G01 Z-2.0000
G01 Z0
G00 Z2.0000
G00 X-36.2991 Y-19.1008
G01 Z-2.0000
G01 Z0
G00 Z2.0000
G00 X-40.2996 Y-19.0805
G01 Z-2.0000
G01 Z0
G00 Z2.0000
G00 X-40.2996 Y-8.9205
G01 Z-2.0000
G01 Z0
G00 Z2.0000
G00 X-36.2991 Y-8.9408
G01 Z-2.0000
G01 Z0
G00 Z2.0000
G00 X-32.2199 Y-8.9789
G01 Z-2.0000
G01 Z0
G00 Z2.0000
G00 X-29.6799 Y-8.9789
G01 Z-2.0000
G01 Z0
G00 Z2.0000
G00 X-27.1399 Y-8.9789
G01 Z-2.0000
G01 Z0
G00 Z2.0000
G00 X-24.5999 Y-8.9789
G01 Z-2.0000
G01 Z0
G00 Z2.0000
G00 X-24.0995 Y-4.8006
G01 Z-2.0000
G01 Z0
G00 Z2.0000
G00 X-20.5003 Y-4.3205
G01 Z-2.0000
G01 Z0
G00 Z2.0000
G00 X-34.2595 Y-4.8006
G01 Z-2.0000
G01 Z0
G00 Z2.0000
M05
G00 Z15.00


