(G-CODE GENERATED BY FLATCAM vUnstable - www.flatcam.org - Version Date: 2021/2/7)

(Name: electronic_flasher_relay_1.1mm.drl_cnc)
(Type: G-code from Excellon)
(Units: MM)

(Created on Thursday, 21 July 2022 at 09:55)

(This preprocessor is the default preprocessor used by FlatCAM.)
(It is made to work with MACH3 compatible motion controllers.)


(TOOLS DIAMETER: )
(Tool: 1 -> Dia: 1.0998199999999998)

(FEEDRATE Z: )
(Tool: 1 -> Feedrate: 300)

(FEEDRATE RAPIDS: )
(Tool: 1 -> Feedrate Rapids: 1500)

(Z_CUT: )
(Tool: 1 -> Z_Cut: -2.0)

(Tools Offset: )
(Tool: 1 -> Offset Z: 0.0)

(Z_MOVE: )
(Tool: 1 -> Z_Move: 2)

(Z Start: None mm)
(Z End: 15 mm)
(X,Y End: None mm)
(Steps per circle: 16)
(Preprocessor Excellon: default)

(X range:  -16.4960 ...   -9.3510  mm)
(Y range:  -14.7307 ...   -3.4709  mm)

(Spindle Speed: 300 RPM)
G21
G90
G94

G01 F300.00
G00 Z2.0000
M03 S300
G00 X-9.9009 Y-4.0208
G01 Z-2.0000
G01 Z0
G00 Z2.0000
G00 X-15.9461 Y-6.8605
G01 Z-2.0000
G01 Z0
G00 Z2.0000
G00 X-15.9461 Y-9.4005
G01 Z-2.0000
G01 Z0
G00 Z2.0000
G00 X-15.9461 Y-11.9405
G01 Z-2.0000
G01 Z0
G00 Z2.0000
G00 X-9.9009 Y-14.1808
G01 Z-2.0000
G01 Z0
G00 Z2.0000
M05
G00 Z15.00


