(G-CODE GENERATED BY FLATCAM vUnstable - www.flatcam.org - Version Date: 2021/2/7)

(Name: electronic_flasher_relay_3.0mm.drl_exc_cnc_cnc)
(Type: G-code from Geometry)
(Units: MM)

(Created on Thursday, 21 July 2022 at 09:56)

(This preprocessor is the default preprocessor used by FlatCAM.)
(It is made to work with MACH3 compatible motion controllers.)

(TOOL DIAMETER: 1.0 mm)
(Feedrate_XY: 120.0 mm/min)
(Feedrate_Z: 60.0 mm/min)
(Feedrate rapids 1500.0 mm/min)

(Z_Cut: -2.0 mm)
(DepthPerCut: 0.5 mm <=>4 passes)
(Z_Move: 2.0 mm)
(Z Start: None mm)
(Z End: 15.0 mm)
(X,Y End: 0.0000, 0.0000 mm)
(Steps per circle: 16)
(Preprocessor Geometry: default)

(X range:   -6.1989 ...   -3.1991  mm)
(Y range:  -22.8994 ...   -5.5004  mm)

(Spindle Speed: 300.0 RPM)
G21
G90
G94

G01 F120.00
G00 Z2.0000

M03 S300.0
G01 F120.00
G00 X-4.1997 Y-7.0002
G01 F60.00
G01 Z-0.5000
G01 F120.00
G01 X-4.2093 Y-7.0976
G01 X-4.2377 Y-7.1913
G01 X-4.2839 Y-7.2776
G01 X-4.3460 Y-7.3533
G01 X-4.4216 Y-7.4154
G01 X-4.5079 Y-7.4615
G01 X-4.6016 Y-7.4899
G01 X-4.6990 Y-7.4995
G01 X-4.7964 Y-7.4899
G01 X-4.8901 Y-7.4615
G01 X-4.9764 Y-7.4154
G01 X-5.0520 Y-7.3533
G01 X-5.1141 Y-7.2776
G01 X-5.1603 Y-7.1913
G01 X-5.1887 Y-7.0976
G01 X-5.1983 Y-7.0002
G01 X-5.1887 Y-6.9028
G01 X-5.1603 Y-6.8092
G01 X-5.1141 Y-6.7229
G01 X-5.0520 Y-6.6472
G01 X-4.9764 Y-6.5851
G01 X-4.8901 Y-6.5390
G01 X-4.7964 Y-6.5106
G01 X-4.6990 Y-6.5010
G01 X-4.6016 Y-6.5106
G01 X-4.5079 Y-6.5390
G01 X-4.4216 Y-6.5851
G01 X-4.3460 Y-6.6472
G01 X-4.2839 Y-6.7229
G01 X-4.2377 Y-6.8092
G01 X-4.2093 Y-6.9028
G01 X-4.1997 Y-7.0002
G01 X-4.2490 Y-7.0002
G01 X-4.2576 Y-7.0880
G01 X-4.2753 Y-7.1518
G01 X-4.3130 Y-7.2316
G01 X-4.3511 Y-7.2857
G01 X-4.4490 Y-7.3744
G01 X-4.5474 Y-7.4239
G01 X-4.6769 Y-7.4497
G01 X-4.8083 Y-7.4368
G01 X-4.9303 Y-7.3862
G01 X-5.0324 Y-7.3024
G01 X-5.0959 Y-7.2124
G01 X-5.1355 Y-7.1096
G01 X-5.1490 Y-7.0002
G01 X-5.1355 Y-6.8909
G01 X-5.0959 Y-6.7881
G01 X-5.0324 Y-6.6980
G01 X-4.9490 Y-6.6261
G01 X-4.8506 Y-6.5765
G01 X-4.7431 Y-6.5524
G01 X-4.6330 Y-6.5551
G01 X-4.5268 Y-6.5845
G01 X-4.4309 Y-6.6388
G01 X-4.3656 Y-6.6980
G01 X-4.3021 Y-6.7881
G01 X-4.2625 Y-6.8909
G01 X-4.2490 Y-7.0002
G00 X-4.2490 Y-7.0002
G01 F60.00
G01 Z-1.0000
G01 F120.00
G01 X-4.2625 Y-6.8909
G01 X-4.3021 Y-6.7881
G01 X-4.3656 Y-6.6980
G01 X-4.4309 Y-6.6388
G01 X-4.5268 Y-6.5845
G01 X-4.6330 Y-6.5551
G01 X-4.7431 Y-6.5524
G01 X-4.8506 Y-6.5765
G01 X-4.9490 Y-6.6261
G01 X-5.0324 Y-6.6980
G01 X-5.0959 Y-6.7881
G01 X-5.1355 Y-6.8909
G01 X-5.1490 Y-7.0002
G01 X-5.1355 Y-7.1096
G01 X-5.0959 Y-7.2124
G01 X-5.0324 Y-7.3024
G01 X-4.9303 Y-7.3862
G01 X-4.8083 Y-7.4368
G01 X-4.6769 Y-7.4497
G01 X-4.5474 Y-7.4239
G01 X-4.4490 Y-7.3744
G01 X-4.3511 Y-7.2857
G01 X-4.3130 Y-7.2316
G01 X-4.2753 Y-7.1518
G01 X-4.2576 Y-7.0880
G01 X-4.2490 Y-7.0002
G01 X-4.1997 Y-7.0002
G01 X-4.2093 Y-6.9028
G01 X-4.2377 Y-6.8092
G01 X-4.2839 Y-6.7229
G01 X-4.3460 Y-6.6472
G01 X-4.4216 Y-6.5851
G01 X-4.5079 Y-6.5390
G01 X-4.6016 Y-6.5106
G01 X-4.6990 Y-6.5010
G01 X-4.7964 Y-6.5106
G01 X-4.8901 Y-6.5390
G01 X-4.9764 Y-6.5851
G01 X-5.0520 Y-6.6472
G01 X-5.1141 Y-6.7229
G01 X-5.1603 Y-6.8092
G01 X-5.1887 Y-6.9028
G01 X-5.1983 Y-7.0002
G01 X-5.1887 Y-7.0976
G01 X-5.1603 Y-7.1913
G01 X-5.1141 Y-7.2776
G01 X-5.0520 Y-7.3533
G01 X-4.9764 Y-7.4154
G01 X-4.8901 Y-7.4615
G01 X-4.7964 Y-7.4899
G01 X-4.6990 Y-7.4995
G01 X-4.6016 Y-7.4899
G01 X-4.5079 Y-7.4615
G01 X-4.4216 Y-7.4154
G01 X-4.3460 Y-7.3533
G01 X-4.2839 Y-7.2776
G01 X-4.2377 Y-7.1913
G01 X-4.2093 Y-7.0976
G01 X-4.1997 Y-7.0002
G00 X-4.1997 Y-7.0002
G01 F60.00
G01 Z-1.5000
G01 F120.00
G01 X-4.2093 Y-7.0976
G01 X-4.2377 Y-7.1913
G01 X-4.2839 Y-7.2776
G01 X-4.3460 Y-7.3533
G01 X-4.4216 Y-7.4154
G01 X-4.5079 Y-7.4615
G01 X-4.6016 Y-7.4899
G01 X-4.6990 Y-7.4995
G01 X-4.7964 Y-7.4899
G01 X-4.8901 Y-7.4615
G01 X-4.9764 Y-7.4154
G01 X-5.0520 Y-7.3533
G01 X-5.1141 Y-7.2776
G01 X-5.1603 Y-7.1913
G01 X-5.1887 Y-7.0976
G01 X-5.1983 Y-7.0002
G01 X-5.1887 Y-6.9028
G01 X-5.1603 Y-6.8092
G01 X-5.1141 Y-6.7229
G01 X-5.0520 Y-6.6472
G01 X-4.9764 Y-6.5851
G01 X-4.8901 Y-6.5390
G01 X-4.7964 Y-6.5106
G01 X-4.6990 Y-6.5010
G01 X-4.6016 Y-6.5106
G01 X-4.5079 Y-6.5390
G01 X-4.4216 Y-6.5851
G01 X-4.3460 Y-6.6472
G01 X-4.2839 Y-6.7229
G01 X-4.2377 Y-6.8092
G01 X-4.2093 Y-6.9028
G01 X-4.1997 Y-7.0002
G01 X-4.2490 Y-7.0002
G01 X-4.2576 Y-7.0880
G01 X-4.2753 Y-7.1518
G01 X-4.3130 Y-7.2316
G01 X-4.3511 Y-7.2857
G01 X-4.4490 Y-7.3744
G01 X-4.5474 Y-7.4239
G01 X-4.6769 Y-7.4497
G01 X-4.8083 Y-7.4368
G01 X-4.9303 Y-7.3862
G01 X-5.0324 Y-7.3024
G01 X-5.0959 Y-7.2124
G01 X-5.1355 Y-7.1096
G01 X-5.1490 Y-7.0002
G01 X-5.1355 Y-6.8909
G01 X-5.0959 Y-6.7881
G01 X-5.0324 Y-6.6980
G01 X-4.9490 Y-6.6261
G01 X-4.8506 Y-6.5765
G01 X-4.7431 Y-6.5524
G01 X-4.6330 Y-6.5551
G01 X-4.5268 Y-6.5845
G01 X-4.4309 Y-6.6388
G01 X-4.3656 Y-6.6980
G01 X-4.3021 Y-6.7881
G01 X-4.2625 Y-6.8909
G01 X-4.2490 Y-7.0002
G00 X-4.2490 Y-7.0002
G01 F60.00
G01 Z-2.0000
G01 F120.00
G01 X-4.2625 Y-6.8909
G01 X-4.3021 Y-6.7881
G01 X-4.3656 Y-6.6980
G01 X-4.4309 Y-6.6388
G01 X-4.5268 Y-6.5845
G01 X-4.6330 Y-6.5551
G01 X-4.7431 Y-6.5524
G01 X-4.8506 Y-6.5765
G01 X-4.9490 Y-6.6261
G01 X-5.0324 Y-6.6980
G01 X-5.0959 Y-6.7881
G01 X-5.1355 Y-6.8909
G01 X-5.1490 Y-7.0002
G01 X-5.1355 Y-7.1096
G01 X-5.0959 Y-7.2124
G01 X-5.0324 Y-7.3024
G01 X-4.9303 Y-7.3862
G01 X-4.8083 Y-7.4368
G01 X-4.6769 Y-7.4497
G01 X-4.5474 Y-7.4239
G01 X-4.4490 Y-7.3744
G01 X-4.3511 Y-7.2857
G01 X-4.3130 Y-7.2316
G01 X-4.2753 Y-7.1518
G01 X-4.2576 Y-7.0880
G01 X-4.2490 Y-7.0002
G01 X-4.1997 Y-7.0002
G01 X-4.2093 Y-6.9028
G01 X-4.2377 Y-6.8092
G01 X-4.2839 Y-6.7229
G01 X-4.3460 Y-6.6472
G01 X-4.4216 Y-6.5851
G01 X-4.5079 Y-6.5390
G01 X-4.6016 Y-6.5106
G01 X-4.6990 Y-6.5010
G01 X-4.7964 Y-6.5106
G01 X-4.8901 Y-6.5390
G01 X-4.9764 Y-6.5851
G01 X-5.0520 Y-6.6472
G01 X-5.1141 Y-6.7229
G01 X-5.1603 Y-6.8092
G01 X-5.1887 Y-6.9028
G01 X-5.1983 Y-7.0002
G01 X-5.1887 Y-7.0976
G01 X-5.1603 Y-7.1913
G01 X-5.1141 Y-7.2776
G01 X-5.0520 Y-7.3533
G01 X-4.9764 Y-7.4154
G01 X-4.8901 Y-7.4615
G01 X-4.7964 Y-7.4899
G01 X-4.6990 Y-7.4995
G01 X-4.6016 Y-7.4899
G01 X-4.5079 Y-7.4615
G01 X-4.4216 Y-7.4154
G01 X-4.3460 Y-7.3533
G01 X-4.2839 Y-7.2776
G01 X-4.2377 Y-7.1913
G01 X-4.2093 Y-7.0976
G01 X-4.1997 Y-7.0002
G00 Z2.0000
G00 X-4.2490 Y-14.2011
G01 F60.00
G01 Z-0.5000
G01 F120.00
G01 X-4.2625 Y-14.0918
G01 X-4.3021 Y-13.9890
G01 X-4.3656 Y-13.8989
G01 X-4.4490 Y-13.8270
G01 X-4.5474 Y-13.7774
G01 X-4.6549 Y-13.7533
G01 X-4.7650 Y-13.7560
G01 X-4.8712 Y-13.7854
G01 X-4.9671 Y-13.8397
G01 X-5.0469 Y-13.9157
G01 X-5.1058 Y-14.0087
G01 X-5.1355 Y-14.0918
G01 X-5.1490 Y-14.2011
G01 X-5.1355 Y-14.3105
G01 X-5.0959 Y-14.4133
G01 X-5.0324 Y-14.5033
G01 X-4.9303 Y-14.5871
G01 X-4.8083 Y-14.6377
G01 X-4.6769 Y-14.6506
G01 X-4.5474 Y-14.6248
G01 X-4.4309 Y-14.5626
G01 X-4.3511 Y-14.4866
G01 X-4.3021 Y-14.4133
G01 X-4.2753 Y-14.3527
G01 X-4.2539 Y-14.2672
G01 X-4.2490 Y-14.2011
G01 X-4.1997 Y-14.2011
G01 X-4.2093 Y-14.1037
G01 X-4.2377 Y-14.0101
G01 X-4.2839 Y-13.9238
G01 X-4.3460 Y-13.8481
G01 X-4.4216 Y-13.7860
G01 X-4.5079 Y-13.7399
G01 X-4.6016 Y-13.7115
G01 X-4.6990 Y-13.7019
G01 X-4.7964 Y-13.7115
G01 X-4.8901 Y-13.7399
G01 X-4.9764 Y-13.7860
G01 X-5.0520 Y-13.8481
G01 X-5.1141 Y-13.9238
G01 X-5.1603 Y-14.0101
G01 X-5.1887 Y-14.1037
G01 X-5.1983 Y-14.2011
G01 X-5.1887 Y-14.2985
G01 X-5.1603 Y-14.3922
G01 X-5.1141 Y-14.4785
G01 X-5.0520 Y-14.5542
G01 X-4.9764 Y-14.6163
G01 X-4.8901 Y-14.6624
G01 X-4.7964 Y-14.6908
G01 X-4.6990 Y-14.7004
G01 X-4.6016 Y-14.6908
G01 X-4.5079 Y-14.6624
G01 X-4.4216 Y-14.6163
G01 X-4.3460 Y-14.5542
G01 X-4.2839 Y-14.4785
G01 X-4.2377 Y-14.3922
G01 X-4.2093 Y-14.2985
G01 X-4.1997 Y-14.2011
G00 X-4.1997 Y-14.2011
G01 F60.00
G01 Z-1.0000
G01 F120.00
G01 X-4.2093 Y-14.2985
G01 X-4.2377 Y-14.3922
G01 X-4.2839 Y-14.4785
G01 X-4.3460 Y-14.5542
G01 X-4.4216 Y-14.6163
G01 X-4.5079 Y-14.6624
G01 X-4.6016 Y-14.6908
G01 X-4.6990 Y-14.7004
G01 X-4.7964 Y-14.6908
G01 X-4.8901 Y-14.6624
G01 X-4.9764 Y-14.6163
G01 X-5.0520 Y-14.5542
G01 X-5.1141 Y-14.4785
G01 X-5.1603 Y-14.3922
G01 X-5.1887 Y-14.2985
G01 X-5.1983 Y-14.2011
G01 X-5.1887 Y-14.1037
G01 X-5.1603 Y-14.0101
G01 X-5.1141 Y-13.9238
G01 X-5.0520 Y-13.8481
G01 X-4.9764 Y-13.7860
G01 X-4.8901 Y-13.7399
G01 X-4.7964 Y-13.7115
G01 X-4.6990 Y-13.7019
G01 X-4.6016 Y-13.7115
G01 X-4.5079 Y-13.7399
G01 X-4.4216 Y-13.7860
G01 X-4.3460 Y-13.8481
G01 X-4.2839 Y-13.9238
G01 X-4.2377 Y-14.0101
G01 X-4.2093 Y-14.1037
G01 X-4.1997 Y-14.2011
G01 X-4.2490 Y-14.2011
G01 X-4.2539 Y-14.2672
G01 X-4.2753 Y-14.3527
G01 X-4.3021 Y-14.4133
G01 X-4.3511 Y-14.4866
G01 X-4.4309 Y-14.5626
G01 X-4.5474 Y-14.6248
G01 X-4.6769 Y-14.6506
G01 X-4.8083 Y-14.6377
G01 X-4.9303 Y-14.5871
G01 X-5.0324 Y-14.5033
G01 X-5.0959 Y-14.4133
G01 X-5.1355 Y-14.3105
G01 X-5.1490 Y-14.2011
G01 X-5.1355 Y-14.0918
G01 X-5.1058 Y-14.0087
G01 X-5.0469 Y-13.9157
G01 X-4.9671 Y-13.8397
G01 X-4.8712 Y-13.7854
G01 X-4.7650 Y-13.7560
G01 X-4.6549 Y-13.7533
G01 X-4.5474 Y-13.7774
G01 X-4.4490 Y-13.8270
G01 X-4.3656 Y-13.8989
G01 X-4.3021 Y-13.9890
G01 X-4.2625 Y-14.0918
G01 X-4.2490 Y-14.2011
G00 X-4.2490 Y-14.2011
G01 F60.00
G01 Z-1.5000
G01 F120.00
G01 X-4.2625 Y-14.0918
G01 X-4.3021 Y-13.9890
G01 X-4.3656 Y-13.8989
G01 X-4.4490 Y-13.8270
G01 X-4.5474 Y-13.7774
G01 X-4.6549 Y-13.7533
G01 X-4.7650 Y-13.7560
G01 X-4.8712 Y-13.7854
G01 X-4.9671 Y-13.8397
G01 X-5.0469 Y-13.9157
G01 X-5.1058 Y-14.0087
G01 X-5.1355 Y-14.0918
G01 X-5.1490 Y-14.2011
G01 X-5.1355 Y-14.3105
G01 X-5.0959 Y-14.4133
G01 X-5.0324 Y-14.5033
G01 X-4.9303 Y-14.5871
G01 X-4.8083 Y-14.6377
G01 X-4.6769 Y-14.6506
G01 X-4.5474 Y-14.6248
G01 X-4.4309 Y-14.5626
G01 X-4.3511 Y-14.4866
G01 X-4.3021 Y-14.4133
G01 X-4.2753 Y-14.3527
G01 X-4.2539 Y-14.2672
G01 X-4.2490 Y-14.2011
G01 X-4.1997 Y-14.2011
G01 X-4.2093 Y-14.1037
G01 X-4.2377 Y-14.0101
G01 X-4.2839 Y-13.9238
G01 X-4.3460 Y-13.8481
G01 X-4.4216 Y-13.7860
G01 X-4.5079 Y-13.7399
G01 X-4.6016 Y-13.7115
G01 X-4.6990 Y-13.7019
G01 X-4.7964 Y-13.7115
G01 X-4.8901 Y-13.7399
G01 X-4.9764 Y-13.7860
G01 X-5.0520 Y-13.8481
G01 X-5.1141 Y-13.9238
G01 X-5.1603 Y-14.0101
G01 X-5.1887 Y-14.1037
G01 X-5.1983 Y-14.2011
G01 X-5.1887 Y-14.2985
G01 X-5.1603 Y-14.3922
G01 X-5.1141 Y-14.4785
G01 X-5.0520 Y-14.5542
G01 X-4.9764 Y-14.6163
G01 X-4.8901 Y-14.6624
G01 X-4.7964 Y-14.6908
G01 X-4.6990 Y-14.7004
G01 X-4.6016 Y-14.6908
G01 X-4.5079 Y-14.6624
G01 X-4.4216 Y-14.6163
G01 X-4.3460 Y-14.5542
G01 X-4.2839 Y-14.4785
G01 X-4.2377 Y-14.3922
G01 X-4.2093 Y-14.2985
G01 X-4.1997 Y-14.2011
G00 X-4.1997 Y-14.2011
G01 F60.00
G01 Z-2.0000
G01 F120.00
G01 X-4.2093 Y-14.2985
G01 X-4.2377 Y-14.3922
G01 X-4.2839 Y-14.4785
G01 X-4.3460 Y-14.5542
G01 X-4.4216 Y-14.6163
G01 X-4.5079 Y-14.6624
G01 X-4.6016 Y-14.6908
G01 X-4.6990 Y-14.7004
G01 X-4.7964 Y-14.6908
G01 X-4.8901 Y-14.6624
G01 X-4.9764 Y-14.6163
G01 X-5.0520 Y-14.5542
G01 X-5.1141 Y-14.4785
G01 X-5.1603 Y-14.3922
G01 X-5.1887 Y-14.2985
G01 X-5.1983 Y-14.2011
G01 X-5.1887 Y-14.1037
G01 X-5.1603 Y-14.0101
G01 X-5.1141 Y-13.9238
G01 X-5.0520 Y-13.8481
G01 X-4.9764 Y-13.7860
G01 X-4.8901 Y-13.7399
G01 X-4.7964 Y-13.7115
G01 X-4.6990 Y-13.7019
G01 X-4.6016 Y-13.7115
G01 X-4.5079 Y-13.7399
G01 X-4.4216 Y-13.7860
G01 X-4.3460 Y-13.8481
G01 X-4.2839 Y-13.9238
G01 X-4.2377 Y-14.0101
G01 X-4.2093 Y-14.1037
G01 X-4.1997 Y-14.2011
G01 X-4.2490 Y-14.2011
G01 X-4.2539 Y-14.2672
G01 X-4.2753 Y-14.3527
G01 X-4.3021 Y-14.4133
G01 X-4.3511 Y-14.4866
G01 X-4.4309 Y-14.5626
G01 X-4.5474 Y-14.6248
G01 X-4.6769 Y-14.6506
G01 X-4.8083 Y-14.6377
G01 X-4.9303 Y-14.5871
G01 X-5.0324 Y-14.5033
G01 X-5.0959 Y-14.4133
G01 X-5.1355 Y-14.3105
G01 X-5.1490 Y-14.2011
G01 X-5.1355 Y-14.0918
G01 X-5.1058 Y-14.0087
G01 X-5.0469 Y-13.9157
G01 X-4.9671 Y-13.8397
G01 X-4.8712 Y-13.7854
G01 X-4.7650 Y-13.7560
G01 X-4.6549 Y-13.7533
G01 X-4.5474 Y-13.7774
G01 X-4.4490 Y-13.8270
G01 X-4.3656 Y-13.8989
G01 X-4.3021 Y-13.9890
G01 X-4.2625 Y-14.0918
G01 X-4.2490 Y-14.2011
G00 Z2.0000
G00 X-4.2490 Y-21.3995
G01 F60.00
G01 Z-0.5000
G01 F120.00
G01 X-4.2625 Y-21.2902
G01 X-4.3021 Y-21.1874
G01 X-4.3656 Y-21.0973
G01 X-4.4490 Y-21.0253
G01 X-4.5474 Y-20.9758
G01 X-4.6549 Y-20.9517
G01 X-4.7650 Y-20.9544
G01 X-4.8712 Y-20.9838
G01 X-4.9490 Y-21.0253
G01 X-5.0324 Y-21.0973
G01 X-5.0959 Y-21.1874
G01 X-5.1355 Y-21.2902
G01 X-5.1490 Y-21.3995
G01 X-5.1355 Y-21.5088
G01 X-5.0959 Y-21.6116
G01 X-5.0324 Y-21.7017
G01 X-4.9303 Y-21.7855
G01 X-4.8083 Y-21.8360
G01 X-4.6769 Y-21.8490
G01 X-4.5474 Y-21.8232
G01 X-4.4490 Y-21.7737
G01 X-4.3511 Y-21.6850
G01 X-4.3021 Y-21.6116
G01 X-4.2753 Y-21.5511
G01 X-4.2539 Y-21.4655
G01 X-4.2490 Y-21.3995
G01 X-4.1997 Y-21.3995
G01 X-4.2093 Y-21.3021
G01 X-4.2377 Y-21.2084
G01 X-4.2839 Y-21.1221
G01 X-4.3460 Y-21.0465
G01 X-4.4216 Y-20.9844
G01 X-4.5079 Y-20.9382
G01 X-4.6016 Y-20.9098
G01 X-4.6990 Y-20.9002
G01 X-4.7964 Y-20.9098
G01 X-4.8901 Y-20.9382
G01 X-4.9764 Y-20.9844
G01 X-5.0520 Y-21.0465
G01 X-5.1141 Y-21.1221
G01 X-5.1603 Y-21.2084
G01 X-5.1887 Y-21.3021
G01 X-5.1983 Y-21.3995
G01 X-5.1887 Y-21.4969
G01 X-5.1603 Y-21.5906
G01 X-5.1141 Y-21.6769
G01 X-5.0520 Y-21.7525
G01 X-4.9764 Y-21.8146
G01 X-4.8901 Y-21.8608
G01 X-4.7964 Y-21.8892
G01 X-4.6990 Y-21.8988
G01 X-4.6016 Y-21.8892
G01 X-4.5079 Y-21.8608
G01 X-4.4216 Y-21.8146
G01 X-4.3460 Y-21.7525
G01 X-4.2839 Y-21.6769
G01 X-4.2377 Y-21.5906
G01 X-4.2093 Y-21.4969
G01 X-4.1997 Y-21.3995
G00 X-4.1997 Y-21.3995
G01 F60.00
G01 Z-1.0000
G01 F120.00
G01 X-4.2093 Y-21.4969
G01 X-4.2377 Y-21.5906
G01 X-4.2839 Y-21.6769
G01 X-4.3460 Y-21.7525
G01 X-4.4216 Y-21.8146
G01 X-4.5079 Y-21.8608
G01 X-4.6016 Y-21.8892
G01 X-4.6990 Y-21.8988
G01 X-4.7964 Y-21.8892
G01 X-4.8901 Y-21.8608
G01 X-4.9764 Y-21.8146
G01 X-5.0520 Y-21.7525
G01 X-5.1141 Y-21.6769
G01 X-5.1603 Y-21.5906
G01 X-5.1887 Y-21.4969
G01 X-5.1983 Y-21.3995
G01 X-5.1887 Y-21.3021
G01 X-5.1603 Y-21.2084
G01 X-5.1141 Y-21.1221
G01 X-5.0520 Y-21.0465
G01 X-4.9764 Y-20.9844
G01 X-4.8901 Y-20.9382
G01 X-4.7964 Y-20.9098
G01 X-4.6990 Y-20.9002
G01 X-4.6016 Y-20.9098
G01 X-4.5079 Y-20.9382
G01 X-4.4216 Y-20.9844
G01 X-4.3460 Y-21.0465
G01 X-4.2839 Y-21.1221
G01 X-4.2377 Y-21.2084
G01 X-4.2093 Y-21.3021
G01 X-4.1997 Y-21.3995
G01 X-4.2490 Y-21.3995
G01 X-4.2539 Y-21.4655
G01 X-4.2753 Y-21.5511
G01 X-4.3021 Y-21.6116
G01 X-4.3511 Y-21.6850
G01 X-4.4490 Y-21.7737
G01 X-4.5474 Y-21.8232
G01 X-4.6769 Y-21.8490
G01 X-4.8083 Y-21.8360
G01 X-4.9303 Y-21.7855
G01 X-5.0324 Y-21.7017
G01 X-5.0959 Y-21.6116
G01 X-5.1355 Y-21.5088
G01 X-5.1490 Y-21.3995
G01 X-5.1355 Y-21.2902
G01 X-5.0959 Y-21.1874
G01 X-5.0324 Y-21.0973
G01 X-4.9490 Y-21.0253
G01 X-4.8712 Y-20.9838
G01 X-4.7650 Y-20.9544
G01 X-4.6549 Y-20.9517
G01 X-4.5474 Y-20.9758
G01 X-4.4490 Y-21.0253
G01 X-4.3656 Y-21.0973
G01 X-4.3021 Y-21.1874
G01 X-4.2625 Y-21.2902
G01 X-4.2490 Y-21.3995
G00 X-4.2490 Y-21.3995
G01 F60.00
G01 Z-1.5000
G01 F120.00
G01 X-4.2625 Y-21.2902
G01 X-4.3021 Y-21.1874
G01 X-4.3656 Y-21.0973
G01 X-4.4490 Y-21.0253
G01 X-4.5474 Y-20.9758
G01 X-4.6549 Y-20.9517
G01 X-4.7650 Y-20.9544
G01 X-4.8712 Y-20.9838
G01 X-4.9490 Y-21.0253
G01 X-5.0324 Y-21.0973
G01 X-5.0959 Y-21.1874
G01 X-5.1355 Y-21.2902
G01 X-5.1490 Y-21.3995
G01 X-5.1355 Y-21.5088
G01 X-5.0959 Y-21.6116
G01 X-5.0324 Y-21.7017
G01 X-4.9303 Y-21.7855
G01 X-4.8083 Y-21.8360
G01 X-4.6769 Y-21.8490
G01 X-4.5474 Y-21.8232
G01 X-4.4490 Y-21.7737
G01 X-4.3511 Y-21.6850
G01 X-4.3021 Y-21.6116
G01 X-4.2753 Y-21.5511
G01 X-4.2539 Y-21.4655
G01 X-4.2490 Y-21.3995
G01 X-4.1997 Y-21.3995
G01 X-4.2093 Y-21.3021
G01 X-4.2377 Y-21.2084
G01 X-4.2839 Y-21.1221
G01 X-4.3460 Y-21.0465
G01 X-4.4216 Y-20.9844
G01 X-4.5079 Y-20.9382
G01 X-4.6016 Y-20.9098
G01 X-4.6990 Y-20.9002
G01 X-4.7964 Y-20.9098
G01 X-4.8901 Y-20.9382
G01 X-4.9764 Y-20.9844
G01 X-5.0520 Y-21.0465
G01 X-5.1141 Y-21.1221
G01 X-5.1603 Y-21.2084
G01 X-5.1887 Y-21.3021
G01 X-5.1983 Y-21.3995
G01 X-5.1887 Y-21.4969
G01 X-5.1603 Y-21.5906
G01 X-5.1141 Y-21.6769
G01 X-5.0520 Y-21.7525
G01 X-4.9764 Y-21.8146
G01 X-4.8901 Y-21.8608
G01 X-4.7964 Y-21.8892
G01 X-4.6990 Y-21.8988
G01 X-4.6016 Y-21.8892
G01 X-4.5079 Y-21.8608
G01 X-4.4216 Y-21.8146
G01 X-4.3460 Y-21.7525
G01 X-4.2839 Y-21.6769
G01 X-4.2377 Y-21.5906
G01 X-4.2093 Y-21.4969
G01 X-4.1997 Y-21.3995
G00 X-4.1997 Y-21.3995
G01 F60.00
G01 Z-2.0000
G01 F120.00
G01 X-4.2093 Y-21.4969
G01 X-4.2377 Y-21.5906
G01 X-4.2839 Y-21.6769
G01 X-4.3460 Y-21.7525
G01 X-4.4216 Y-21.8146
G01 X-4.5079 Y-21.8608
G01 X-4.6016 Y-21.8892
G01 X-4.6990 Y-21.8988
G01 X-4.7964 Y-21.8892
G01 X-4.8901 Y-21.8608
G01 X-4.9764 Y-21.8146
G01 X-5.0520 Y-21.7525
G01 X-5.1141 Y-21.6769
G01 X-5.1603 Y-21.5906
G01 X-5.1887 Y-21.4969
G01 X-5.1983 Y-21.3995
G01 X-5.1887 Y-21.3021
G01 X-5.1603 Y-21.2084
G01 X-5.1141 Y-21.1221
G01 X-5.0520 Y-21.0465
G01 X-4.9764 Y-20.9844
G01 X-4.8901 Y-20.9382
G01 X-4.7964 Y-20.9098
G01 X-4.6990 Y-20.9002
G01 X-4.6016 Y-20.9098
G01 X-4.5079 Y-20.9382
G01 X-4.4216 Y-20.9844
G01 X-4.3460 Y-21.0465
G01 X-4.2839 Y-21.1221
G01 X-4.2377 Y-21.2084
G01 X-4.2093 Y-21.3021
G01 X-4.1997 Y-21.3995
G01 X-4.2490 Y-21.3995
G01 X-4.2539 Y-21.4655
G01 X-4.2753 Y-21.5511
G01 X-4.3021 Y-21.6116
G01 X-4.3511 Y-21.6850
G01 X-4.4490 Y-21.7737
G01 X-4.5474 Y-21.8232
G01 X-4.6769 Y-21.8490
G01 X-4.8083 Y-21.8360
G01 X-4.9303 Y-21.7855
G01 X-5.0324 Y-21.7017
G01 X-5.0959 Y-21.6116
G01 X-5.1355 Y-21.5088
G01 X-5.1490 Y-21.3995
G01 X-5.1355 Y-21.2902
G01 X-5.0959 Y-21.1874
G01 X-5.0324 Y-21.0973
G01 X-4.9490 Y-21.0253
G01 X-4.8712 Y-20.9838
G01 X-4.7650 Y-20.9544
G01 X-4.6549 Y-20.9517
G01 X-4.5474 Y-20.9758
G01 X-4.4490 Y-21.0253
G01 X-4.3656 Y-21.0973
G01 X-4.3021 Y-21.1874
G01 X-4.2625 Y-21.2902
G01 X-4.2490 Y-21.3995
G00 Z2.0000
M05
G00 Z2.0000
G00 Z15.00
G00 X0.0 Y0.0


