(G-CODE GENERATED BY FLATCAM vUnstable - www.flatcam.org - Version Date: 2021/2/7)

(Name: electronic_flasher_relay-Edge_Cuts_cutout_cnc)
(Type: G-code from Geometry)
(Units: MM)

(Created on Thursday, 21 July 2022 at 09:58)

(This preprocessor is the default preprocessor used by FlatCAM.)
(It is made to work with MACH3 compatible motion controllers.)

(TOOL DIAMETER: 1.0 mm)
(Feedrate_XY: 120.0 mm/min)
(Feedrate_Z: 60.0 mm/min)
(Feedrate rapids 1500.0 mm/min)

(Z_Cut: -2.0 mm)
(DepthPerCut: 0.5 mm <=>4 passes)
(Z_Move: 2.0 mm)
(Z Start: None mm)
(Z End: 15.0 mm)
(X,Y End: 0.0000, 0.0000 mm)
(Steps per circle: 16)
(Preprocessor Geometry: default)

(X range:  -43.6500 ...   -0.3500  mm)
(Y range:  -25.6500 ...   -0.3500  mm)

(Spindle Speed: 300.0 RPM)
G21
G90
G94

G01 F120.00
G00 Z2.0000

M03 S300.0
G01 F120.00
G00 X-0.3507 Y-24.0294
G01 F60.00
G01 Z-0.5000
G01 F120.00
G01 X-0.3598 Y-24.1123
G01 X-0.4386 Y-24.5095
G01 X-0.4756 Y-24.6314
G01 X-0.5276 Y-24.7315
G01 X-0.7524 Y-25.0682
G01 X-0.8333 Y-25.1667
G01 X-0.9196 Y-25.2392
G01 X-1.2562 Y-25.4644
G01 X-1.3686 Y-25.5244
G01 X-1.4905 Y-25.5614
G01 X-1.8877 Y-25.6402
G01 X-1.9853 Y-25.6498
G01 X-42.0000 Y-25.6500
G01 X-42.1123 Y-25.6402
G01 X-42.5239 Y-25.5584
G01 X-42.6040 Y-25.5350
G01 X-42.6891 Y-25.4972
G01 X-43.0804 Y-25.2392
G01 X-43.1667 Y-25.1667
G01 X-43.2393 Y-25.0804
G01 X-43.4724 Y-24.7315
G01 X-43.5244 Y-24.6314
G01 X-43.5550 Y-24.5382
G01 X-43.6402 Y-24.1123
G01 X-43.6498 Y-24.0147
G01 X-43.6500 Y-2.0000
G01 X-43.6402 Y-1.8877
G01 X-43.5584 Y-1.4761
G01 X-43.5350 Y-1.3960
G01 X-43.4972 Y-1.3109
G01 X-43.2393 Y-0.9196
G01 X-43.1667 Y-0.8333
G01 X-43.0804 Y-0.7607
G01 X-42.7315 Y-0.5276
G01 X-42.6314 Y-0.4756
G01 X-42.5382 Y-0.4450
G01 X-42.1123 Y-0.3598
G01 X-42.0147 Y-0.3502
G01 X-2.0000 Y-0.3500
G01 X-1.8877 Y-0.3598
G01 X-1.4761 Y-0.4416
G01 X-1.3960 Y-0.4650
G01 X-1.3109 Y-0.5028
G01 X-0.9196 Y-0.7607
G01 X-0.8333 Y-0.8333
G01 X-0.7607 Y-0.9196
G01 X-0.5356 Y-1.2562
G01 X-0.4875 Y-1.3416
G01 X-0.4462 Y-1.4570
G01 X-0.3598 Y-1.8877
G01 X-0.3507 Y-1.9706
G01 X-0.3507 Y-24.0294
G00 X-0.3507 Y-24.0294
G01 F60.00
G01 Z-1.0000
G01 F120.00
G01 X-0.3507 Y-1.9706
G01 X-0.3598 Y-1.8877
G01 X-0.4462 Y-1.4570
G01 X-0.4875 Y-1.3416
G01 X-0.5356 Y-1.2562
G01 X-0.7607 Y-0.9196
G01 X-0.8333 Y-0.8333
G01 X-0.9196 Y-0.7607
G01 X-1.3109 Y-0.5028
G01 X-1.3960 Y-0.4650
G01 X-1.4761 Y-0.4416
G01 X-1.8877 Y-0.3598
G01 X-2.0000 Y-0.3500
G01 X-42.0147 Y-0.3502
G01 X-42.1123 Y-0.3598
G01 X-42.5382 Y-0.4450
G01 X-42.6314 Y-0.4756
G01 X-42.7315 Y-0.5276
G01 X-43.0804 Y-0.7607
G01 X-43.1667 Y-0.8333
G01 X-43.2393 Y-0.9196
G01 X-43.4972 Y-1.3109
G01 X-43.5350 Y-1.3960
G01 X-43.5584 Y-1.4761
G01 X-43.6402 Y-1.8877
G01 X-43.6500 Y-2.0000
G01 X-43.6498 Y-24.0147
G01 X-43.6402 Y-24.1123
G01 X-43.5550 Y-24.5382
G01 X-43.5244 Y-24.6314
G01 X-43.4724 Y-24.7315
G01 X-43.2393 Y-25.0804
G01 X-43.1667 Y-25.1667
G01 X-43.0804 Y-25.2392
G01 X-42.6891 Y-25.4972
G01 X-42.6040 Y-25.5350
G01 X-42.5239 Y-25.5584
G01 X-42.1123 Y-25.6402
G01 X-42.0000 Y-25.6500
G01 X-1.9853 Y-25.6498
G01 X-1.8877 Y-25.6402
G01 X-1.4905 Y-25.5614
G01 X-1.3686 Y-25.5244
G01 X-1.2562 Y-25.4644
G01 X-0.9196 Y-25.2392
G01 X-0.8333 Y-25.1667
G01 X-0.7524 Y-25.0682
G01 X-0.5276 Y-24.7315
G01 X-0.4756 Y-24.6314
G01 X-0.4386 Y-24.5095
G01 X-0.3598 Y-24.1123
G01 X-0.3507 Y-24.0294
G00 X-0.3507 Y-24.0294
G01 F60.00
G01 Z-1.5000
G01 F120.00
G01 X-0.3598 Y-24.1123
G01 X-0.4386 Y-24.5095
G01 X-0.4756 Y-24.6314
G01 X-0.5276 Y-24.7315
G01 X-0.7524 Y-25.0682
G01 X-0.8333 Y-25.1667
G01 X-0.9196 Y-25.2392
G01 X-1.2562 Y-25.4644
G01 X-1.3686 Y-25.5244
G01 X-1.4905 Y-25.5614
G01 X-1.8877 Y-25.6402
G01 X-1.9853 Y-25.6498
G01 X-42.0000 Y-25.6500
G01 X-42.1123 Y-25.6402
G01 X-42.5239 Y-25.5584
G01 X-42.6040 Y-25.5350
G01 X-42.6891 Y-25.4972
G01 X-43.0804 Y-25.2392
G01 X-43.1667 Y-25.1667
G01 X-43.2393 Y-25.0804
G01 X-43.4724 Y-24.7315
G01 X-43.5244 Y-24.6314
G01 X-43.5550 Y-24.5382
G01 X-43.6402 Y-24.1123
G01 X-43.6498 Y-24.0147
G01 X-43.6500 Y-2.0000
G01 X-43.6402 Y-1.8877
G01 X-43.5584 Y-1.4761
G01 X-43.5350 Y-1.3960
G01 X-43.4972 Y-1.3109
G01 X-43.2393 Y-0.9196
G01 X-43.1667 Y-0.8333
G01 X-43.0804 Y-0.7607
G01 X-42.7315 Y-0.5276
G01 X-42.6314 Y-0.4756
G01 X-42.5382 Y-0.4450
G01 X-42.1123 Y-0.3598
G01 X-42.0147 Y-0.3502
G01 X-2.0000 Y-0.3500
G01 X-1.8877 Y-0.3598
G01 X-1.4761 Y-0.4416
G01 X-1.3960 Y-0.4650
G01 X-1.3109 Y-0.5028
G01 X-0.9196 Y-0.7607
G01 X-0.8333 Y-0.8333
G01 X-0.7607 Y-0.9196
G01 X-0.5356 Y-1.2562
G01 X-0.4875 Y-1.3416
G01 X-0.4462 Y-1.4570
G01 X-0.3598 Y-1.8877
G01 X-0.3507 Y-1.9706
G01 X-0.3507 Y-24.0294
G00 X-0.3507 Y-24.0294
G01 F60.00
G01 Z-2.0000
G01 F120.00
G01 X-0.3507 Y-1.9706
G01 X-0.3598 Y-1.8877
G01 X-0.4462 Y-1.4570
G01 X-0.4875 Y-1.3416
G01 X-0.5356 Y-1.2562
G01 X-0.7607 Y-0.9196
G01 X-0.8333 Y-0.8333
G01 X-0.9196 Y-0.7607
G01 X-1.3109 Y-0.5028
G01 X-1.3960 Y-0.4650
G01 X-1.4761 Y-0.4416
G01 X-1.8877 Y-0.3598
G01 X-2.0000 Y-0.3500
G01 X-42.0147 Y-0.3502
G01 X-42.1123 Y-0.3598
G01 X-42.5382 Y-0.4450
G01 X-42.6314 Y-0.4756
G01 X-42.7315 Y-0.5276
G01 X-43.0804 Y-0.7607
G01 X-43.1667 Y-0.8333
G01 X-43.2393 Y-0.9196
G01 X-43.4972 Y-1.3109
G01 X-43.5350 Y-1.3960
G01 X-43.5584 Y-1.4761
G01 X-43.6402 Y-1.8877
G01 X-43.6500 Y-2.0000
G01 X-43.6498 Y-24.0147
G01 X-43.6402 Y-24.1123
G01 X-43.5550 Y-24.5382
G01 X-43.5244 Y-24.6314
G01 X-43.4724 Y-24.7315
G01 X-43.2393 Y-25.0804
G01 X-43.1667 Y-25.1667
G01 X-43.0804 Y-25.2392
G01 X-42.6891 Y-25.4972
G01 X-42.6040 Y-25.5350
G01 X-42.5239 Y-25.5584
G01 X-42.1123 Y-25.6402
G01 X-42.0000 Y-25.6500
G01 X-1.9853 Y-25.6498
G01 X-1.8877 Y-25.6402
G01 X-1.4905 Y-25.5614
G01 X-1.3686 Y-25.5244
G01 X-1.2562 Y-25.4644
G01 X-0.9196 Y-25.2392
G01 X-0.8333 Y-25.1667
G01 X-0.7524 Y-25.0682
G01 X-0.5276 Y-24.7315
G01 X-0.4756 Y-24.6314
G01 X-0.4386 Y-24.5095
G01 X-0.3598 Y-24.1123
G01 X-0.3507 Y-24.0294
G00 Z2.0000
M05
G00 Z2.0000
G00 Z15.00
G00 X0.0 Y0.0


